(.../pcb-gcode-3.6.0.4/pcb-gcode.ulp)
(Copyright 2005 - 2012 by John Johnson)
(See readme.txt for licensing terms.)
(This file generated from the board:)
(.../HandHeld_O2_Analyzer/ButtonHack.brd)
(Current profile is .../pcb-gcode-3.6.0.4/profiles/generic.pp  )
(This file generated 3/17/2021 12:13 PM)
(Settings from pcb-machine.h)
(  Tool Size)
(0.3000 )
(Z Axis Settings)
(  High     Up        Down     Drill)
(12.7000 	2.4000 	-0.1000 	-1.7000 )
(spindle on time = 3.0000)
(milling depth = -0.2540)
(text depth = -0.1270)
(tool change at 0.0000 -12.0000 20.0000 )
(feed rate xy = F100.00 )
(feed rate z  = F50.00 )
(Settings from pcb-defaults.h)
(isolate min = 0.0254)
(isolate max = 0.3000)
(isolate step = 0.3000)
(Generated top outlines, top drill, bottom drill, )
(Unit of measure: mm)
( Tool|       Size       |  Min Sub |  Max Sub |   Count )
( T01  0.813mm 0.0320in 0.0000in 0.0000in )
( T02  1.000mm 0.0394in 0.0000in 0.0000in )
(Metric Mode)
G21
(Absolute Coordinates)
G90
M05
G00 Z20.0000 
G00 X0.0000 Y-12.0000 
M06 T01  ; 0.8128 
G01 Z0.0000 F50.00 
M06 T01  ; 0.8128 
G00 Z2.4000 
M03
G04 P3.000000
G00 Z2.400000
G00 X-12.6400 Y15.3600 
G01 Z-1.7000 F50.00 
G01 Z2.400000
(R2.4000  P1.000000)
(G00 Z2.400000)
G00 X-12.7900 Y3.3600 
G01 Z-1.700000
G01 Z2.400000
(G00 Z2.400000)
G00 X-2.4400 Y15.3600 
G01 Z-1.700000
G01 Z2.400000
(G00 Z2.400000)
G00 X-2.4900 Y3.3600 
G01 Z-1.700000
G01 Z2.400000
M05
G00 Z20.0000 
M06 T02  ; 1.0000 
G01 Z0.0000 F50.00 
M06 T02  ; 1.0000 
G00 Z2.4000 
M03
G04 P3.000000
G00 Z2.400000
G00 X-5.1300 Y6.8500 
G01 Z-1.7000 F50.00 
G01 Z2.400000
(R2.4000  P1.000000)
(G00 Z2.400000)
G00 X-5.1300 Y11.8500 
G01 Z-1.700000
G01 Z2.400000
(G00 Z2.400000)
G00 X-10.1300 Y6.8500 
G01 Z-1.700000
G01 Z2.400000
(G00 Z2.400000)
G00 X-10.1300 Y11.8500 
G01 Z-1.700000
G01 Z2.400000
T01 
G00 Z12.7000 
M05
M02
