(.../pcb-gcode-3.6.0.4/pcb-gcode.ulp)
(Copyright 2005 - 2012 by John Johnson)
(See readme.txt for licensing terms.)
(This file generated from the board:)
(.../HandHeld_O2_Analyzer/ButtonHack.brd)
(Current profile is .../pcb-gcode-3.6.0.4/profiles/generic.pp  )
(This file generated 3/17/2021 12:12 PM)
(Settings from pcb-machine.h)
(  Tool Size)
(0.3000 )
(Z Axis Settings)
(  High     Up        Down     Drill)
(12.7000 	2.4000 	-0.1000 	-1.7000 )
(spindle on time = 3.0000)
(milling depth = -0.2540)
(text depth = -0.1270)
(tool change at 0.0000 -12.0000 20.0000 )
(feed rate xy = F100.00 )
(feed rate z  = F50.00 )
(Settings from pcb-defaults.h)
(isolate min = 0.0254)
(isolate max = 0.3000)
(isolate step = 0.3000)
(Generated top outlines, top drill, bottom drill, )
(Unit of measure: mm)
(Metric Mode)
G21
(Absolute Coordinates)
G90
G00 X0.0000 Y0.0000 
M03
G04 P3.000000
G00 Z2.4000 
G00 X9.4425 Y8.6328 
G01 Z-0.1000 F50.00 
G01 X9.8886 Y8.8176 F100.00 
G01 X10.3714 Y8.8176 
G01 X10.8175 Y8.6328 
G01 X11.1588 Y8.2915 
G01 X11.3436 Y7.8454 
G01 X11.3436 Y5.8546 
G01 X11.2575 Y5.6468 
G01 X11.2468 Y5.6282 
G01 X11.2412 Y5.6074 
G01 X11.2330 Y5.5875 
G01 X11.2302 Y5.5662 
G01 X11.2246 Y5.5454 
G01 X11.2246 Y5.5239 
G01 X11.2218 Y5.5026 
G01 X11.2246 Y5.4813 
G01 X11.2246 Y4.9834 
G01 X11.2468 Y4.9006 
G01 X11.2896 Y4.8264 
G01 X11.3502 Y4.7658 
G01 X11.3966 Y4.7390 
G01 X11.4244 Y4.7230 
G01 X11.5072 Y4.7008 
G01 X11.5928 Y4.7008 
G01 X11.6756 Y4.7230 
G01 X11.7498 Y4.7658 
G01 X12.0736 Y5.0896 
G01 X13.5064 Y5.0896 
G01 X14.6342 Y3.9618 
G01 X14.7084 Y3.9190 
G01 X14.7912 Y3.8968 
G01 X14.8768 Y3.8968 
G01 X14.9596 Y3.9190 
G01 X15.0322 Y3.9609 
G01 X15.0944 Y4.0224 
G01 X15.1372 Y4.0966 
G01 X15.1594 Y4.1794 
G01 X15.1594 Y16.8768 
G01 X15.1372 Y16.9596 
G01 X15.0944 Y17.0338 
G01 X15.0338 Y17.0944 
G01 X14.9596 Y17.1372 
G01 X14.8768 Y17.1594 
G01 X14.0294 Y17.1594 
G01 X13.9466 Y17.1372 
G01 X13.8724 Y17.0944 
G01 X13.8128 Y17.0347 
G01 X13.7690 Y16.9596 
G01 X13.7468 Y16.8768 
G01 X13.7468 Y16.7912 
G01 X13.7690 Y16.7084 
G01 X13.8118 Y16.6342 
G01 X14.3696 Y16.0764 
G01 X14.3696 Y14.6436 
G01 X13.3564 Y13.6304 
G01 X11.9236 Y13.6304 
G01 X11.7508 Y13.8032 
G01 X11.6766 Y13.8460 
G01 X11.5938 Y13.8682 
G01 X11.5081 Y13.8682 
G01 X11.4254 Y13.8460 
G01 X11.3988 Y13.8307 
G01 X11.3512 Y13.8032 
G01 X11.2906 Y13.7426 
G01 X11.2468 Y13.6674 
G01 X11.2246 Y13.5847 
G01 X11.2246 Y13.2188 
G01 X11.2218 Y13.1974 
G01 X11.2246 Y13.1761 
G01 X11.2246 Y13.1546 
G01 X11.2302 Y13.1338 
G01 X11.2330 Y13.1125 
G01 X11.2412 Y13.0926 
G01 X11.2468 Y13.0718 
G01 X11.2575 Y13.0532 
G01 X11.3436 Y12.8454 
G01 X11.3436 Y10.8546 
G01 X11.1588 Y10.4085 
G01 X10.8175 Y10.0672 
G01 X10.3714 Y9.8824 
G01 X9.8886 Y9.8824 
G01 X9.4425 Y10.0672 
G01 X9.1012 Y10.4085 
G01 X8.9164 Y10.8546 
G01 X8.9164 Y12.8454 
G01 X9.0025 Y13.0532 
G01 X9.0132 Y13.0718 
G01 X9.0188 Y13.0926 
G01 X9.0270 Y13.1125 
G01 X9.0298 Y13.1338 
G01 X9.0354 Y13.1546 
G01 X9.0354 Y13.1761 
G01 X9.0382 Y13.1974 
G01 X9.0354 Y13.2188 
G01 X9.0354 Y14.3477 
G01 X9.2020 Y14.7500 
G01 X10.7400 Y16.2880 
G01 X11.1423 Y16.4546 
G01 X11.1966 Y16.4546 
G01 X11.2794 Y16.4768 
G01 X11.3536 Y16.5196 
G01 X11.4142 Y16.5802 
G01 X11.4682 Y16.6342 
G01 X11.5110 Y16.7084 
G01 X11.5332 Y16.7912 
G01 X11.5332 Y16.8768 
G01 X11.5110 Y16.9596 
G01 X11.4682 Y17.0338 
G01 X11.4076 Y17.0944 
G01 X11.3334 Y17.1372 
G01 X11.2506 Y17.1594 
G01 X3.8294 Y17.1594 
G01 X3.7466 Y17.1372 
G01 X3.6724 Y17.0944 
G01 X3.6118 Y17.0338 
G01 X3.5690 Y16.9596 
G01 X3.5468 Y16.8768 
G01 X3.5468 Y16.7912 
G01 X3.5690 Y16.7084 
G01 X3.6118 Y16.6342 
G01 X3.6724 Y16.5736 
G01 X3.7264 Y16.5196 
G01 X3.8006 Y16.4768 
G01 X3.8834 Y16.4546 
G01 X4.3577 Y16.4546 
G01 X4.7600 Y16.2880 
G01 X6.0580 Y14.9900 
G01 X6.2246 Y14.5877 
G01 X6.2246 Y13.2188 
G01 X6.2218 Y13.1974 
G01 X6.2246 Y13.1761 
G01 X6.2246 Y13.1546 
G01 X6.2302 Y13.1338 
G01 X6.2330 Y13.1125 
G01 X6.2412 Y13.0926 
G01 X6.2468 Y13.0718 
G01 X6.2575 Y13.0532 
G01 X6.3436 Y12.8454 
G01 X6.3436 Y10.8546 
G01 X6.1588 Y10.4085 
G01 X5.8175 Y10.0672 
G01 X5.3714 Y9.8824 
G01 X4.8886 Y9.8824 
G01 X4.4425 Y10.0672 
G01 X4.1012 Y10.4085 
G01 X3.9164 Y10.8546 
G01 X3.9164 Y12.8454 
G01 X4.0025 Y13.0532 
G01 X4.0132 Y13.0718 
G01 X4.0188 Y13.0926 
G01 X4.0270 Y13.1125 
G01 X4.0298 Y13.1338 
G01 X4.0354 Y13.1546 
G01 X4.0354 Y13.1761 
G01 X4.0382 Y13.1974 
G01 X4.0354 Y13.2188 
G01 X4.0354 Y13.7666 
G01 X4.0132 Y13.8494 
G01 X3.9704 Y13.9236 
G01 X3.9098 Y13.9842 
G01 X3.8634 Y14.0110 
G01 X3.8356 Y14.0270 
G01 X3.7528 Y14.0492 
G01 X3.6672 Y14.0492 
G01 X3.5844 Y14.0270 
G01 X3.5102 Y13.9842 
G01 X3.1564 Y13.6304 
G01 X1.7236 Y13.6304 
G01 X1.3658 Y13.9882 
G01 X1.2916 Y14.0310 
G01 X1.2088 Y14.0532 
G01 X1.1232 Y14.0532 
G01 X1.0404 Y14.0310 
G01 X1.0138 Y14.0157 
G01 X0.9662 Y13.9882 
G01 X0.9056 Y13.9276 
G01 X0.8628 Y13.8534 
G01 X0.8406 Y13.7706 
G01 X0.8406 Y4.8994 
G01 X0.8628 Y4.8166 
G01 X0.9056 Y4.7424 
G01 X0.9662 Y4.6818 
G01 X1.0126 Y4.6550 
G01 X1.0404 Y4.6390 
G01 X1.1232 Y4.6168 
G01 X1.2088 Y4.6168 
G01 X1.2916 Y4.6390 
G01 X1.3658 Y4.6818 
G01 X1.7736 Y5.0896 
G01 X3.2064 Y5.0896 
G01 X3.5102 Y4.7858 
G01 X3.5844 Y4.7430 
G01 X3.6672 Y4.7208 
G01 X3.7528 Y4.7208 
G01 X3.8356 Y4.7430 
G01 X3.8622 Y4.7583 
G01 X3.9098 Y4.7858 
G01 X3.9704 Y4.8464 
G01 X4.0132 Y4.9206 
G01 X4.0354 Y5.0034 
G01 X4.0354 Y5.4812 
G01 X4.0382 Y5.5026 
G01 X4.0354 Y5.5239 
G01 X4.0354 Y5.5454 
G01 X4.0298 Y5.5662 
G01 X4.0270 Y5.5875 
G01 X4.0188 Y5.6074 
G01 X4.0132 Y5.6282 
G01 X4.0025 Y5.6468 
G01 X3.9164 Y5.8546 
G01 X3.9164 Y7.8454 
G01 X4.1012 Y8.2915 
G01 X4.4425 Y8.6328 
G01 X4.8886 Y8.8176 
G01 X5.3714 Y8.8176 
G01 X5.8175 Y8.6328 
G01 X6.1588 Y8.2915 
G01 X6.3436 Y7.8454 
G01 X6.3436 Y5.8546 
G01 X6.2575 Y5.6468 
G01 X6.2468 Y5.6282 
G01 X6.2412 Y5.6074 
G01 X6.2330 Y5.5875 
G01 X6.2302 Y5.5662 
G01 X6.2246 Y5.5454 
G01 X6.2246 Y5.5239 
G01 X6.2218 Y5.5026 
G01 X6.2246 Y5.4812 
G01 X6.2246 Y3.9123 
G01 X6.0580 Y3.5100 
G01 X4.9800 Y2.4320 
G01 X4.5777 Y2.2654 
G01 X3.9334 Y2.2654 
G01 X3.8506 Y2.2432 
G01 X3.7764 Y2.2004 
G01 X3.2064 Y1.6304 
G01 X1.7736 Y1.6304 
G01 X1.3658 Y2.0382 
G01 X1.2916 Y2.0810 
G01 X1.2088 Y2.1032 
G01 X1.1232 Y2.1032 
G01 X1.0404 Y2.0810 
G01 X1.0138 Y2.0657 
G01 X0.9662 Y2.0382 
G01 X0.9056 Y1.9776 
G01 X0.8628 Y1.9034 
G01 X0.8406 Y1.8206 
G01 X0.8406 Y1.1232 
G01 X0.8628 Y1.0404 
G01 X0.9056 Y0.9662 
G01 X0.9662 Y0.9056 
G01 X1.0404 Y0.8628 
G01 X1.1232 Y0.8406 
G01 X14.8768 Y0.8406 
G01 X14.9596 Y0.8628 
G01 X15.0338 Y0.9056 
G01 X15.0944 Y0.9662 
G01 X15.1372 Y1.0404 
G01 X15.1594 Y1.1232 
G01 X15.1594 Y2.5406 
G01 X15.1372 Y2.6234 
G01 X15.0944 Y2.6976 
G01 X15.0347 Y2.7572 
G01 X14.9596 Y2.8010 
G01 X14.8768 Y2.8232 
G01 X14.7912 Y2.8232 
G01 X14.7084 Y2.8010 
G01 X14.6342 Y2.7582 
G01 X13.5064 Y1.6304 
G01 X12.0736 Y1.6304 
G01 X11.5036 Y2.2004 
G01 X11.4294 Y2.2432 
G01 X11.3466 Y2.2654 
G01 X10.4223 Y2.2654 
G01 X10.0199 Y2.4320 
G01 X9.2020 Y3.2500 
G01 X9.0354 Y3.6523 
G01 X9.0354 Y5.4812 
G01 X9.0382 Y5.5026 
G01 X9.0354 Y5.5239 
G01 X9.0354 Y5.5454 
G01 X9.0298 Y5.5662 
G01 X9.0270 Y5.5875 
G01 X9.0188 Y5.6074 
G01 X9.0132 Y5.6282 
G01 X9.0025 Y5.6468 
G01 X8.9164 Y5.8546 
G01 X8.9164 Y7.8454 
G01 X9.1012 Y8.2915 
G01 X9.4425 Y8.6328 
G00 Z2.4000 
G00 X9.2006 Y7.6955 
G01 Z-0.1000 F50.00 
G01 X9.2006 Y6.0045 F100.00 
G01 X9.2363 Y5.8249 
G01 X9.3064 Y5.6558 
G01 X9.3196 Y5.6360 
G01 X9.3196 Y3.7902 
G01 X9.3507 Y3.6336 
G01 X9.4118 Y3.4861 
G01 X9.5005 Y3.3534 
G01 X10.1234 Y2.7305 
G01 X10.2561 Y2.6418 
G01 X10.4036 Y2.5807 
G01 X10.5602 Y2.5496 
G01 X11.5563 Y2.5496 
G01 X12.1913 Y1.9146 
G01 X13.3887 Y1.9146 
G01 X14.2354 Y2.7613 
G01 X14.2354 Y3.9587 
G01 X13.3887 Y4.8054 
G01 X12.1913 Y4.8054 
G01 X11.5563 Y4.1704 
G01 X10.9757 Y4.1704 
G01 X10.9404 Y4.2057 
G01 X10.9404 Y5.6360 
G01 X10.9536 Y5.6558 
G01 X11.0237 Y5.8249 
G01 X11.0594 Y6.0045 
G01 X11.0594 Y7.6955 
G01 X11.0237 Y7.8751 
G01 X10.9536 Y8.0442 
G01 X10.8519 Y8.1965 
G01 X10.7225 Y8.3259 
G01 X10.5702 Y8.4276 
G01 X10.4011 Y8.4977 
G01 X10.2215 Y8.5334 
G01 X10.0385 Y8.5334 
G01 X9.8589 Y8.4977 
G01 X9.6898 Y8.4276 
G01 X9.5375 Y8.3259 
G01 X9.4081 Y8.1965 
G01 X9.3064 Y8.0442 
G01 X9.2363 Y7.8751 
G01 X9.2006 Y7.6955 
G00 Z2.4000 
G00 X3.0387 Y16.8054 
G01 Z-0.1000 F50.00 
G01 X1.8413 Y16.8054 F100.00 
G01 X0.9946 Y15.9587 
G01 X0.9946 Y14.7613 
G01 X1.8413 Y13.9146 
G01 X3.0387 Y13.9146 
G01 X3.6737 Y14.5496 
G01 X3.8043 Y14.5496 
G01 X4.3196 Y14.0343 
G01 X4.3196 Y13.0640 
G01 X4.3064 Y13.0442 
G01 X4.2363 Y12.8751 
G01 X4.2006 Y12.6955 
G01 X4.2006 Y11.0045 
G01 X4.2363 Y10.8249 
G01 X4.3064 Y10.6558 
G01 X4.4081 Y10.5035 
G01 X4.5375 Y10.3741 
G01 X4.6898 Y10.2724 
G01 X4.8589 Y10.2023 
G01 X5.0385 Y10.1666 
G01 X5.2215 Y10.1666 
G01 X5.4011 Y10.2023 
G01 X5.5702 Y10.2724 
G01 X5.7225 Y10.3741 
G01 X5.8519 Y10.5035 
G01 X5.9536 Y10.6558 
G01 X6.0237 Y10.8249 
G01 X6.0594 Y11.0045 
G01 X6.0594 Y12.6955 
G01 X6.0237 Y12.8751 
G01 X5.9536 Y13.0442 
G01 X5.9404 Y13.0640 
G01 X5.9404 Y14.4498 
G01 X5.9093 Y14.6064 
G01 X5.8482 Y14.7539 
G01 X5.7595 Y14.8866 
G01 X4.6566 Y15.9895 
G01 X4.5239 Y16.0782 
G01 X4.3764 Y16.1393 
G01 X4.2198 Y16.1704 
G01 X3.6737 Y16.1704 
G01 X3.0387 Y16.8054 
G00 Z2.4000 
G00 X14.0854 Y14.7613 
G01 Z-0.1000 F50.00 
G01 X14.0854 Y15.9587 F100.00 
G01 X13.2387 Y16.8054 
G01 X12.0413 Y16.8054 
G01 X11.4063 Y16.1704 
G01 X11.2802 Y16.1704 
G01 X11.1236 Y16.1393 
G01 X10.9761 Y16.0782 
G01 X10.8434 Y15.9895 
G01 X9.5005 Y14.6466 
G01 X9.4118 Y14.5139 
G01 X9.3507 Y14.3664 
G01 X9.3196 Y14.2098 
G01 X9.3196 Y13.0640 
G01 X9.3064 Y13.0442 
G01 X9.2363 Y12.8751 
G01 X9.2006 Y12.6955 
G01 X9.2006 Y11.0045 
G01 X9.2363 Y10.8249 
G01 X9.3064 Y10.6558 
G01 X9.4081 Y10.5035 
G01 X9.5375 Y10.3741 
G01 X9.6898 Y10.2724 
G01 X9.8589 Y10.2023 
G01 X10.0385 Y10.1666 
G01 X10.2215 Y10.1666 
G01 X10.4011 Y10.2023 
G01 X10.5702 Y10.2724 
G01 X10.7225 Y10.3741 
G01 X10.8519 Y10.5035 
G01 X10.9536 Y10.6558 
G01 X11.0237 Y10.8249 
G01 X11.0594 Y11.0045 
G01 X11.0594 Y12.6955 
G01 X11.0237 Y12.8751 
G01 X10.9536 Y13.0442 
G01 X10.9404 Y13.0640 
G01 X10.9404 Y13.7943 
G01 X11.5510 Y14.4049 
G01 X12.0413 Y13.9146 
G01 X13.2387 Y13.9146 
G01 X14.0854 Y14.7613 
G00 Z2.4000 
G00 X3.0887 Y4.8054 
G01 Z-0.1000 F50.00 
G01 X1.8913 Y4.8054 F100.00 
G01 X1.0446 Y3.9587 
G01 X1.0446 Y2.7613 
G01 X1.8913 Y1.9146 
G01 X3.0887 Y1.9146 
G01 X3.7237 Y2.5496 
G01 X4.4398 Y2.5496 
G01 X4.5964 Y2.5807 
G01 X4.7439 Y2.6418 
G01 X4.8766 Y2.7305 
G01 X5.7595 Y3.6134 
G01 X5.8482 Y3.7461 
G01 X5.9093 Y3.8936 
G01 X5.9404 Y4.0502 
G01 X5.9404 Y5.6360 
G01 X5.9536 Y5.6558 
G01 X6.0237 Y5.8249 
G01 X6.0594 Y6.0045 
G01 X6.0594 Y7.6955 
G01 X6.0237 Y7.8751 
G01 X5.9536 Y8.0442 
G01 X5.8519 Y8.1965 
G01 X5.7225 Y8.3259 
G01 X5.5702 Y8.4276 
G01 X5.4011 Y8.4977 
G01 X5.2215 Y8.5334 
G01 X5.0385 Y8.5334 
G01 X4.8589 Y8.4977 
G01 X4.6898 Y8.4276 
G01 X4.5375 Y8.3259 
G01 X4.4081 Y8.1965 
G01 X4.3064 Y8.0442 
G01 X4.2363 Y7.8751 
G01 X4.2006 Y7.6955 
G01 X4.2006 Y6.0045 
G01 X4.2363 Y5.8249 
G01 X4.3064 Y5.6558 
G01 X4.3196 Y5.6360 
G01 X4.3196 Y4.4657 
G01 X4.0243 Y4.1704 
G01 X3.7237 Y4.1704 
G01 X3.0887 Y4.8054 
G00 Z2.4000 
G00 X11.2404 Y4.4704 
G01 Z-0.1000 F50.00 
G01 X11.2404 Y4.4809 F100.00 
G01 X11.2538 Y4.4720 
G01 X11.2576 Y4.4704 
G01 X11.2404 Y4.4704 
G00 Z2.4000 
G00 X3.1630 Y17.1054 
G01 Z-0.1000 F50.00 
G01 X1.7170 Y17.1054 F100.00 
G01 X0.6946 Y16.0830 
G01 X0.6946 Y14.6370 
G01 X0.9993 Y14.3323 
G01 X0.9836 Y14.3292 
G01 X0.9378 Y14.3102 
G01 X0.8698 Y14.2820 
G01 X0.8344 Y14.2584 
G01 X0.7673 Y14.2136 
G01 X0.6802 Y14.1265 
G01 X0.6127 Y14.0254 
G01 X0.5646 Y13.9102 
G01 X0.5406 Y13.7894 
G01 X0.5406 Y4.8806 
G01 X0.5420 Y4.8738 
G01 X0.5646 Y4.7598 
G01 X0.6104 Y4.6493 
G01 X0.6118 Y4.6460 
G01 X0.6802 Y4.5435 
G01 X0.7673 Y4.4564 
G01 X0.8371 Y4.4098 
G01 X0.8698 Y4.3880 
G01 X0.9351 Y4.3609 
G01 X0.9836 Y4.3408 
G01 X0.9993 Y4.3377 
G01 X0.7446 Y4.0830 
G01 X0.7446 Y2.6370 
G01 X0.9993 Y2.3823 
G01 X0.9836 Y2.3792 
G01 X0.9378 Y2.3602 
G01 X0.8698 Y2.3320 
G01 X0.8344 Y2.3084 
G01 X0.7673 Y2.2636 
G01 X0.6802 Y2.1765 
G01 X0.6127 Y2.0754 
G01 X0.5646 Y1.9602 
G01 X0.5406 Y1.8394 
G01 X0.5406 Y1.1044 
G01 X0.5646 Y0.9836 
G01 X0.6118 Y0.8698 
G01 X0.6802 Y0.7673 
G01 X0.7673 Y0.6802 
G01 X0.8698 Y0.6118 
G01 X0.9836 Y0.5646 
G01 X1.1044 Y0.5406 
G01 X14.8956 Y0.5406 
G01 X15.0164 Y0.5646 
G01 X15.1302 Y0.6118 
G01 X15.2327 Y0.6802 
G01 X15.3198 Y0.7673 
G01 X15.3882 Y0.8698 
G01 X15.4354 Y0.9836 
G01 X15.4594 Y1.1044 
G01 X15.4594 Y2.5594 
G01 X15.4354 Y2.6802 
G01 X15.3882 Y2.7940 
G01 X15.3198 Y2.8965 
G01 X15.2327 Y2.9836 
G01 X15.1302 Y3.0520 
G01 X15.0164 Y3.0992 
G01 X14.8956 Y3.1232 
G01 X14.7724 Y3.1232 
G01 X14.6516 Y3.0992 
G01 X14.5378 Y3.0520 
G01 X14.5354 Y3.6696 
G01 X14.6516 Y3.6208 
G01 X14.7724 Y3.5968 
G01 X14.8956 Y3.5968 
G01 X15.0164 Y3.6208 
G01 X15.0197 Y3.6222 
G01 X15.1302 Y3.6680 
G01 X15.2327 Y3.7364 
G01 X15.3184 Y3.8222 
G01 X15.3882 Y3.9260 
G01 X15.4354 Y4.0398 
G01 X15.4594 Y4.1606 
G01 X15.4594 Y16.8956 
G01 X15.4354 Y17.0164 
G01 X15.3882 Y17.1302 
G01 X15.3198 Y17.2327 
G01 X15.2327 Y17.3198 
G01 X15.1302 Y17.3882 
G01 X15.0164 Y17.4354 
G01 X14.8956 Y17.4594 
G01 X14.0106 Y17.4594 
G01 X13.8898 Y17.4354 
G01 X13.7760 Y17.3882 
G01 X13.6735 Y17.3198 
G01 X13.5864 Y17.2327 
G01 X13.5180 Y17.1302 
G01 X13.4708 Y17.0164 
G01 X13.4677 Y17.0007 
G01 X13.3630 Y17.1054 
G01 X11.9170 Y17.1054 
G01 X11.8123 Y17.0007 
G01 X11.8092 Y17.0164 
G01 X11.7620 Y17.1302 
G01 X11.6936 Y17.2327 
G01 X11.6065 Y17.3198 
G01 X11.5040 Y17.3882 
G01 X11.3902 Y17.4354 
G01 X11.2694 Y17.4594 
G01 X3.8106 Y17.4594 
G01 X3.6898 Y17.4354 
G01 X3.5760 Y17.3882 
G01 X3.4735 Y17.3198 
G01 X3.3864 Y17.2327 
G01 X3.3180 Y17.1302 
G01 X3.2708 Y17.0164 
G01 X3.2677 Y17.0007 
G01 X3.1630 Y17.1054 
G00 Z2.4000 
G00 Z2.400000
G00 X2.4900 Y3.3600 
G01 Z-0.2794 F50.00 
G01 Z2.400000
(R2.4000  P1.000000)
(G00 Z2.400000)
G00 X12.6400 Y15.3600 
G01 Z-1.700000
G01 Z2.400000
(G00 Z2.400000)
G00 X12.7900 Y3.3600 
G01 Z-1.700000
G01 Z2.400000
(G00 Z2.400000)
G00 X2.4400 Y15.3600 
G01 Z-1.700000
G01 Z2.400000
(G00 Z2.400000)
G00 X5.1300 Y6.8500 
G01 Z-1.700000
G01 Z2.400000
(G00 Z2.400000)
G00 X5.1300 Y11.8500 
G01 Z-1.700000
G01 Z2.400000
(G00 Z2.400000)
G00 X10.1300 Y6.8500 
G01 Z-1.700000
G01 Z2.400000
(G00 Z2.400000)
G00 X10.1300 Y11.8500 
G01 Z-1.700000
G01 Z2.400000
G00 Z12.7000 
M05
M02
