(.../pcb-gcode-3.6.0.4/pcb-gcode.ulp)
(Copyright 2005 - 2012 by John Johnson)
(See readme.txt for licensing terms.)
(This file generated from the board:)
(.../HandHeld_O2_Analyzer/HandHeld_O2_Analyzer.brd)
(Current profile is .../pcb-gcode-3.6.0.4/profiles/generic.pp  )
(This file generated 3/2/2021 7:19 AM)
(Settings from pcb-machine.h)
(  Tool Size)
(0.3000 )
(Z Axis Settings)
(  High     Up        Down     Drill)
(12.7000 	2.4000 	-0.1000 	-1.7000 )
(spindle on time = 3.0000)
(milling depth = -0.2540)
(text depth = -0.1270)
(tool change at 0.0000 -12.0000 20.0000 )
(feed rate xy = F100.00 )
(feed rate z  = F50.00 )
(Settings from pcb-defaults.h)
(isolate min = 0.0254)
(isolate max = 0.3000)
(isolate step = 0.3000)
(Generated top outlines, top drill, bottom drill, )
(Unit of measure: mm)
(Metric Mode)
G21
(Absolute Coordinates)
G90
G00 X0.0000 Y0.0000 
M03
G04 P3.000000
G00 Z2.4000 
G00 Z2.400000
G00 X62.1900 Y22.0000 
G01 Z2.400000
(R2.4000  P1.000000)
(G00 Z2.400000)
G00 X67.2700 Y22.0000 
G01 Z-1.700000
G01 Z2.400000
(G00 Z2.400000)
G00 X64.7300 Y22.0000 
G01 Z-1.700000
G01 Z2.400000
(G00 Z2.400000)
G00 X69.8100 Y22.0000 
G01 Z-1.700000
G01 Z2.400000
(G00 Z2.400000)
G00 X52.1800 Y38.1000 
G01 Z-1.700000
G01 Z2.400000
(G00 Z2.400000)
G00 X47.1000 Y38.1000 
G01 Z-1.700000
G01 Z2.400000
(G00 Z2.400000)
G00 X54.7200 Y53.3400 
G01 Z-1.700000
G01 Z2.400000
(G00 Z2.400000)
G00 X52.1800 Y53.3400 
G01 Z-1.700000
G01 Z2.400000
(G00 Z2.400000)
G00 X47.1000 Y53.3400 
G01 Z-1.700000
G01 Z2.400000
(G00 Z2.400000)
G00 X39.4800 Y53.3400 
G01 Z-1.700000
G01 Z2.400000
(G00 Z2.400000)
G00 X36.9400 Y53.3400 
G01 Z-1.700000
G01 Z2.400000
(G00 Z2.400000)
G00 X16.6200 Y38.1000 
G01 Z-1.700000
G01 Z2.400000
(G00 Z2.400000)
G00 X16.6200 Y53.3400 
G01 Z-1.700000
G01 Z2.400000
(G00 Z2.400000)
G00 X57.2600 Y53.3400 
G01 Z-1.700000
G01 Z2.400000
(G00 Z2.400000)
G00 X57.2600 Y38.1000 
G01 Z-1.700000
G01 Z2.400000
(G00 Z2.400000)
G00 X76.0400 Y31.7500 
G01 Z-1.700000
G01 Z2.400000
(G00 Z2.400000)
G00 X76.0400 Y39.3700 
G01 Z-1.700000
G01 Z2.400000
(G00 Z2.400000)
G00 X70.0000 Y40.0000 
G01 Z-1.700000
G01 Z2.400000
(G00 Z2.400000)
G00 X65.0000 Y40.0000 
G01 Z-1.700000
G01 Z2.400000
(G00 Z2.400000)
G00 X70.0000 Y45.0000 
G01 Z-1.700000
G01 Z2.400000
(G00 Z2.400000)
G00 X65.0000 Y45.0000 
G01 Z-1.700000
G01 Z2.400000
(G00 Z2.400000)
G00 X18.3000 Y27.1900 
G01 Z-1.700000
G01 Z2.400000
(G00 Z2.400000)
G00 X18.3000 Y29.7300 
G01 Z-1.700000
G01 Z2.400000
(G00 Z2.400000)
G00 X18.3000 Y32.2700 
G01 Z-1.700000
G01 Z2.400000
(G00 Z2.400000)
G00 X18.3000 Y34.8100 
G01 Z-1.700000
G01 Z2.400000
(G00 Z2.400000)
G00 X19.4430 Y20.5860 
G01 Z-1.700000
G01 Z2.400000
(G00 Z2.400000)
G00 X19.4430 Y41.4140 
G01 Z-1.700000
G01 Z2.400000
(G00 Z2.400000)
G00 X42.5570 Y41.4140 
G01 Z-1.700000
G01 Z2.400000
(G00 Z2.400000)
G00 X42.5570 Y20.5860 
G01 Z-1.700000
G01 Z2.400000

G00 Z2.4000 
G00 X20.4856 Y19.0256 
G01 Z-0.1000 F50.00 
G01 X19.8091 Y18.7454 F100.00 
G01 X19.0769 Y18.7454 
G01 X18.4004 Y19.0256 
G01 X17.8826 Y19.5434 
G01 X17.6024 Y20.2199 
G01 X17.6024 Y20.9521 
G01 X17.8826 Y21.6286 
G01 X18.4004 Y22.1464 
G01 X19.0769 Y22.4266 
G01 X19.8091 Y22.4266 
G01 X20.4856 Y22.1464 
G01 X21.0034 Y21.6286 
G01 X21.2836 Y20.9521 
G01 X21.2836 Y20.2199 
G01 X21.0034 Y19.5434 
G01 X20.4856 Y19.0256 
G00 Z2.4000 
G00 X43.5996 Y19.0256 
G01 Z-0.1000 F50.00 
G01 X42.9231 Y18.7454 F100.00 
G01 X42.1909 Y18.7454 
G01 X41.5144 Y19.0256 
G01 X40.9966 Y19.5434 
G01 X40.7164 Y20.2199 
G01 X40.7164 Y20.9521 
G01 X40.9966 Y21.6286 
G01 X41.5144 Y22.1464 
G01 X42.1909 Y22.4266 
G01 X42.9231 Y22.4266 
G01 X43.5996 Y22.1464 
G01 X44.1174 Y21.6286 
G01 X44.3976 Y20.9521 
G01 X44.3976 Y20.2199 
G01 X44.1174 Y19.5434 
G01 X43.5996 Y19.0256 
G00 Z2.4000 
G00 X17.6024 Y41.0479 
G01 Z-0.1000 F50.00 
G01 X17.6024 Y41.7801 F100.00 
G01 X17.8826 Y42.4566 
G01 X18.4004 Y42.9744 
G01 X19.0769 Y43.2546 
G01 X19.8091 Y43.2546 
G01 X20.4856 Y42.9744 
G01 X21.0034 Y42.4566 
G01 X21.2836 Y41.7801 
G01 X21.2836 Y41.0479 
G01 X21.0034 Y40.3714 
G01 X20.4856 Y39.8536 
G01 X19.8091 Y39.5734 
G01 X19.0769 Y39.5734 
G01 X18.4102 Y39.8496 
G01 X18.3856 Y39.8637 
G01 X18.3582 Y39.8711 
G01 X18.3320 Y39.8820 
G01 X18.3038 Y39.8857 
G01 X18.2764 Y39.8930 
G01 X18.2480 Y39.8930 
G01 X18.2199 Y39.8967 
G01 X18.1917 Y39.8930 
G01 X18.1761 Y39.8930 
G01 X18.1774 Y39.9025 
G01 X18.1737 Y39.9306 
G01 X18.1737 Y39.9590 
G01 X18.1663 Y39.9864 
G01 X18.1626 Y40.0145 
G01 X18.1518 Y40.0408 
G01 X18.1444 Y40.0682 
G01 X18.1302 Y40.0928 
G01 X18.1194 Y40.1190 
G01 X18.1021 Y40.1415 
G01 X18.0879 Y40.1661 
G01 X18.0678 Y40.1862 
G01 X18.0505 Y40.2087 
G01 X18.0280 Y40.2260 
G01 X17.8826 Y40.3714 
G01 X17.6024 Y41.0479 
G00 Z2.4000 
G00 X63.2544 Y21.5591 
G01 Z-0.1000 F50.00 
G01 X63.2544 Y22.4409 F100.00 
G01 X63.0004 Y22.6949 
G01 X63.0004 Y22.7842 
G01 X63.0085 Y22.7842 
G01 X63.1177 Y22.8135 
G01 X63.1730 Y22.8454 
G01 X63.2157 Y22.8700 
G01 X63.2956 Y22.9500 
G01 X63.3521 Y23.0479 
G01 X63.3732 Y23.1266 
G01 X63.3814 Y23.1571 
G01 X63.3814 Y25.5901 
G01 X63.3521 Y25.6993 
G01 X63.2956 Y25.7972 
G01 X63.2157 Y25.8771 
G01 X61.5272 Y27.5656 
G01 X61.4293 Y27.6221 
G01 X61.3201 Y27.6514 
G01 X55.7317 Y27.6514 
G01 X55.2361 Y27.8567 
G01 X51.4365 Y31.6563 
G01 X51.0367 Y32.0561 
G01 X50.8314 Y32.5517 
G01 X50.8314 Y37.0145 
G01 X50.8351 Y37.0427 
G01 X50.8314 Y37.0708 
G01 X50.8314 Y37.0992 
G01 X50.8240 Y37.1266 
G01 X50.8203 Y37.1548 
G01 X50.8124 Y37.1740 
G01 X50.8124 Y39.0260 
G01 X51.0206 Y39.5287 
G01 X51.4053 Y39.9134 
G01 X51.9080 Y40.1216 
G01 X52.4520 Y40.1216 
G01 X52.9547 Y39.9134 
G01 X53.3394 Y39.5287 
G01 X53.5476 Y39.0260 
G01 X53.5476 Y37.1740 
G01 X53.5397 Y37.1548 
G01 X53.5359 Y37.1266 
G01 X53.5286 Y37.0992 
G01 X53.5286 Y37.0708 
G01 X53.5249 Y37.0427 
G01 X53.5286 Y37.0145 
G01 X53.5286 Y33.4999 
G01 X53.5579 Y33.3907 
G01 X53.6144 Y33.2928 
G01 X53.6943 Y33.2129 
G01 X56.4728 Y30.4344 
G01 X56.5707 Y30.3779 
G01 X56.6799 Y30.3486 
G01 X62.2683 Y30.3486 
G01 X62.7639 Y30.1433 
G01 X65.8733 Y27.0339 
G01 X66.0786 Y26.5383 
G01 X66.0786 Y23.9755 
G01 X66.1079 Y23.8663 
G01 X66.1644 Y23.7683 
G01 X66.2443 Y23.6884 
G01 X66.3423 Y23.6319 
G01 X66.4515 Y23.6026 
G01 X67.9338 Y23.6026 
G01 X67.9586 Y23.5778 
G01 X67.9759 Y23.5553 
G01 X67.9984 Y23.5380 
G01 X68.0185 Y23.5179 
G01 X68.0430 Y23.5038 
G01 X68.0656 Y23.4865 
G01 X68.0918 Y23.4756 
G01 X68.1164 Y23.4614 
G01 X68.1438 Y23.4541 
G01 X68.1700 Y23.4432 
G01 X68.1982 Y23.4395 
G01 X68.2256 Y23.4321 
G01 X68.2540 Y23.4321 
G01 X68.2821 Y23.4284 
G01 X68.3103 Y23.4321 
G01 X68.3387 Y23.4321 
G01 X68.3661 Y23.4395 
G01 X68.3942 Y23.4432 
G01 X68.4204 Y23.4541 
G01 X68.4479 Y23.4614 
G01 X68.4725 Y23.4756 
G01 X68.7790 Y23.6026 
G01 X70.8409 Y23.6026 
G01 X71.1032 Y23.4940 
G01 X71.3040 Y23.2932 
G01 X71.4126 Y23.0309 
G01 X71.4126 Y20.9690 
G01 X71.3040 Y20.7068 
G01 X71.2444 Y20.6472 
G01 X71.1879 Y20.5493 
G01 X71.1586 Y20.4401 
G01 X71.1586 Y18.5417 
G01 X70.9533 Y18.0461 
G01 X70.5535 Y17.6463 
G01 X70.4735 Y17.5663 
G01 X66.7507 Y13.8435 
G01 X66.3509 Y13.4437 
G01 X65.8552 Y13.2384 
G01 X13.7322 Y13.2384 
G01 X13.2366 Y13.4437 
G01 X8.4437 Y18.2366 
G01 X8.2384 Y18.7322 
G01 X8.2384 Y27.2678 
G01 X8.4437 Y27.7634 
G01 X11.3929 Y30.7126 
G01 X11.4494 Y30.8105 
G01 X11.4787 Y30.9197 
G01 X11.4787 Y31.0328 
G01 X11.4494 Y31.1420 
G01 X11.3941 Y31.2377 
G01 X11.3129 Y31.3199 
G01 X11.1267 Y31.5061 
G01 X10.9214 Y32.0017 
G01 X10.9214 Y32.5383 
G01 X11.1267 Y33.0339 
G01 X11.3291 Y33.2363 
G01 X11.3857 Y33.3343 
G01 X11.4149 Y33.4435 
G01 X11.4149 Y33.5565 
G01 X11.3857 Y33.6657 
G01 X11.3304 Y33.7615 
G01 X11.2492 Y33.8436 
G01 X11.0467 Y34.0461 
G01 X10.8414 Y34.5417 
G01 X10.8414 Y35.0783 
G01 X11.0467 Y35.5739 
G01 X11.4261 Y35.9533 
G01 X11.9217 Y36.1586 
G01 X15.2251 Y36.1586 
G01 X15.3343 Y36.1879 
G01 X15.4300 Y36.2431 
G01 X15.5121 Y36.3243 
G01 X15.5687 Y36.4223 
G01 X15.5979 Y36.5315 
G01 X15.5979 Y36.6445 
G01 X15.5687 Y36.7537 
G01 X15.5134 Y36.8495 
G01 X15.4322 Y36.9316 
G01 X15.2075 Y37.1562 
G01 X14.9539 Y37.7686 
G01 X14.9539 Y38.4314 
G01 X15.2075 Y39.0438 
G01 X15.6762 Y39.5125 
G01 X16.2886 Y39.7661 
G01 X16.9514 Y39.7661 
G01 X17.5540 Y39.5165 
G01 X17.5785 Y39.5023 
G01 X17.6060 Y39.4950 
G01 X17.6322 Y39.4841 
G01 X17.6603 Y39.4804 
G01 X17.6878 Y39.4731 
G01 X17.7161 Y39.4731 
G01 X17.7443 Y39.4693 
G01 X17.7724 Y39.4731 
G01 X17.7880 Y39.4731 
G01 X17.7868 Y39.4636 
G01 X17.7905 Y39.4355 
G01 X17.7905 Y39.4071 
G01 X17.7978 Y39.3797 
G01 X17.8015 Y39.3515 
G01 X17.8124 Y39.3253 
G01 X17.8197 Y39.2979 
G01 X17.8339 Y39.2733 
G01 X17.8448 Y39.2471 
G01 X17.8621 Y39.2245 
G01 X17.8763 Y39.1999 
G01 X17.8963 Y39.1799 
G01 X17.9136 Y39.1574 
G01 X17.9361 Y39.1401 
G01 X18.0325 Y39.0438 
G01 X18.2861 Y38.4314 
G01 X18.2861 Y37.7686 
G01 X18.0325 Y37.1562 
G01 X17.9268 Y37.0506 
G01 X17.8513 Y36.9751 
G01 X17.8469 Y36.9707 
G01 X17.8237 Y36.9305 
G01 X17.7903 Y36.8727 
G01 X17.7611 Y36.7635 
G01 X17.7611 Y36.6505 
G01 X17.7903 Y36.5413 
G01 X17.8223 Y36.4860 
G01 X17.8469 Y36.4433 
G01 X17.9268 Y36.3634 
G01 X17.9670 Y36.3402 
G01 X18.0247 Y36.3069 
G01 X18.1339 Y36.2776 
G01 X19.3459 Y36.2776 
G01 X19.5283 Y36.2021 
G01 X19.5529 Y36.1879 
G01 X19.5803 Y36.1805 
G01 X19.6065 Y36.1697 
G01 X19.6347 Y36.1659 
G01 X19.6621 Y36.1586 
G01 X19.6905 Y36.1586 
G01 X19.7186 Y36.1549 
G01 X19.7468 Y36.1586 
G01 X22.1301 Y36.1586 
G01 X22.2393 Y36.1879 
G01 X22.3372 Y36.2444 
G01 X22.4171 Y36.3243 
G01 X23.5656 Y37.4728 
G01 X23.6221 Y37.5707 
G01 X23.6514 Y37.6799 
G01 X23.6514 Y42.6808 
G01 X23.8567 Y43.1764 
G01 X32.2366 Y51.5563 
G01 X32.7322 Y51.7616 
G01 X35.2185 Y51.7616 
G01 X35.3277 Y51.7909 
G01 X35.4257 Y51.8474 
G01 X35.5056 Y51.9273 
G01 X35.5621 Y52.0253 
G01 X35.5914 Y52.1345 
G01 X35.5914 Y52.2545 
G01 X35.5951 Y52.2827 
G01 X35.5914 Y52.3108 
G01 X35.5914 Y52.3392 
G01 X35.5841 Y52.3666 
G01 X35.5803 Y52.3948 
G01 X35.5724 Y52.4140 
G01 X35.5724 Y54.2660 
G01 X35.7806 Y54.7687 
G01 X36.1653 Y55.1534 
G01 X36.6680 Y55.3616 
G01 X37.2120 Y55.3616 
G01 X37.7147 Y55.1534 
G01 X37.8664 Y55.0017 
G01 X37.9438 Y54.9243 
G01 X37.9463 Y54.9217 
G01 X37.9865 Y54.8986 
G01 X38.0443 Y54.8652 
G01 X38.1535 Y54.8359 
G01 X38.2665 Y54.8359 
G01 X38.3757 Y54.8652 
G01 X38.4737 Y54.9217 
G01 X38.5524 Y55.0004 
G01 X38.7053 Y55.1534 
G01 X39.2080 Y55.3616 
G01 X39.7520 Y55.3616 
G01 X40.2547 Y55.1534 
G01 X40.6394 Y54.7687 
G01 X40.8476 Y54.2660 
G01 X40.8476 Y52.4140 
G01 X40.8396 Y52.3948 
G01 X40.8359 Y52.3666 
G01 X40.8286 Y52.3392 
G01 X40.8286 Y52.3108 
G01 X40.8249 Y52.2827 
G01 X40.8286 Y52.2545 
G01 X40.8286 Y50.7215 
G01 X40.8579 Y50.6123 
G01 X40.9144 Y50.5143 
G01 X40.9943 Y50.4344 
G01 X41.0923 Y50.3779 
G01 X41.2015 Y50.3486 
G01 X44.3201 Y50.3486 
G01 X44.4293 Y50.3779 
G01 X44.5272 Y50.4344 
G01 X44.6071 Y50.5143 
G01 X45.6656 Y51.5728 
G01 X45.7221 Y51.6707 
G01 X45.7514 Y51.7799 
G01 X45.7514 Y52.2545 
G01 X45.7551 Y52.2827 
G01 X45.7514 Y52.3108 
G01 X45.7514 Y52.3392 
G01 X45.7441 Y52.3666 
G01 X45.7403 Y52.3948 
G01 X45.7324 Y52.4140 
G01 X45.7324 Y54.2660 
G01 X45.9406 Y54.7687 
G01 X46.3253 Y55.1534 
G01 X46.8280 Y55.3616 
G01 X47.3720 Y55.3616 
G01 X47.8747 Y55.1534 
G01 X48.2594 Y54.7687 
G01 X48.4676 Y54.2660 
G01 X48.4676 Y52.4140 
G01 X48.4597 Y52.3948 
G01 X48.4559 Y52.3666 
G01 X48.4486 Y52.3392 
G01 X48.4486 Y52.3108 
G01 X48.4449 Y52.2827 
G01 X48.4486 Y52.2545 
G01 X48.4486 Y50.8317 
G01 X48.2433 Y50.3361 
G01 X47.7635 Y49.8563 
G01 X45.7639 Y47.8567 
G01 X45.2683 Y47.6514 
G01 X42.0924 Y47.6514 
G01 X41.9832 Y47.6221 
G01 X41.8853 Y47.5656 
G01 X41.8054 Y47.4857 
G01 X38.7634 Y44.4437 
G01 X38.2677 Y44.2384 
G01 X35.6794 Y44.2384 
G01 X35.5702 Y44.2091 
G01 X35.4723 Y44.1526 
G01 X35.4250 Y44.1053 
G01 X32.5143 Y41.1946 
G01 X32.4817 Y41.1620 
G01 X32.4344 Y41.1147 
G01 X32.3779 Y41.0168 
G01 X32.3486 Y40.9076 
G01 X32.3486 Y33.7317 
G01 X32.1433 Y33.2361 
G01 X31.6635 Y32.7563 
G01 X27.4939 Y28.5867 
G01 X26.9983 Y28.3814 
G01 X20.0941 Y28.3814 
G01 X20.0716 Y28.3850 
G01 X20.0378 Y28.3814 
G01 X20.0038 Y28.3814 
G01 X19.9818 Y28.3755 
G01 X19.9592 Y28.3731 
G01 X19.9274 Y28.3609 
G01 X19.8945 Y28.3521 
G01 X19.8748 Y28.3408 
G01 X19.8536 Y28.3326 
G01 X19.8261 Y28.3126 
G01 X19.7966 Y28.2956 
G01 X19.7805 Y28.2795 
G01 X19.7621 Y28.2662 
G01 X19.7407 Y28.2397 
G01 X19.7167 Y28.2157 
G01 X19.7053 Y28.1960 
G01 X19.6910 Y28.1783 
G01 X19.6772 Y28.1472 
G01 X19.6601 Y28.1177 
G01 X19.6543 Y28.0958 
G01 X19.6450 Y28.0750 
G01 X19.6397 Y28.0414 
G01 X19.6309 Y28.0085 
G01 X19.6309 Y27.9858 
G01 X19.6273 Y27.9633 
G01 X19.6309 Y27.9295 
G01 X19.6309 Y27.9223 
G01 X19.4942 Y28.0136 
G01 X19.3251 Y28.0837 
G01 X19.1455 Y28.1194 
G01 X17.4545 Y28.1194 
G01 X17.2749 Y28.0837 
G01 X17.1058 Y28.0136 
G01 X17.0860 Y28.0004 
G01 X16.9691 Y28.0004 
G01 X16.9691 Y28.0085 
G01 X16.9603 Y28.0414 
G01 X16.9550 Y28.0750 
G01 X16.9457 Y28.0958 
G01 X16.9398 Y28.1177 
G01 X16.9228 Y28.1472 
G01 X16.9090 Y28.1783 
G01 X16.8947 Y28.1960 
G01 X16.8833 Y28.2157 
G01 X16.8593 Y28.2397 
G01 X16.8378 Y28.2662 
G01 X16.8194 Y28.2795 
G01 X16.8034 Y28.2956 
G01 X16.7739 Y28.3126 
G01 X16.7464 Y28.3326 
G01 X16.7251 Y28.3408 
G01 X16.7055 Y28.3521 
G01 X16.6726 Y28.3609 
G01 X16.6408 Y28.3731 
G01 X16.6182 Y28.3755 
G01 X16.5962 Y28.3814 
G01 X16.5622 Y28.3814 
G01 X16.5284 Y28.3850 
G01 X16.5059 Y28.3814 
G01 X12.9974 Y28.3814 
G01 X12.8882 Y28.3521 
G01 X12.7903 Y28.2956 
G01 X12.7104 Y28.2157 
G01 X11.0214 Y26.5267 
G01 X10.9649 Y26.4288 
G01 X10.9356 Y26.3196 
G01 X10.9356 Y19.6804 
G01 X10.9649 Y19.5712 
G01 X11.0214 Y19.4733 
G01 X11.1013 Y19.3934 
G01 X14.4733 Y16.0214 
G01 X14.5712 Y15.9649 
G01 X14.6804 Y15.9356 
G01 X64.9071 Y15.9356 
G01 X65.0163 Y15.9649 
G01 X65.1142 Y16.0214 
G01 X65.1941 Y16.1013 
G01 X68.3756 Y19.2828 
G01 X68.4321 Y19.3807 
G01 X68.4614 Y19.4899 
G01 X68.4614 Y20.0245 
G01 X68.4321 Y20.1337 
G01 X68.3756 Y20.2317 
G01 X68.2957 Y20.3116 
G01 X68.1977 Y20.3681 
G01 X68.0885 Y20.3974 
G01 X66.6062 Y20.3974 
G01 X66.3436 Y20.6600 
G01 X66.2676 Y20.7360 
G01 X66.2637 Y20.7399 
G01 X66.1657 Y20.7965 
G01 X66.0565 Y20.8257 
G01 X65.9435 Y20.8257 
G01 X65.8389 Y20.7977 
G01 X65.8343 Y20.7965 
G01 X65.7363 Y20.7399 
G01 X65.6576 Y20.6612 
G01 X65.3938 Y20.3974 
G01 X64.0662 Y20.3974 
G01 X63.2746 Y21.1889 
G01 X63.2345 Y21.2121 
G01 X63.1767 Y21.2455 
G01 X63.0675 Y21.2747 
G01 X63.0004 Y21.2747 
G01 X63.0004 Y21.3051 
G01 X63.2544 Y21.5591 
G00 Z2.4000 
G00 X17.4545 Y31.3406 
G01 Z-0.1000 F50.00 
G01 X19.1455 Y31.3406 F100.00 
G01 X19.3251 Y31.3763 
G01 X19.4942 Y31.4464 
G01 X19.5140 Y31.4596 
G01 X26.2965 Y31.4596 
G01 X26.4531 Y31.4907 
G01 X26.6006 Y31.5518 
G01 X26.7333 Y31.6405 
G01 X28.6295 Y33.5367 
G01 X28.7182 Y33.6694 
G01 X28.7793 Y33.8169 
G01 X28.8104 Y33.9735 
G01 X28.8104 Y41.6643 
G01 X34.3357 Y47.1896 
G01 X37.0798 Y47.1896 
G01 X37.2364 Y47.2207 
G01 X37.3839 Y47.2818 
G01 X37.5166 Y47.3705 
G01 X39.9966 Y49.8505 
G01 X40.1095 Y49.9634 
G01 X40.1982 Y50.0961 
G01 X40.2593 Y50.2436 
G01 X40.2904 Y50.4002 
G01 X40.2904 Y52.5088 
G01 X40.3094 Y52.6043 
G01 X40.3094 Y54.0757 
G01 X40.2775 Y54.2359 
G01 X40.2150 Y54.3869 
G01 X40.1242 Y54.5227 
G01 X40.0087 Y54.6382 
G01 X39.8729 Y54.7290 
G01 X39.7219 Y54.7915 
G01 X39.5617 Y54.8234 
G01 X39.3983 Y54.8234 
G01 X39.2381 Y54.7915 
G01 X39.0871 Y54.7290 
G01 X38.9513 Y54.6382 
G01 X38.8358 Y54.5227 
G01 X38.7450 Y54.3869 
G01 X38.6825 Y54.2359 
G01 X38.6506 Y54.0757 
G01 X38.6506 Y52.6043 
G01 X38.6696 Y52.5088 
G01 X38.6696 Y50.8157 
G01 X36.6643 Y48.8104 
G01 X33.9202 Y48.8104 
G01 X33.7636 Y48.7793 
G01 X33.6161 Y48.7182 
G01 X33.4834 Y48.6295 
G01 X33.3705 Y48.5166 
G01 X27.4834 Y42.6295 
G01 X27.3705 Y42.5166 
G01 X27.2818 Y42.3839 
G01 X27.2207 Y42.2364 
G01 X27.1896 Y42.0798 
G01 X27.1896 Y34.3890 
G01 X25.8810 Y33.0804 
G01 X19.5140 Y33.0804 
G01 X19.4942 Y33.0936 
G01 X19.3251 Y33.1637 
G01 X19.1455 Y33.1994 
G01 X17.4545 Y33.1994 
G01 X17.2749 Y33.1637 
G01 X17.1058 Y33.0936 
G01 X17.0860 Y33.0804 
G01 X12.1902 Y33.0804 
G01 X12.0336 Y33.0493 
G01 X11.8861 Y32.9882 
G01 X11.7534 Y32.8995 
G01 X11.6405 Y32.7866 
G01 X11.5518 Y32.6539 
G01 X11.4907 Y32.5064 
G01 X11.4596 Y32.3498 
G01 X11.4596 Y32.1902 
G01 X11.4907 Y32.0336 
G01 X11.5518 Y31.8861 
G01 X11.6405 Y31.7534 
G01 X11.7534 Y31.6405 
G01 X11.8861 Y31.5518 
G01 X12.0336 Y31.4907 
G01 X12.1902 Y31.4596 
G01 X17.0860 Y31.4596 
G01 X17.1058 Y31.4464 
G01 X17.2749 Y31.3763 
G01 X17.4545 Y31.3406 
G00 Z2.4000 
G00 X65.7944 Y21.5591 
G01 Z-0.1000 F50.00 
G01 X65.7944 Y22.4409 F100.00 
G01 X65.5404 Y22.6949 
G01 X65.5404 Y26.3498 
G01 X65.5093 Y26.5064 
G01 X65.4482 Y26.6539 
G01 X65.3595 Y26.7866 
G01 X62.5166 Y29.6295 
G01 X62.3839 Y29.7182 
G01 X62.2364 Y29.7793 
G01 X62.0798 Y29.8104 
G01 X56.3357 Y29.8104 
G01 X52.9904 Y33.1557 
G01 X52.9904 Y37.2688 
G01 X53.0094 Y37.3643 
G01 X53.0094 Y38.8357 
G01 X52.9775 Y38.9959 
G01 X52.9150 Y39.1469 
G01 X52.8242 Y39.2827 
G01 X52.7087 Y39.3982 
G01 X52.5729 Y39.4890 
G01 X52.4219 Y39.5515 
G01 X52.2617 Y39.5834 
G01 X52.0983 Y39.5834 
G01 X51.9381 Y39.5515 
G01 X51.7871 Y39.4890 
G01 X51.6513 Y39.3982 
G01 X51.5358 Y39.2827 
G01 X51.4450 Y39.1469 
G01 X51.3825 Y38.9959 
G01 X51.3506 Y38.8357 
G01 X51.3506 Y37.3643 
G01 X51.3696 Y37.2688 
G01 X51.3696 Y32.7402 
G01 X51.4007 Y32.5836 
G01 X51.4618 Y32.4361 
G01 X51.5505 Y32.3034 
G01 X51.6634 Y32.1905 
G01 X55.4834 Y28.3705 
G01 X55.6161 Y28.2818 
G01 X55.7636 Y28.2207 
G01 X55.9202 Y28.1896 
G01 X61.6643 Y28.1896 
G01 X63.9196 Y25.9343 
G01 X63.9196 Y22.6949 
G01 X63.6656 Y22.4409 
G01 X63.6656 Y21.5591 
G01 X64.2891 Y20.9356 
G01 X65.1709 Y20.9356 
G01 X65.7944 Y21.5591 
G00 Z2.4000 
G00 X68.3344 Y21.5591 
G01 Z-0.1000 F50.00 
G01 X68.3344 Y22.4409 F100.00 
G01 X67.7109 Y23.0644 
G01 X66.8291 Y23.0644 
G01 X66.2056 Y22.4409 
G01 X66.2056 Y21.5591 
G01 X66.8291 Y20.9356 
G01 X67.7109 Y20.9356 
G01 X68.3344 Y21.5591 
G00 Z2.4000 
G00 X37.7694 Y52.6043 
G01 Z-0.1000 F50.00 
G01 X37.7694 Y54.0757 F100.00 
G01 X37.7375 Y54.2359 
G01 X37.6750 Y54.3869 
G01 X37.5842 Y54.5227 
G01 X37.4687 Y54.6382 
G01 X37.3329 Y54.7290 
G01 X37.1819 Y54.7915 
G01 X37.0217 Y54.8234 
G01 X36.8583 Y54.8234 
G01 X36.6981 Y54.7915 
G01 X36.5471 Y54.7290 
G01 X36.4113 Y54.6382 
G01 X36.2958 Y54.5227 
G01 X36.2050 Y54.3869 
G01 X36.1425 Y54.2359 
G01 X36.1106 Y54.0757 
G01 X36.1106 Y52.6043 
G01 X36.1296 Y52.5088 
G01 X36.1296 Y51.6882 
G01 X35.6648 Y51.2234 
G01 X32.9207 Y51.2234 
G01 X32.7641 Y51.1923 
G01 X32.6166 Y51.1312 
G01 X32.4839 Y51.0425 
G01 X24.3705 Y42.9291 
G01 X24.2818 Y42.7964 
G01 X24.2207 Y42.6489 
G01 X24.1896 Y42.4923 
G01 X24.1896 Y37.3357 
G01 X22.4743 Y35.6204 
G01 X19.5140 Y35.6204 
G01 X19.4942 Y35.6336 
G01 X19.3251 Y35.7037 
G01 X19.1455 Y35.7394 
G01 X17.4545 Y35.7394 
G01 X17.2749 Y35.7037 
G01 X17.1058 Y35.6336 
G01 X17.0860 Y35.6204 
G01 X12.1102 Y35.6204 
G01 X11.9536 Y35.5893 
G01 X11.8061 Y35.5282 
G01 X11.6734 Y35.4395 
G01 X11.5605 Y35.3266 
G01 X11.4718 Y35.1939 
G01 X11.4107 Y35.0464 
G01 X11.3796 Y34.8898 
G01 X11.3796 Y34.7302 
G01 X11.4107 Y34.5736 
G01 X11.4718 Y34.4261 
G01 X11.5605 Y34.2934 
G01 X11.6734 Y34.1805 
G01 X11.8061 Y34.0918 
G01 X11.9536 Y34.0307 
G01 X12.1102 Y33.9996 
G01 X17.0860 Y33.9996 
G01 X17.1058 Y33.9864 
G01 X17.2749 Y33.9163 
G01 X17.4545 Y33.8806 
G01 X19.1455 Y33.8806 
G01 X19.3251 Y33.9163 
G01 X19.4942 Y33.9864 
G01 X19.5140 Y33.9996 
G01 X22.8898 Y33.9996 
G01 X23.0464 Y34.0307 
G01 X23.1939 Y34.0918 
G01 X23.3266 Y34.1805 
G01 X23.4395 Y34.2934 
G01 X25.6295 Y36.4834 
G01 X25.7182 Y36.6161 
G01 X25.7793 Y36.7636 
G01 X25.8104 Y36.9202 
G01 X25.8104 Y42.0768 
G01 X33.3362 Y49.6026 
G01 X36.0803 Y49.6026 
G01 X36.2369 Y49.6337 
G01 X36.3844 Y49.6948 
G01 X36.5171 Y49.7835 
G01 X37.5695 Y50.8359 
G01 X37.6582 Y50.9686 
G01 X37.7193 Y51.1161 
G01 X37.7504 Y51.2727 
G01 X37.7504 Y52.5088 
G01 X37.7694 Y52.6043 
G00 Z2.4000 
G00 X47.9294 Y52.6043 
G01 Z-0.1000 F50.00 
G01 X47.9294 Y54.0757 F100.00 
G01 X47.8975 Y54.2359 
G01 X47.8350 Y54.3869 
G01 X47.7442 Y54.5227 
G01 X47.6287 Y54.6382 
G01 X47.4929 Y54.7290 
G01 X47.3419 Y54.7915 
G01 X47.1817 Y54.8234 
G01 X47.0183 Y54.8234 
G01 X46.8581 Y54.7915 
G01 X46.7071 Y54.7290 
G01 X46.5713 Y54.6382 
G01 X46.4558 Y54.5227 
G01 X46.3650 Y54.3869 
G01 X46.3025 Y54.2359 
G01 X46.2706 Y54.0757 
G01 X46.2706 Y52.6043 
G01 X46.2896 Y52.5088 
G01 X46.2896 Y51.4357 
G01 X44.6643 Y49.8104 
G01 X41.3327 Y49.8104 
G01 X41.1761 Y49.7793 
G01 X41.0286 Y49.7182 
G01 X40.8959 Y49.6295 
G01 X37.6638 Y46.3974 
G01 X34.9197 Y46.3974 
G01 X34.7631 Y46.3663 
G01 X34.6156 Y46.3052 
G01 X34.4829 Y46.2165 
G01 X30.3705 Y42.1041 
G01 X30.2818 Y41.9714 
G01 X30.2207 Y41.8239 
G01 X30.1896 Y41.6673 
G01 X30.1896 Y34.3357 
G01 X26.3943 Y30.5404 
G01 X19.5140 Y30.5404 
G01 X19.4942 Y30.5536 
G01 X19.3251 Y30.6237 
G01 X19.1455 Y30.6594 
G01 X17.4545 Y30.6594 
G01 X17.2749 Y30.6237 
G01 X17.1058 Y30.5536 
G01 X17.0860 Y30.5404 
G01 X12.2377 Y30.5404 
G01 X12.0811 Y30.5093 
G01 X11.9336 Y30.4482 
G01 X11.8009 Y30.3595 
G01 X11.6880 Y30.2466 
G01 X8.9575 Y27.5161 
G01 X8.8688 Y27.3834 
G01 X8.8077 Y27.2359 
G01 X8.7766 Y27.0793 
G01 X8.7766 Y18.9207 
G01 X8.8077 Y18.7641 
G01 X8.8688 Y18.6166 
G01 X8.9575 Y18.4839 
G01 X13.3710 Y14.0704 
G01 X13.4839 Y13.9575 
G01 X13.6166 Y13.8688 
G01 X13.7641 Y13.8077 
G01 X13.9207 Y13.7766 
G01 X65.6668 Y13.7766 
G01 X65.8234 Y13.8077 
G01 X65.9709 Y13.8688 
G01 X66.1036 Y13.9575 
G01 X66.2165 Y14.0704 
G01 X70.4395 Y18.2934 
G01 X70.5282 Y18.4261 
G01 X70.5893 Y18.5736 
G01 X70.6204 Y18.7302 
G01 X70.6204 Y20.9356 
G01 X70.7339 Y20.9356 
G01 X70.7984 Y20.9623 
G01 X70.8477 Y21.0116 
G01 X70.8744 Y21.0761 
G01 X70.8744 Y22.9239 
G01 X70.8477 Y22.9884 
G01 X70.7984 Y23.0377 
G01 X70.7339 Y23.0644 
G01 X68.8861 Y23.0644 
G01 X68.8216 Y23.0377 
G01 X68.7723 Y22.9884 
G01 X68.7456 Y22.9239 
G01 X68.7456 Y21.0761 
G01 X68.7723 Y21.0116 
G01 X68.8216 Y20.9623 
G01 X68.8861 Y20.9356 
G01 X68.9996 Y20.9356 
G01 X68.9996 Y19.1457 
G01 X65.2513 Y15.3974 
G01 X14.3362 Y15.3974 
G01 X10.3974 Y19.3362 
G01 X10.3974 Y26.6638 
G01 X12.6532 Y28.9196 
G01 X17.0860 Y28.9196 
G01 X17.1058 Y28.9064 
G01 X17.2749 Y28.8363 
G01 X17.4545 Y28.8006 
G01 X19.1455 Y28.8006 
G01 X19.3251 Y28.8363 
G01 X19.4942 Y28.9064 
G01 X19.5140 Y28.9196 
G01 X26.8098 Y28.9196 
G01 X26.9664 Y28.9507 
G01 X27.1139 Y29.0118 
G01 X27.2466 Y29.1005 
G01 X31.5166 Y33.3705 
G01 X31.6295 Y33.4834 
G01 X31.7182 Y33.6161 
G01 X31.7793 Y33.7636 
G01 X31.8104 Y33.9202 
G01 X31.8104 Y41.2518 
G01 X35.3352 Y44.7766 
G01 X38.0793 Y44.7766 
G01 X38.2359 Y44.8077 
G01 X38.3834 Y44.8688 
G01 X38.5161 Y44.9575 
G01 X41.7482 Y48.1896 
G01 X45.0798 Y48.1896 
G01 X45.2364 Y48.2207 
G01 X45.3839 Y48.2818 
G01 X45.5166 Y48.3705 
G01 X47.6166 Y50.4705 
G01 X47.7295 Y50.5834 
G01 X47.8182 Y50.7161 
G01 X47.8793 Y50.8636 
G01 X47.9104 Y51.0202 
G01 X47.9104 Y52.5088 
G01 X47.9294 Y52.6043 
G00 Z2.4000 
G00 X43.5996 Y39.8536 
G01 Z-0.1000 F50.00 
G01 X42.9231 Y39.5734 F100.00 
G01 X42.1909 Y39.5734 
G01 X41.5144 Y39.8536 
G01 X40.9966 Y40.3714 
G01 X40.7164 Y41.0479 
G01 X40.7164 Y41.7801 
G01 X40.9966 Y42.4566 
G01 X41.5144 Y42.9744 
G01 X42.1909 Y43.2546 
G01 X42.9231 Y43.2546 
G01 X43.5996 Y42.9744 
G01 X44.1174 Y42.4566 
G01 X44.3976 Y41.7801 
G01 X44.3976 Y41.0479 
G01 X44.1174 Y40.3714 
G01 X43.5996 Y39.8536 
G00 Z2.4000 
G00 X17.5638 Y51.9275 
G01 Z-0.1000 F50.00 
G01 X16.9514 Y51.6739 F100.00 
G01 X16.2886 Y51.6739 
G01 X15.6762 Y51.9275 
G01 X15.2075 Y52.3962 
G01 X14.9539 Y53.0086 
G01 X14.9539 Y53.6714 
G01 X15.2075 Y54.2838 
G01 X15.6762 Y54.7524 
G01 X16.2886 Y55.0061 
G01 X16.9514 Y55.0061 
G01 X17.5638 Y54.7524 
G01 X18.0324 Y54.2838 
G01 X18.2861 Y53.6714 
G01 X18.2861 Y53.0086 
G01 X18.0325 Y52.3962 
G01 X17.5638 Y51.9275 
G00 Z2.4000 
G00 X64.1545 Y44.0706 
G01 Z-0.1000 F50.00 
G01 X65.8455 Y44.0706 F100.00 
G01 X66.0251 Y44.1063 
G01 X66.1942 Y44.1764 
G01 X66.3465 Y44.2781 
G01 X66.4759 Y44.4075 
G01 X66.5776 Y44.5598 
G01 X66.6477 Y44.7289 
G01 X66.6834 Y44.9085 
G01 X66.6834 Y45.0915 
G01 X66.6477 Y45.2711 
G01 X66.5776 Y45.4402 
G01 X66.4759 Y45.5925 
G01 X66.3465 Y45.7219 
G01 X66.1942 Y45.8236 
G01 X66.0251 Y45.8937 
G01 X65.8455 Y45.9294 
G01 X64.1545 Y45.9294 
G01 X63.9749 Y45.8937 
G01 X63.8058 Y45.8236 
G01 X63.6535 Y45.7219 
G01 X63.5241 Y45.5925 
G01 X63.4224 Y45.4402 
G01 X63.3523 Y45.2711 
G01 X63.3166 Y45.0915 
G01 X63.3166 Y44.9085 
G01 X63.3523 Y44.7289 
G01 X63.4224 Y44.5598 
G01 X63.5241 Y44.4075 
G01 X63.6535 Y44.2781 
G01 X63.8058 Y44.1764 
G01 X63.9749 Y44.1063 
G01 X64.1545 Y44.0706 
G00 Z2.4000 
G00 X64.1545 Y39.0706 
G01 Z-0.1000 F50.00 
G01 X65.8455 Y39.0706 F100.00 
G01 X66.0251 Y39.1063 
G01 X66.1942 Y39.1764 
G01 X66.3465 Y39.2781 
G01 X66.4759 Y39.4075 
G01 X66.5776 Y39.5598 
G01 X66.6477 Y39.7289 
G01 X66.6834 Y39.9085 
G01 X66.6834 Y40.0915 
G01 X66.6477 Y40.2711 
G01 X66.5776 Y40.4402 
G01 X66.4759 Y40.5925 
G01 X66.3465 Y40.7219 
G01 X66.1942 Y40.8236 
G01 X66.0251 Y40.8937 
G01 X65.8455 Y40.9294 
G01 X64.1545 Y40.9294 
G01 X63.9749 Y40.8937 
G01 X63.8058 Y40.8236 
G01 X63.6535 Y40.7219 
G01 X63.5241 Y40.5925 
G01 X63.4224 Y40.4402 
G01 X63.3523 Y40.2711 
G01 X63.3166 Y40.0915 
G01 X63.3166 Y39.9085 
G01 X63.3523 Y39.7289 
G01 X63.4224 Y39.5598 
G01 X63.5241 Y39.4075 
G01 X63.6535 Y39.2781 
G01 X63.8058 Y39.1764 
G01 X63.9749 Y39.1063 
G01 X64.1545 Y39.0706 
G00 Z2.4000 
G00 X0.8406 Y1.2135 
G01 Z-0.1000 F50.00 
G01 X0.8699 Y1.1043 F100.00 
G01 X0.9264 Y1.0063 
G01 X1.0063 Y0.9264 
G01 X1.1043 Y0.8699 
G01 X1.2135 Y0.8406 
G01 X78.4665 Y0.8406 
G01 X78.5757 Y0.8699 
G01 X78.6737 Y0.9264 
G01 X78.7536 Y1.0063 
G01 X78.8101 Y1.1043 
G01 X78.8394 Y1.2135 
G01 X78.8394 Y38.3840 
G01 X78.8101 Y38.4933 
G01 X78.7536 Y38.5912 
G01 X78.6737 Y38.6711 
G01 X78.5757 Y38.7276 
G01 X78.4665 Y38.7569 
G01 X78.3535 Y38.7569 
G01 X78.2443 Y38.7276 
G01 X78.1463 Y38.6711 
G01 X78.0664 Y38.5912 
G01 X76.8616 Y37.3864 
G01 X75.2184 Y37.3864 
G01 X75.1136 Y37.4912 
G01 X75.0364 Y37.5684 
G01 X75.0337 Y37.5711 
G01 X74.9935 Y37.5943 
G01 X74.9357 Y37.6276 
G01 X74.8265 Y37.6569 
G01 X74.7135 Y37.6569 
G01 X74.6043 Y37.6276 
G01 X74.5063 Y37.5711 
G01 X74.4276 Y37.4924 
G01 X74.4032 Y37.4510 
G01 X74.3699 Y37.3933 
G01 X74.3406 Y37.2840 
G01 X74.3406 Y35.4011 
G01 X74.3369 Y35.3730 
G01 X74.3406 Y35.3448 
G01 X74.3406 Y35.3164 
G01 X74.3479 Y35.2890 
G01 X74.3486 Y35.2841 
G01 X74.3486 Y34.7317 
G01 X74.1433 Y34.2361 
G01 X73.7435 Y33.8363 
G01 X73.6635 Y33.7563 
G01 X73.3629 Y33.4557 
G01 X72.8832 Y32.9760 
G01 X72.3875 Y32.7706 
G01 X61.7317 Y32.7706 
G01 X61.2361 Y32.9760 
G01 X59.2565 Y34.9555 
G01 X58.8567 Y35.3553 
G01 X58.6514 Y35.8510 
G01 X58.6514 Y36.2022 
G01 X58.6551 Y36.2303 
G01 X58.6514 Y36.2585 
G01 X58.6514 Y36.2869 
G01 X58.6441 Y36.3143 
G01 X58.6403 Y36.3424 
G01 X58.6295 Y36.3686 
G01 X58.6221 Y36.3961 
G01 X58.6079 Y36.4207 
G01 X58.5971 Y36.4469 
G01 X58.5798 Y36.4694 
G01 X58.5656 Y36.4940 
G01 X58.5455 Y36.5141 
G01 X58.5282 Y36.5366 
G01 X58.5057 Y36.5538 
G01 X58.4857 Y36.5739 
G01 X58.4611 Y36.5881 
G01 X58.4385 Y36.6054 
G01 X58.4123 Y36.6163 
G01 X58.3877 Y36.6305 
G01 X58.3603 Y36.6378 
G01 X58.3341 Y36.6487 
G01 X58.3060 Y36.6524 
G01 X58.2785 Y36.6597 
G01 X58.2501 Y36.6597 
G01 X58.2220 Y36.6634 
G01 X58.1938 Y36.6597 
G01 X58.1655 Y36.6597 
G01 X58.1380 Y36.6524 
G01 X58.1099 Y36.6487 
G01 X58.0837 Y36.6378 
G01 X58.0563 Y36.6305 
G01 X58.0317 Y36.6163 
G01 X57.5914 Y36.4339 
G01 X56.9286 Y36.4339 
G01 X56.3162 Y36.6875 
G01 X55.8475 Y37.1562 
G01 X55.5939 Y37.7686 
G01 X55.5939 Y38.4314 
G01 X55.8475 Y39.0438 
G01 X56.3162 Y39.5124 
G01 X56.9286 Y39.7661 
G01 X57.2335 Y39.7661 
G01 X57.2894 Y39.7661 
G01 X57.3466 Y39.7661 
G01 X57.4084 Y39.7827 
G01 X57.4558 Y39.7954 
G01 X57.5056 Y39.8242 
G01 X57.5537 Y39.8519 
G01 X57.5799 Y39.8781 
G01 X57.6336 Y39.9318 
G01 X57.6604 Y39.9782 
G01 X57.6902 Y40.0298 
G01 X57.7045 Y40.0834 
G01 X57.7194 Y40.1390 
G01 X57.7194 Y40.1949 
G01 X57.7194 Y40.2520 
G01 X57.7029 Y40.3139 
G01 X57.6902 Y40.3612 
G01 X57.6614 Y40.4111 
G01 X57.6336 Y40.4592 
G01 X57.6074 Y40.4854 
G01 X57.5537 Y40.5391 
G01 X57.5272 Y40.5656 
G01 X57.4796 Y40.5931 
G01 X57.4293 Y40.6221 
G01 X57.3746 Y40.6368 
G01 X57.3201 Y40.6514 
G01 X57.2629 Y40.6514 
G01 X55.7317 Y40.6514 
G01 X55.2361 Y40.8567 
G01 X54.8363 Y41.2565 
G01 X54.7563 Y41.3364 
G01 X53.5767 Y42.5161 
G01 X53.3714 Y43.0117 
G01 X53.3714 Y51.7482 
G01 X53.3714 Y51.8047 
G01 X53.3714 Y51.8612 
G01 X53.3577 Y51.9123 
G01 X53.3421 Y51.9704 
G01 X53.3145 Y52.0183 
G01 X53.2856 Y52.0683 
G01 X53.2456 Y52.1083 
G01 X53.2057 Y52.1483 
G01 X53.1593 Y52.1751 
G01 X53.1077 Y52.2048 
G01 X53.0543 Y52.2191 
G01 X52.9985 Y52.2341 
G01 X52.9904 Y52.2341 
G01 X52.9904 Y52.5088 
G01 X53.0094 Y52.6043 
G01 X53.0094 Y54.0757 
G01 X52.9775 Y54.2359 
G01 X52.9413 Y54.3235 
G01 X52.9574 Y54.3163 
G01 X52.9631 Y54.3154 
G01 X52.9684 Y54.3132 
G01 X53.0189 Y54.3066 
G01 X53.0691 Y54.2986 
G01 X53.0748 Y54.2992 
G01 X53.0805 Y54.2984 
G01 X53.1310 Y54.3051 
G01 X53.1815 Y54.3104 
G01 X53.1869 Y54.3125 
G01 X53.1925 Y54.3132 
G01 X53.2396 Y54.3327 
G01 X53.2871 Y54.3509 
G01 X53.2917 Y54.3543 
G01 X53.2970 Y54.3565 
G01 X53.3374 Y54.3875 
G01 X53.3786 Y54.4174 
G01 X53.3822 Y54.4218 
G01 X53.3867 Y54.4253 
G01 X53.4177 Y54.4657 
G01 X53.4497 Y54.5052 
G01 X53.4520 Y54.5105 
G01 X53.4555 Y54.5150 
G01 X53.4750 Y54.5621 
G01 X53.4957 Y54.6085 
G01 X53.4966 Y54.6142 
G01 X53.5606 Y54.7687 
G01 X53.9453 Y55.1534 
G01 X54.4480 Y55.3616 
G01 X54.9920 Y55.3616 
G01 X55.4947 Y55.1534 
G01 X55.7960 Y54.8521 
G01 X55.8133 Y54.8295 
G01 X55.8358 Y54.8122 
G01 X55.8559 Y54.7922 
G01 X55.8805 Y54.7780 
G01 X55.9030 Y54.7607 
G01 X55.9292 Y54.7498 
G01 X55.9538 Y54.7356 
G01 X55.9813 Y54.7283 
G01 X56.0075 Y54.7174 
G01 X56.0356 Y54.7137 
G01 X56.0630 Y54.7064 
G01 X56.0914 Y54.7064 
G01 X56.1196 Y54.7027 
G01 X56.1477 Y54.7064 
G01 X56.1761 Y54.7064 
G01 X56.2035 Y54.7137 
G01 X56.2317 Y54.7174 
G01 X56.2579 Y54.7283 
G01 X56.2853 Y54.7356 
G01 X56.3099 Y54.7498 
G01 X56.9286 Y55.0061 
G01 X57.5914 Y55.0061 
G01 X58.2038 Y54.7524 
G01 X58.6724 Y54.2838 
G01 X58.9261 Y53.6714 
G01 X58.9261 Y53.0086 
G01 X58.6724 Y52.3962 
G01 X58.2038 Y51.9275 
G01 X57.5914 Y51.6739 
G01 X56.9286 Y51.6739 
G01 X56.6883 Y51.7734 
G01 X56.6637 Y51.7876 
G01 X56.6363 Y51.7950 
G01 X56.6101 Y51.8058 
G01 X56.5819 Y51.8095 
G01 X56.5545 Y51.8169 
G01 X56.5261 Y51.8169 
G01 X56.4980 Y51.8206 
G01 X56.4699 Y51.8169 
G01 X56.4415 Y51.8169 
G01 X56.4140 Y51.8095 
G01 X56.3859 Y51.8058 
G01 X56.3597 Y51.7950 
G01 X56.3323 Y51.7876 
G01 X56.3077 Y51.7734 
G01 X56.2814 Y51.7626 
G01 X56.2589 Y51.7453 
G01 X56.2343 Y51.7311 
G01 X56.2143 Y51.7110 
G01 X56.1917 Y51.6937 
G01 X56.1745 Y51.6712 
G01 X56.1544 Y51.6511 
G01 X56.1402 Y51.6265 
G01 X56.1229 Y51.6040 
G01 X56.1121 Y51.5778 
G01 X56.0979 Y51.5532 
G01 X56.0905 Y51.5258 
G01 X56.0797 Y51.4996 
G01 X56.0759 Y51.4714 
G01 X56.0686 Y51.4440 
G01 X56.0686 Y51.4156 
G01 X56.0649 Y51.3875 
G01 X56.0686 Y51.3593 
G01 X56.0686 Y43.9599 
G01 X56.0979 Y43.8507 
G01 X56.1312 Y43.7930 
G01 X56.1544 Y43.7528 
G01 X56.1594 Y43.7479 
G01 X56.3929 Y43.5143 
G01 X56.4678 Y43.4394 
G01 X56.4728 Y43.4344 
G01 X56.5129 Y43.4112 
G01 X56.5707 Y43.3779 
G01 X56.6799 Y43.3486 
G01 X58.2683 Y43.3486 
G01 X58.7639 Y43.1433 
G01 X59.2437 Y42.6635 
G01 X61.1433 Y40.7639 
G01 X61.3486 Y40.2683 
G01 X61.3486 Y36.7992 
G01 X61.3779 Y36.6900 
G01 X61.4344 Y36.5921 
G01 X61.5143 Y36.5121 
G01 X62.4728 Y35.5536 
G01 X62.5707 Y35.4971 
G01 X62.6799 Y35.4678 
G01 X71.2705 Y35.4678 
G01 X71.3797 Y35.4971 
G01 X71.4777 Y35.5536 
G01 X71.5576 Y35.6336 
G01 X71.6141 Y35.7315 
G01 X71.6434 Y35.8407 
G01 X71.6434 Y38.1091 
G01 X71.6471 Y38.1373 
G01 X71.6434 Y38.1654 
G01 X71.6434 Y38.1938 
G01 X71.6360 Y38.2212 
G01 X71.6323 Y38.2494 
G01 X71.6215 Y38.2756 
G01 X71.6141 Y38.3030 
G01 X71.5999 Y38.3276 
G01 X71.5891 Y38.3538 
G01 X71.5718 Y38.3763 
G01 X71.5576 Y38.4009 
G01 X71.5375 Y38.4210 
G01 X71.5202 Y38.4435 
G01 X71.4977 Y38.4608 
G01 X71.4777 Y38.4808 
G01 X71.4531 Y38.4950 
G01 X71.4305 Y38.5123 
G01 X71.4043 Y38.5232 
G01 X71.3797 Y38.5374 
G01 X71.3523 Y38.5447 
G01 X71.3261 Y38.5556 
G01 X71.2979 Y38.5593 
G01 X71.2705 Y38.5666 
G01 X71.2421 Y38.5666 
G01 X71.2140 Y38.5703 
G01 X71.1858 Y38.5666 
G01 X71.1575 Y38.5666 
G01 X71.1300 Y38.5593 
G01 X71.1019 Y38.5556 
G01 X71.0757 Y38.5447 
G01 X71.0483 Y38.5374 
G01 X71.0396 Y38.5324 
G01 X68.9541 Y38.5324 
G01 X68.4147 Y38.7558 
G01 X68.0018 Y39.1687 
G01 X67.9183 Y39.3702 
G01 X67.8751 Y39.4747 
G01 X67.8159 Y39.5519 
G01 X67.8063 Y39.5644 
G01 X67.7165 Y39.6332 
G01 X67.6742 Y39.6508 
G01 X67.6121 Y39.6765 
G01 X67.5000 Y39.6912 
G01 X67.4844 Y39.6892 
G01 X67.3879 Y39.6765 
G01 X67.3687 Y39.6685 
G01 X67.2834 Y39.6332 
G01 X67.2063 Y39.5740 
G01 X67.1938 Y39.5644 
G01 X67.1249 Y39.4747 
G01 X67.1018 Y39.4188 
G01 X67.0817 Y39.3702 
G01 X66.9982 Y39.1687 
G01 X66.5853 Y38.7558 
G01 X66.0459 Y38.5324 
G01 X63.9541 Y38.5324 
G01 X63.4147 Y38.7558 
G01 X63.0018 Y39.1687 
G01 X62.7784 Y39.7081 
G01 X62.7784 Y40.2919 
G01 X63.0018 Y40.8313 
G01 X63.4147 Y41.2442 
G01 X63.9541 Y41.4676 
G01 X66.0459 Y41.4676 
G01 X66.5853 Y41.2442 
G01 X66.9982 Y40.8313 
G01 X67.0817 Y40.6298 
G01 X67.1008 Y40.5835 
G01 X67.1249 Y40.5253 
G01 X67.1937 Y40.4356 
G01 X67.2049 Y40.4271 
G01 X67.2834 Y40.3668 
G01 X67.3712 Y40.3304 
G01 X67.3879 Y40.3235 
G01 X67.4816 Y40.3112 
G01 X67.5000 Y40.3088 
G01 X67.6121 Y40.3235 
G01 X67.6724 Y40.3485 
G01 X67.7165 Y40.3668 
G01 X67.8063 Y40.4356 
G01 X67.8148 Y40.4467 
G01 X67.8751 Y40.5253 
G01 X67.9183 Y40.6298 
G01 X68.0018 Y40.8313 
G01 X68.4147 Y41.2442 
G01 X68.9541 Y41.4676 
G01 X71.0459 Y41.4676 
G01 X71.2283 Y41.3921 
G01 X71.2529 Y41.3779 
G01 X71.2803 Y41.3705 
G01 X71.3065 Y41.3597 
G01 X71.3347 Y41.3559 
G01 X71.3621 Y41.3486 
G01 X71.3905 Y41.3486 
G01 X71.4186 Y41.3449 
G01 X71.4468 Y41.3486 
G01 X72.2683 Y41.3486 
G01 X72.7639 Y41.1433 
G01 X73.5424 Y40.3648 
G01 X73.6074 Y40.2998 
G01 X73.6223 Y40.2849 
G01 X73.7202 Y40.2283 
G01 X73.8295 Y40.1991 
G01 X73.9425 Y40.1991 
G01 X74.0517 Y40.2283 
G01 X74.1496 Y40.2849 
G01 X74.2296 Y40.3648 
G01 X74.5656 Y40.7008 
G01 X74.6221 Y40.7988 
G01 X74.6514 Y40.9080 
G01 X74.6514 Y41.3201 
G01 X74.6221 Y41.4293 
G01 X74.5656 Y41.5272 
G01 X74.4857 Y41.6071 
G01 X72.5272 Y43.5656 
G01 X72.4293 Y43.6221 
G01 X72.3201 Y43.6514 
G01 X71.4468 Y43.6514 
G01 X71.4186 Y43.6551 
G01 X71.3905 Y43.6514 
G01 X71.3621 Y43.6514 
G01 X71.3347 Y43.6441 
G01 X71.3065 Y43.6403 
G01 X71.2803 Y43.6295 
G01 X71.2529 Y43.6221 
G01 X71.2283 Y43.6079 
G01 X71.0459 Y43.5324 
G01 X68.9541 Y43.5324 
G01 X68.4147 Y43.7558 
G01 X68.0018 Y44.1687 
G01 X67.9183 Y44.3702 
G01 X67.8751 Y44.4747 
G01 X67.8159 Y44.5519 
G01 X67.8063 Y44.5644 
G01 X67.7165 Y44.6332 
G01 X67.6742 Y44.6508 
G01 X67.6121 Y44.6765 
G01 X67.5000 Y44.6912 
G01 X67.4844 Y44.6892 
G01 X67.3879 Y44.6765 
G01 X67.3687 Y44.6685 
G01 X67.2834 Y44.6332 
G01 X67.2063 Y44.5740 
G01 X67.1938 Y44.5644 
G01 X67.1249 Y44.4747 
G01 X67.1018 Y44.4188 
G01 X67.0817 Y44.3702 
G01 X66.9982 Y44.1687 
G01 X66.5853 Y43.7558 
G01 X66.0459 Y43.5324 
G01 X63.9541 Y43.5324 
G01 X63.4147 Y43.7558 
G01 X63.0018 Y44.1687 
G01 X62.7784 Y44.7081 
G01 X62.7784 Y45.2919 
G01 X63.0018 Y45.8313 
G01 X63.4147 Y46.2442 
G01 X63.9541 Y46.4676 
G01 X66.0459 Y46.4676 
G01 X66.5853 Y46.2442 
G01 X66.9982 Y45.8313 
G01 X67.0817 Y45.6298 
G01 X67.1008 Y45.5835 
G01 X67.1249 Y45.5253 
G01 X67.1937 Y45.4356 
G01 X67.2049 Y45.4271 
G01 X67.2834 Y45.3668 
G01 X67.3712 Y45.3304 
G01 X67.3879 Y45.3235 
G01 X67.4816 Y45.3112 
G01 X67.5000 Y45.3088 
G01 X67.6121 Y45.3235 
G01 X67.6724 Y45.3485 
G01 X67.7165 Y45.3668 
G01 X67.8063 Y45.4356 
G01 X67.8148 Y45.4467 
G01 X67.8751 Y45.5253 
G01 X67.9183 Y45.6298 
G01 X68.0018 Y45.8313 
G01 X68.4147 Y46.2442 
G01 X68.9541 Y46.4676 
G01 X71.0459 Y46.4676 
G01 X71.2283 Y46.3921 
G01 X71.2529 Y46.3779 
G01 X71.2803 Y46.3705 
G01 X71.3065 Y46.3597 
G01 X71.3347 Y46.3559 
G01 X71.3621 Y46.3486 
G01 X71.3905 Y46.3486 
G01 X71.4186 Y46.3449 
G01 X71.4468 Y46.3486 
G01 X73.2683 Y46.3486 
G01 X73.7639 Y46.1433 
G01 X76.7435 Y43.1637 
G01 X77.1433 Y42.7639 
G01 X77.3486 Y42.2683 
G01 X77.3486 Y40.9880 
G01 X77.3779 Y40.8788 
G01 X77.4344 Y40.7808 
G01 X77.4455 Y40.7697 
G01 X78.0664 Y40.1488 
G01 X78.1352 Y40.0800 
G01 X78.1463 Y40.0689 
G01 X78.2443 Y40.0124 
G01 X78.3535 Y39.9831 
G01 X78.4665 Y39.9831 
G01 X78.5757 Y40.0124 
G01 X78.6737 Y40.0689 
G01 X78.7536 Y40.1488 
G01 X78.8101 Y40.2467 
G01 X78.8394 Y40.3560 
G01 X78.8394 Y56.6565 
G01 X78.8101 Y56.7657 
G01 X78.7536 Y56.8637 
G01 X78.6737 Y56.9436 
G01 X78.5757 Y57.0001 
G01 X78.4665 Y57.0294 
G01 X1.2135 Y57.0294 
G01 X1.1043 Y57.0001 
G01 X1.0063 Y56.9436 
G01 X0.9264 Y56.8637 
G01 X0.8699 Y56.7657 
G01 X0.8406 Y56.6565 
G01 X0.8406 Y56.5435 
G01 X0.8406 Y1.2135 
G00 Z2.4000 
G00 X77.4854 Y38.7713 
G01 Z-0.1000 F50.00 
G01 X77.4854 Y39.9687 F100.00 
G01 X76.8104 Y40.6437 
G01 X76.8104 Y42.0798 
G01 X76.7793 Y42.2364 
G01 X76.7182 Y42.3839 
G01 X76.6295 Y42.5166 
G01 X76.5166 Y42.6295 
G01 X73.5166 Y45.6295 
G01 X73.3839 Y45.7182 
G01 X73.2364 Y45.7793 
G01 X73.0798 Y45.8104 
G01 X71.2140 Y45.8104 
G01 X71.1942 Y45.8236 
G01 X71.0251 Y45.8937 
G01 X70.8455 Y45.9294 
G01 X69.1545 Y45.9294 
G01 X68.9749 Y45.8937 
G01 X68.8058 Y45.8236 
G01 X68.6535 Y45.7219 
G01 X68.5241 Y45.5925 
G01 X68.4224 Y45.4402 
G01 X68.3523 Y45.2711 
G01 X68.3166 Y45.0915 
G01 X68.3166 Y44.9085 
G01 X68.3523 Y44.7289 
G01 X68.4224 Y44.5598 
G01 X68.5241 Y44.4075 
G01 X68.6535 Y44.2781 
G01 X68.8058 Y44.1764 
G01 X68.9749 Y44.1063 
G01 X69.1545 Y44.0706 
G01 X70.8455 Y44.0706 
G01 X71.0251 Y44.1063 
G01 X71.1942 Y44.1764 
G01 X71.2140 Y44.1896 
G01 X72.6643 Y44.1896 
G01 X75.1896 Y41.6643 
G01 X75.1896 Y40.5637 
G01 X74.5946 Y39.9687 
G01 X74.5946 Y38.7713 
G01 X75.4413 Y37.9246 
G01 X76.6387 Y37.9246 
G01 X77.4854 Y38.7713 
G00 Z2.4000 
G00 X71.7836 Y34.9296 
G01 Z-0.1000 F50.00 
G01 X62.3357 Y34.9296 F100.00 
G01 X60.8104 Y36.4549 
G01 X60.8104 Y40.0798 
G01 X60.7793 Y40.2364 
G01 X60.7182 Y40.3839 
G01 X60.6295 Y40.5166 
G01 X58.6295 Y42.5166 
G01 X58.5166 Y42.6295 
G01 X58.3839 Y42.7182 
G01 X58.2364 Y42.7793 
G01 X58.0798 Y42.8104 
G01 X56.3357 Y42.8104 
G01 X55.5304 Y43.6157 
G01 X55.5304 Y52.5088 
G01 X55.5494 Y52.6043 
G01 X55.5494 Y54.0757 
G01 X55.5175 Y54.2359 
G01 X55.4550 Y54.3869 
G01 X55.3642 Y54.5227 
G01 X55.2487 Y54.6382 
G01 X55.1129 Y54.7290 
G01 X54.9619 Y54.7915 
G01 X54.8017 Y54.8234 
G01 X54.6383 Y54.8234 
G01 X54.4781 Y54.7915 
G01 X54.3271 Y54.7290 
G01 X54.1913 Y54.6382 
G01 X54.0758 Y54.5227 
G01 X53.9850 Y54.3869 
G01 X53.9225 Y54.2359 
G01 X53.8906 Y54.0757 
G01 X53.8906 Y52.6043 
G01 X53.9096 Y52.5088 
G01 X53.9096 Y43.2002 
G01 X53.9407 Y43.0436 
G01 X54.0018 Y42.8961 
G01 X54.0905 Y42.7634 
G01 X55.3705 Y41.4834 
G01 X55.4834 Y41.3705 
G01 X55.6161 Y41.2818 
G01 X55.7636 Y41.2207 
G01 X55.9202 Y41.1896 
G01 X57.6643 Y41.1896 
G01 X59.1896 Y39.6643 
G01 X59.1896 Y36.0394 
G01 X59.2207 Y35.8829 
G01 X59.2818 Y35.7354 
G01 X59.3705 Y35.6027 
G01 X59.4834 Y35.4898 
G01 X61.4834 Y33.4898 
G01 X61.6161 Y33.4011 
G01 X61.7636 Y33.3400 
G01 X61.9202 Y33.3088 
G01 X72.1991 Y33.3088 
G01 X72.3556 Y33.3400 
G01 X72.5031 Y33.4011 
G01 X72.6358 Y33.4898 
G01 X72.7487 Y33.6027 
G01 X73.5166 Y34.3705 
G01 X73.6295 Y34.4834 
G01 X73.7182 Y34.6161 
G01 X73.7793 Y34.7636 
G01 X73.8104 Y34.9202 
G01 X73.8104 Y35.0798 
G01 X73.8024 Y35.1200 
G01 X73.8024 Y39.0878 
G01 X73.7713 Y39.2444 
G01 X73.7102 Y39.3919 
G01 X73.6215 Y39.5246 
G01 X73.5086 Y39.6375 
G01 X72.5166 Y40.6295 
G01 X72.3839 Y40.7182 
G01 X72.2364 Y40.7793 
G01 X72.0798 Y40.8104 
G01 X71.2140 Y40.8104 
G01 X71.1942 Y40.8236 
G01 X71.0251 Y40.8937 
G01 X70.8455 Y40.9294 
G01 X69.1545 Y40.9294 
G01 X68.9749 Y40.8937 
G01 X68.8058 Y40.8236 
G01 X68.6535 Y40.7219 
G01 X68.5241 Y40.5925 
G01 X68.4224 Y40.4402 
G01 X68.3523 Y40.2711 
G01 X68.3166 Y40.0915 
G01 X68.3166 Y39.9085 
G01 X68.3523 Y39.7289 
G01 X68.4224 Y39.5598 
G01 X68.5241 Y39.4075 
G01 X68.6535 Y39.2781 
G01 X68.8058 Y39.1764 
G01 X68.9749 Y39.1063 
G01 X69.1545 Y39.0706 
G01 X70.8455 Y39.0706 
G01 X71.0251 Y39.1063 
G01 X71.1942 Y39.1764 
G01 X71.2140 Y39.1896 
G01 X71.6643 Y39.1896 
G01 X72.1816 Y38.6723 
G01 X72.1816 Y35.3277 
G01 X71.7836 Y34.9296 
G00 Z2.4000 
G00 X66.9834 Y44.9032 
G01 Z-0.1000 F50.00 
G01 X66.9834 Y45.0968 F100.00 
G01 X66.9589 Y45.2515 
G01 X66.9834 Y45.2269 
G01 X67.0350 Y45.1753 
G01 X67.0768 Y45.1474 
G01 X67.1545 Y45.0955 
G01 X67.2633 Y45.0504 
G01 X67.2872 Y45.0405 
G01 X67.3425 Y45.0295 
G01 X67.4282 Y45.0125 
G01 X67.5718 Y45.0125 
G01 X67.7128 Y45.0405 
G01 X67.8455 Y45.0955 
G01 X67.9650 Y45.1753 
G01 X68.0150 Y45.2253 
G01 X68.0411 Y45.2515 
G01 X68.0166 Y45.0968 
G01 X68.0166 Y44.9032 
G01 X68.0411 Y44.7485 
G01 X68.0166 Y44.7731 
G01 X67.9650 Y44.8247 
G01 X67.8455 Y44.9045 
G01 X67.7128 Y44.9595 
G01 X67.5718 Y44.9875 
G01 X67.4282 Y44.9875 
G01 X67.3457 Y44.9711 
G01 X67.2872 Y44.9595 
G01 X67.2656 Y44.9505 
G01 X67.1545 Y44.9045 
G01 X67.0736 Y44.8505 
G01 X67.0350 Y44.8247 
G01 X66.9850 Y44.7747 
G01 X66.9589 Y44.7485 
G01 X66.9834 Y44.9032 
G00 Z2.4000 
G00 X66.9834 Y39.9032 
G01 Z-0.1000 F50.00 
G01 X66.9834 Y40.0968 F100.00 
G01 X66.9589 Y40.2515 
G01 X66.9834 Y40.2269 
G01 X67.0350 Y40.1753 
G01 X67.0768 Y40.1474 
G01 X67.1545 Y40.0955 
G01 X67.2633 Y40.0504 
G01 X67.2872 Y40.0405 
G01 X67.3425 Y40.0295 
G01 X67.4282 Y40.0125 
G01 X67.5718 Y40.0125 
G01 X67.7128 Y40.0405 
G01 X67.8455 Y40.0955 
G01 X67.9650 Y40.1753 
G01 X68.0150 Y40.2253 
G01 X68.0411 Y40.2515 
G01 X68.0166 Y40.0968 
G01 X68.0166 Y39.9032 
G01 X68.0411 Y39.7485 
G01 X68.0166 Y39.7731 
G01 X67.9650 Y39.8247 
G01 X67.8455 Y39.9045 
G01 X67.7128 Y39.9595 
G01 X67.5718 Y39.9875 
G01 X67.4282 Y39.9875 
G01 X67.3457 Y39.9711 
G01 X67.2872 Y39.9595 
G01 X67.2656 Y39.9505 
G01 X67.1545 Y39.9045 
G01 X67.0736 Y39.8505 
G01 X67.0350 Y39.8247 
G01 X66.9850 Y39.7747 
G01 X66.9589 Y39.7485 
G01 X66.9834 Y39.9032 
G00 Z2.4000 
G00 X35.8296 Y51.8124 
G01 Z-0.1000 F50.00 
G01 X35.5406 Y51.5234 F100.00 
G01 X35.4563 Y51.5234 
G01 X35.5075 Y51.5446 
G01 X35.6270 Y51.6244 
G01 X35.7286 Y51.7260 
G01 X35.8084 Y51.8455 
G01 X35.8296 Y51.8967 
G01 X35.8296 Y51.8124 
G00 Z2.4000 
G00 X15.2539 Y37.8283 
G01 Z-0.1000 F50.00 
G01 X15.2539 Y38.3717 F100.00 
G01 X15.4619 Y38.8738 
G01 X15.8462 Y39.2581 
G01 X16.3483 Y39.4661 
G01 X16.8917 Y39.4661 
G01 X17.4568 Y39.2320 
G01 X17.5315 Y39.2011 
G01 X17.5398 Y39.1994 
G01 X17.5735 Y39.1181 
G01 X17.6533 Y38.9986 
G01 X17.7111 Y38.9408 
G01 X17.7549 Y38.8970 
G01 X17.7781 Y38.8738 
G01 X17.9861 Y38.3717 
G01 X17.9861 Y37.8283 
G01 X17.7781 Y37.3262 
G01 X17.6239 Y37.1720 
G01 X17.5821 Y37.1094 
G01 X17.5441 Y37.0525 
G01 X17.5218 Y36.9986 
G01 X17.4891 Y36.9198 
G01 X17.4611 Y36.7788 
G01 X17.4611 Y36.6352 
G01 X17.4701 Y36.5897 
G01 X17.4891 Y36.4942 
G01 X17.5123 Y36.4381 
G01 X17.5441 Y36.3615 
G01 X17.6074 Y36.2668 
G01 X17.6239 Y36.2420 
G01 X17.7255 Y36.1404 
G01 X17.7880 Y36.0987 
G01 X17.8450 Y36.0606 
G01 X17.8962 Y36.0394 
G01 X17.4492 Y36.0394 
G01 X17.2581 Y36.0091 
G01 X17.0741 Y35.9493 
G01 X17.0173 Y35.9204 
G01 X15.4628 Y35.9204 
G01 X15.5140 Y35.9416 
G01 X15.6335 Y36.0214 
G01 X15.7351 Y36.1230 
G01 X15.7605 Y36.1611 
G01 X15.8149 Y36.2425 
G01 X15.8383 Y36.2991 
G01 X15.8699 Y36.3752 
G01 X15.8884 Y36.4681 
G01 X15.8979 Y36.5162 
G01 X15.8979 Y36.6598 
G01 X15.8699 Y36.8008 
G01 X15.8478 Y36.8541 
G01 X15.8149 Y36.9335 
G01 X15.7351 Y37.0530 
G01 X15.6335 Y37.1546 
G01 X15.4619 Y37.3262 
G01 X15.2539 Y37.8283 
G00 Z2.4000 
G00 X38.0694 Y52.5971 
G01 Z-0.1000 F50.00 
G01 X38.0694 Y54.0829 F100.00 
G01 X38.0416 Y54.2585 
G01 X37.9867 Y54.4275 
G01 X37.9059 Y54.5859 
G01 X37.8895 Y54.6086 
G01 X37.9184 Y54.5966 
G01 X37.9972 Y54.5640 
G01 X38.1382 Y54.5359 
G01 X38.2818 Y54.5359 
G01 X38.3273 Y54.5450 
G01 X38.4228 Y54.5640 
G01 X38.4789 Y54.5872 
G01 X38.5305 Y54.6086 
G01 X38.5141 Y54.5859 
G01 X38.4333 Y54.4275 
G01 X38.3784 Y54.2585 
G01 X38.3506 Y54.0829 
G01 X38.3506 Y52.5971 
G01 X38.3696 Y52.4772 
G01 X38.3696 Y50.9399 
G01 X36.5401 Y49.1104 
G01 X33.9126 Y49.1104 
G01 X33.7400 Y49.0831 
G01 X33.5738 Y49.0290 
G01 X33.4180 Y48.9497 
G01 X33.2766 Y48.8470 
G01 X33.1530 Y48.7234 
G01 X27.2766 Y42.8470 
G01 X27.1530 Y42.7234 
G01 X27.0503 Y42.5820 
G01 X26.9710 Y42.4262 
G01 X26.9169 Y42.2600 
G01 X26.8896 Y42.0874 
G01 X26.8896 Y34.5132 
G01 X25.7568 Y33.3804 
G01 X19.5827 Y33.3804 
G01 X19.5259 Y33.4093 
G01 X19.3419 Y33.4691 
G01 X19.1508 Y33.4994 
G01 X17.4492 Y33.4994 
G01 X17.2581 Y33.4691 
G01 X17.0741 Y33.4093 
G01 X17.0173 Y33.3804 
G01 X12.1826 Y33.3804 
G01 X12.0100 Y33.3531 
G01 X11.8438 Y33.2990 
G01 X11.6880 Y33.2197 
G01 X11.6464 Y33.1895 
G01 X11.6553 Y33.2111 
G01 X11.6869 Y33.2872 
G01 X11.7054 Y33.3801 
G01 X11.7149 Y33.4282 
G01 X11.7149 Y33.5718 
G01 X11.6869 Y33.7128 
G01 X11.6648 Y33.7662 
G01 X11.6319 Y33.8455 
G01 X11.6293 Y33.8495 
G01 X11.7638 Y33.7810 
G01 X11.9300 Y33.7269 
G01 X12.1026 Y33.6996 
G01 X17.0173 Y33.6996 
G01 X17.0741 Y33.6707 
G01 X17.2581 Y33.6109 
G01 X17.4492 Y33.5806 
G01 X19.1508 Y33.5806 
G01 X19.3419 Y33.6109 
G01 X19.5259 Y33.6707 
G01 X19.5827 Y33.6996 
G01 X22.8974 Y33.6996 
G01 X23.0700 Y33.7269 
G01 X23.2362 Y33.7810 
G01 X23.3920 Y33.8603 
G01 X23.5334 Y33.9630 
G01 X23.6570 Y34.0866 
G01 X25.8470 Y36.2766 
G01 X25.9497 Y36.4180 
G01 X26.0290 Y36.5738 
G01 X26.0831 Y36.7400 
G01 X26.1104 Y36.9126 
G01 X26.1104 Y41.9526 
G01 X33.4604 Y49.3026 
G01 X36.0879 Y49.3026 
G01 X36.2605 Y49.3299 
G01 X36.4267 Y49.3840 
G01 X36.5825 Y49.4633 
G01 X36.7239 Y49.5660 
G01 X37.7870 Y50.6291 
G01 X37.8897 Y50.7705 
G01 X37.9690 Y50.9263 
G01 X38.0231 Y51.0925 
G01 X38.0504 Y51.2651 
G01 X38.0504 Y52.4772 
G01 X38.0694 Y52.5971 
G00 Z2.4000 
G00 X70.9270 Y20.6937 
G01 Z-0.1000 F50.00 
G01 X70.9204 Y20.6778 F100.00 
G01 X70.9204 Y20.6899 
G01 X70.9270 Y20.6937 
G00 Z2.4000 
G00 X68.6784 Y20.3135 
G01 Z-0.1000 F50.00 
G01 X68.5986 Y20.4330 F100.00 
G01 X68.4970 Y20.5346 
G01 X68.3775 Y20.6144 
G01 X68.2448 Y20.6694 
G01 X68.1038 Y20.6974 
G01 X67.8969 Y20.6974 
G01 X68.4456 Y21.2461 
G01 X68.4456 Y21.0484 
G01 X68.4780 Y20.9275 
G01 X68.5406 Y20.8191 
G01 X68.6291 Y20.7306 
G01 X68.6996 Y20.6899 
G01 X68.6996 Y20.2623 
G01 X68.6784 Y20.3135 
G00 Z2.4000 
G00 X29.0290 Y33.6270 
G01 Z-0.1000 F50.00 
G01 X29.0831 Y33.7933 F100.00 
G01 X29.1104 Y33.9659 
G01 X29.1104 Y41.5401 
G01 X34.4599 Y46.8896 
G01 X37.0874 Y46.8896 
G01 X37.2600 Y46.9169 
G01 X37.4262 Y46.9710 
G01 X37.5820 Y47.0503 
G01 X37.7234 Y47.1530 
G01 X40.2034 Y49.6330 
G01 X40.3270 Y49.7566 
G01 X40.4297 Y49.8980 
G01 X40.5090 Y50.0538 
G01 X40.5631 Y50.2200 
G01 X40.5904 Y50.3926 
G01 X40.5904 Y50.4837 
G01 X40.6116 Y50.4325 
G01 X40.6914 Y50.3130 
G01 X40.7930 Y50.2114 
G01 X40.9125 Y50.1316 
G01 X41.0452 Y50.0766 
G01 X41.0995 Y50.0658 
G01 X40.9863 Y50.0290 
G01 X40.8305 Y49.9497 
G01 X40.6891 Y49.8470 
G01 X37.5396 Y46.6974 
G01 X34.9121 Y46.6974 
G01 X34.7395 Y46.6701 
G01 X34.5733 Y46.6160 
G01 X34.4175 Y46.5367 
G01 X34.2761 Y46.4340 
G01 X30.1530 Y42.3109 
G01 X30.0503 Y42.1695 
G01 X29.9710 Y42.0137 
G01 X29.9169 Y41.8475 
G01 X29.8896 Y41.6749 
G01 X29.8896 Y34.4599 
G01 X29.0003 Y33.5706 
G01 X29.0290 Y33.6270 
G00 Z2.4000 
G00 X11.8438 Y31.2410 
G01 Z-0.1000 F50.00 
G01 X12.0100 Y31.1869 F100.00 
G01 X12.1826 Y31.1596 
G01 X17.0173 Y31.1596 
G01 X17.0741 Y31.1307 
G01 X17.2581 Y31.0709 
G01 X17.4492 Y31.0406 
G01 X19.1508 Y31.0406 
G01 X19.3419 Y31.0709 
G01 X19.5259 Y31.1307 
G01 X19.5827 Y31.1596 
G01 X26.3041 Y31.1596 
G01 X26.4767 Y31.1869 
G01 X26.6430 Y31.2410 
G01 X26.6994 Y31.2697 
G01 X26.2701 Y30.8404 
G01 X19.5827 Y30.8404 
G01 X19.5259 Y30.8693 
G01 X19.3419 Y30.9291 
G01 X19.1508 Y30.9594 
G01 X17.4492 Y30.9594 
G01 X17.2581 Y30.9291 
G01 X17.0741 Y30.8693 
G01 X17.0173 Y30.8404 
G01 X12.2301 Y30.8404 
G01 X12.0575 Y30.8131 
G01 X11.8913 Y30.7590 
G01 X11.7355 Y30.6797 
G01 X11.7075 Y30.6593 
G01 X11.7191 Y30.6873 
G01 X11.7507 Y30.7635 
G01 X11.7691 Y30.8563 
G01 X11.7787 Y30.9044 
G01 X11.7787 Y31.0481 
G01 X11.7506 Y31.1890 
G01 X11.7189 Y31.2656 
G01 X11.6985 Y31.3150 
G01 X11.8438 Y31.2410 
G00 Z2.4000 
G00 X19.7148 Y28.5984 
G01 Z-0.1000 F50.00 
G01 X19.7028 Y28.5904 F100.00 
G01 X19.6897 Y28.5843 
G01 X19.6432 Y28.5505 
G01 X19.5953 Y28.5186 
G01 X19.5851 Y28.5083 
G01 X19.5734 Y28.4999 
G01 X19.5344 Y28.4576 
G01 X19.4937 Y28.4170 
G01 X19.4857 Y28.4050 
G01 X19.4759 Y28.3943 
G01 X19.4510 Y28.3537 
G01 X19.3419 Y28.3891 
G01 X19.1508 Y28.4194 
G01 X17.4492 Y28.4194 
G01 X17.2581 Y28.3891 
G01 X17.1490 Y28.3537 
G01 X17.1241 Y28.3943 
G01 X17.1143 Y28.4050 
G01 X17.1063 Y28.4170 
G01 X17.0656 Y28.4576 
G01 X17.0266 Y28.4999 
G01 X17.0149 Y28.5083 
G01 X17.0047 Y28.5186 
G01 X16.9568 Y28.5505 
G01 X16.9103 Y28.5843 
G01 X16.8972 Y28.5904 
G01 X16.8852 Y28.5984 
G01 X16.8340 Y28.6196 
G01 X17.0173 Y28.6196 
G01 X17.0741 Y28.5907 
G01 X17.2581 Y28.5309 
G01 X17.4492 Y28.5006 
G01 X19.1508 Y28.5006 
G01 X19.3419 Y28.5309 
G01 X19.5259 Y28.5907 
G01 X19.5827 Y28.6196 
G01 X19.7660 Y28.6196 
G01 X19.7148 Y28.5984 
G00 Z2.4000 
G00 X68.4780 Y23.0725 
G01 Z-0.1000 F50.00 
G01 X68.4456 Y22.9516 F100.00 
G01 X68.4456 Y22.7539 
G01 X68.0182 Y23.1814 
G01 X68.0694 Y23.1602 
G01 X68.2103 Y23.1321 
G01 X68.3540 Y23.1321 
G01 X68.4084 Y23.1430 
G01 X68.4949 Y23.1602 
G01 X68.5392 Y23.1785 
G01 X68.4780 Y23.0725 
G00 Z2.4000 
G00 X63.4600 Y22.6595 
G01 Z-0.1000 F50.00 
G01 X63.4447 Y22.6748 F100.00 
G01 X63.5186 Y22.7487 
G01 X63.5603 Y22.8112 
G01 X63.5984 Y22.8681 
G01 X63.6196 Y22.9194 
G01 X63.6196 Y22.8191 
G01 X63.4600 Y22.6595 
G00 Z2.4000 
G00 X66.0000 Y22.6595 
G01 Z-0.1000 F50.00 
G01 X65.8404 Y22.8191 F100.00 
G01 X65.8404 Y23.7377 
G01 X65.8616 Y23.6865 
G01 X65.9414 Y23.5670 
G01 X66.0430 Y23.4654 
G01 X66.1625 Y23.3856 
G01 X66.2952 Y23.3306 
G01 X66.4362 Y23.3026 
G01 X66.6431 Y23.3026 
G01 X66.0000 Y22.6595 
G00 Z2.4000 
G00 X17.9024 Y41.7204 
G01 Z-0.1000 F50.00 
G01 X18.1369 Y42.2867 F100.00 
G01 X18.5703 Y42.7201 
G01 X19.1365 Y42.9546 
G01 X19.7494 Y42.9546 
G01 X20.3157 Y42.7201 
G01 X20.7491 Y42.2867 
G01 X20.9836 Y41.7204 
G01 X20.9836 Y41.1075 
G01 X20.7491 Y40.5413 
G01 X20.3157 Y40.1079 
G01 X19.7494 Y39.8734 
G01 X19.1365 Y39.8734 
G01 X18.5654 Y40.1100 
G01 X18.4625 Y40.1526 
G01 X18.4326 Y40.1650 
G01 X18.4244 Y40.1666 
G01 X18.4008 Y40.2236 
G01 X18.3907 Y40.2480 
G01 X18.3108 Y40.3674 
G01 X18.2491 Y40.4291 
G01 X18.2093 Y40.4690 
G01 X18.1369 Y40.5413 
G01 X17.9024 Y41.1075 
G01 X17.9024 Y41.7204 
G00 Z2.4000 
G00 X19.7494 Y19.0454 
G01 Z-0.1000 F50.00 
G01 X19.1365 Y19.0454 F100.00 
G01 X18.5703 Y19.2799 
G01 X18.1369 Y19.7133 
G01 X17.9024 Y20.2795 
G01 X17.9024 Y20.8924 
G01 X18.1369 Y21.4587 
G01 X18.5703 Y21.8921 
G01 X19.1365 Y22.1266 
G01 X19.7494 Y22.1266 
G01 X20.3157 Y21.8921 
G01 X20.7491 Y21.4587 
G01 X20.9836 Y20.8924 
G01 X20.9836 Y20.2796 
G01 X20.7491 Y19.7133 
G01 X20.3157 Y19.2799 
G01 X19.7494 Y19.0454 
G00 Z2.4000 
G00 X66.0000 Y21.3405 
G01 Z-0.1000 F50.00 
G01 X66.2640 Y21.0765 F100.00 
G01 X66.2528 Y21.0811 
G01 X66.2128 Y21.0977 
G01 X66.0718 Y21.1257 
G01 X65.9282 Y21.1257 
G01 X65.9017 Y21.1205 
G01 X65.7872 Y21.0977 
G01 X65.7360 Y21.0765 
G01 X66.0000 Y21.3405 
G00 Z2.4000 
G00 X42.8634 Y19.0454 
G01 Z-0.1000 F50.00 
G01 X42.2505 Y19.0454 F100.00 
G01 X41.6843 Y19.2799 
G01 X41.2509 Y19.7133 
G01 X41.0164 Y20.2795 
G01 X41.0164 Y20.8924 
G01 X41.2509 Y21.4587 
G01 X41.6843 Y21.8921 
G01 X42.2505 Y22.1266 
G01 X42.8634 Y22.1266 
G01 X43.4297 Y21.8921 
G01 X43.8631 Y21.4587 
G01 X44.0976 Y20.8924 
G01 X44.0976 Y20.2796 
G01 X43.8631 Y19.7133 
G01 X43.4297 Y19.2799 
G01 X42.8634 Y19.0454 
G00 Z2.4000 
G00 X55.8494 Y52.5971 
G01 Z-0.1000 F50.00 
G01 X55.8494 Y54.0829 F100.00 
G01 X55.8216 Y54.2585 
G01 X55.7667 Y54.4275 
G01 X55.7150 Y54.5288 
G01 X55.7741 Y54.4894 
G01 X55.9068 Y54.4344 
G01 X56.0454 Y54.4068 
G01 X56.1914 Y54.4064 
G01 X56.2958 Y54.4271 
G01 X56.3323 Y54.4344 
G01 X56.9883 Y54.7061 
G01 X57.5317 Y54.7061 
G01 X58.0338 Y54.4981 
G01 X58.4181 Y54.1138 
G01 X58.6261 Y53.6117 
G01 X58.6261 Y53.0683 
G01 X58.4181 Y52.5662 
G01 X58.0338 Y52.1819 
G01 X57.5317 Y51.9739 
G01 X56.9883 Y51.9739 
G01 X56.8435 Y52.0339 
G01 X56.7959 Y52.0536 
G01 X56.7108 Y52.0888 
G01 X56.5698 Y52.1169 
G01 X56.4262 Y52.1169 
G01 X56.3807 Y52.1078 
G01 X56.2852 Y52.0889 
G01 X56.2291 Y52.0656 
G01 X56.1525 Y52.0339 
G01 X56.0578 Y51.9706 
G01 X56.0330 Y51.9540 
G01 X55.9314 Y51.8524 
G01 X55.8516 Y51.7330 
G01 X55.8304 Y51.6818 
G01 X55.8304 Y52.4772 
G01 X55.8494 Y52.5971 
G00 Z2.4000 
G00 X53.5884 Y52.1502 
G01 Z-0.1000 F50.00 
G01 X53.5883 Y52.1503 F100.00 
G01 X53.5488 Y52.2094 
G01 X53.5086 Y52.2697 
G01 X53.4553 Y52.3230 
G01 X53.4070 Y52.3712 
G01 X53.3500 Y52.4093 
G01 X53.2904 Y52.4491 
G01 X53.2904 Y52.4772 
G01 X53.3094 Y52.5971 
G01 X53.3094 Y54.0364 
G01 X53.3205 Y54.0391 
G01 X53.3728 Y54.0632 
G01 X53.4260 Y54.0852 
G01 X53.4379 Y54.0932 
G01 X53.4510 Y54.0992 
G01 X53.4976 Y54.1330 
G01 X53.5454 Y54.1650 
G01 X53.5556 Y54.1752 
G01 X53.5673 Y54.1836 
G01 X53.6063 Y54.2259 
G01 X53.6146 Y54.2341 
G01 X53.5906 Y54.0829 
G01 X53.5906 Y52.5971 
G01 X53.6096 Y52.4772 
G01 X53.6096 Y52.0990 
G01 X53.5884 Y52.1502 
G00 Z2.4000 
G00 X71.6593 Y35.2296 
G01 Z-0.1000 F50.00 
G01 X71.5083 Y35.2296 F100.00 
G01 X71.5595 Y35.2509 
G01 X71.6790 Y35.3307 
G01 X71.7806 Y35.4323 
G01 X71.8604 Y35.5517 
G01 X71.8816 Y35.6030 
G01 X71.8816 Y35.4519 
G01 X71.6593 Y35.2296 
G00 Z2.4000 
G00 X71.8604 Y38.4827 
G01 Z-0.1000 F50.00 
G01 X71.8604 Y38.4828 F100.00 
G01 X71.8445 Y38.5066 
G01 X71.7806 Y38.6022 
G01 X71.7305 Y38.6522 
G01 X71.6790 Y38.7038 
G01 X71.6203 Y38.7430 
G01 X71.5595 Y38.7836 
G01 X71.4962 Y38.8099 
G01 X71.4268 Y38.8386 
G01 X71.3499 Y38.8539 
G01 X71.2858 Y38.8666 
G01 X71.2376 Y38.8666 
G01 X71.2827 Y38.8896 
G01 X71.5401 Y38.8896 
G01 X71.8816 Y38.5481 
G01 X71.8816 Y38.4315 
G01 X71.8604 Y38.4827 
G00 Z2.4000 
G00 X73.6220 Y39.9483 
G01 Z-0.1000 F50.00 
G01 X73.6332 Y39.9437 F100.00 
G01 X73.6732 Y39.9271 
G01 X73.8141 Y39.8991 
G01 X73.9578 Y39.8991 
G01 X74.0908 Y39.9255 
G01 X74.0987 Y39.9271 
G01 X74.1026 Y39.9287 
G01 X74.2315 Y39.9821 
G01 X74.2946 Y40.0243 
G01 X74.2946 Y38.6470 
G01 X75.0340 Y37.9077 
G01 X74.9828 Y37.9289 
G01 X74.8418 Y37.9569 
G01 X74.6982 Y37.9569 
G01 X74.6527 Y37.9479 
G01 X74.5572 Y37.9289 
G01 X74.5011 Y37.9056 
G01 X74.4245 Y37.8739 
G01 X74.3298 Y37.8106 
G01 X74.3050 Y37.7941 
G01 X74.2034 Y37.6925 
G01 X74.1236 Y37.5730 
G01 X74.1024 Y37.5218 
G01 X74.1024 Y39.0954 
G01 X74.0751 Y39.2680 
G01 X74.0210 Y39.4342 
G01 X73.9417 Y39.5900 
G01 X73.8390 Y39.7314 
G01 X73.7154 Y39.8550 
G01 X73.6220 Y39.9483 
G00 Z2.4000 
G00 X58.8684 Y36.5758 
G01 Z-0.1000 F50.00 
G01 X58.7886 Y36.6953 F100.00 
G01 X58.6870 Y36.7969 
G01 X58.6489 Y36.8223 
G01 X58.5675 Y36.8767 
G01 X58.5109 Y36.9001 
G01 X58.4348 Y36.9317 
G01 X58.3419 Y36.9502 
G01 X58.2938 Y36.9597 
G01 X58.1502 Y36.9597 
G01 X58.0092 Y36.9317 
G01 X57.9241 Y36.8964 
G01 X57.8765 Y36.8767 
G01 X57.5317 Y36.7339 
G01 X56.9883 Y36.7339 
G01 X56.4862 Y36.9419 
G01 X56.1019 Y37.3262 
G01 X55.8939 Y37.8283 
G01 X55.8939 Y38.3717 
G01 X56.1019 Y38.8738 
G01 X56.4862 Y39.2581 
G01 X56.9883 Y39.4661 
G01 X57.2182 Y39.4661 
G01 X57.2893 Y39.4661 
G01 X57.3619 Y39.4661 
G01 X57.4411 Y39.4819 
G01 X57.5028 Y39.4941 
G01 X57.5648 Y39.5198 
G01 X57.6355 Y39.5491 
G01 X57.6806 Y39.5792 
G01 X57.7550 Y39.6289 
G01 X57.8222 Y39.6962 
G01 X57.8566 Y39.7305 
G01 X57.8934 Y39.7856 
G01 X57.9364 Y39.8500 
G01 X57.9530 Y39.8901 
G01 X57.9914 Y39.9827 
G01 X58.0037 Y40.0446 
G01 X58.0194 Y40.1237 
G01 X58.0194 Y40.1947 
G01 X58.0194 Y40.2673 
G01 X58.0037 Y40.3466 
G01 X57.9914 Y40.4083 
G01 X57.9702 Y40.4595 
G01 X58.8896 Y39.5401 
G01 X58.8896 Y36.5246 
G01 X58.8684 Y36.5758 
G00 Z2.4000 
G00 X43.4297 Y40.1079 
G01 Z-0.1000 F50.00 
G01 X42.8634 Y39.8734 F100.00 
G01 X42.2505 Y39.8734 
G01 X41.6843 Y40.1079 
G01 X41.2509 Y40.5413 
G01 X41.0164 Y41.1075 
G01 X41.0164 Y41.7204 
G01 X41.2509 Y42.2867 
G01 X41.6843 Y42.7201 
G01 X42.2505 Y42.9546 
G01 X42.8634 Y42.9546 
G01 X43.4297 Y42.7201 
G01 X43.8631 Y42.2867 
G01 X44.0976 Y41.7204 
G01 X44.0976 Y41.1075 
G01 X43.8631 Y40.5413 
G01 X43.4297 Y40.1079 
G00 Z2.4000 
G00 X17.3938 Y52.1819 
G01 Z-0.1000 F50.00 
G01 X16.8917 Y51.9739 F100.00 
G01 X16.3483 Y51.9739 
G01 X15.8462 Y52.1819 
G01 X15.4619 Y52.5662 
G01 X15.2539 Y53.0683 
G01 X15.2539 Y53.6117 
G01 X15.4619 Y54.1138 
G01 X15.8462 Y54.4981 
G01 X16.3483 Y54.7061 
G01 X16.8917 Y54.7061 
G01 X17.3938 Y54.4981 
G01 X17.7781 Y54.1138 
G01 X17.9861 Y53.6117 
G01 X17.9861 Y53.0683 
G01 X17.7781 Y52.5662 
G01 X17.3938 Y52.1819 
G00 Z2.4000 
G00 X0.5406 Y1.1982 
G01 Z-0.1000 F50.00 
G01 X0.5686 Y1.0572 F100.00 
G01 X0.6236 Y0.9245 
G01 X0.7034 Y0.8050 
G01 X0.8050 Y0.7034 
G01 X0.9245 Y0.6236 
G01 X1.0572 Y0.5686 
G01 X1.1982 Y0.5406 
G01 X78.4818 Y0.5406 
G01 X78.6228 Y0.5686 
G01 X78.7555 Y0.6236 
G01 X78.8750 Y0.7034 
G01 X78.9766 Y0.8050 
G01 X79.0564 Y0.9245 
G01 X79.1114 Y1.0572 
G01 X79.1394 Y1.1982 
G01 X79.1394 Y38.3993 
G01 X79.1378 Y38.4073 
G01 X79.1114 Y38.5403 
G01 X79.0957 Y38.5780 
G01 X79.0564 Y38.6730 
G01 X78.9766 Y38.7925 
G01 X78.8750 Y38.8941 
G01 X78.7555 Y38.9739 
G01 X78.6228 Y39.0289 
G01 X78.4818 Y39.0569 
G01 X78.3382 Y39.0569 
G01 X78.3302 Y39.0553 
G01 X78.1972 Y39.0289 
G01 X78.1595 Y39.0132 
G01 X78.0645 Y38.9739 
G01 X77.9450 Y38.8941 
G01 X77.8434 Y38.7925 
G01 X77.7854 Y38.7344 
G01 X77.7854 Y40.0056 
G01 X77.9450 Y39.8459 
G01 X77.9938 Y39.8133 
G01 X78.0645 Y39.7661 
G01 X78.1572 Y39.7277 
G01 X78.1972 Y39.7111 
G01 X78.3382 Y39.6831 
G01 X78.4818 Y39.6831 
G01 X78.6148 Y39.7095 
G01 X78.6228 Y39.7111 
G01 X78.6266 Y39.7127 
G01 X78.7555 Y39.7661 
G01 X78.8726 Y39.8443 
G01 X78.9766 Y39.9475 
G01 X79.0092 Y39.9963 
G01 X79.0564 Y40.0670 
G01 X79.0948 Y40.1597 
G01 X79.1114 Y40.1997 
G01 X79.1394 Y40.3406 
G01 X79.1394 Y56.6718 
G01 X79.1114 Y56.8128 
G01 X79.0564 Y56.9455 
G01 X78.9766 Y57.0650 
G01 X78.8750 Y57.1666 
G01 X78.7555 Y57.2464 
G01 X78.6228 Y57.3014 
G01 X78.4818 Y57.3294 
G01 X1.1982 Y57.3294 
G01 X1.0572 Y57.3014 
G01 X0.9245 Y57.2464 
G01 X0.8050 Y57.1666 
G01 X0.7034 Y57.0650 
G01 X0.6236 Y56.9455 
G01 X0.5686 Y56.8128 
G01 X0.5406 Y56.6718 
G01 X0.5406 Y56.5282 
G01 X0.5406 Y1.1982 
M05
M02
