(.../pcb-gcode-3.6.0.4/pcb-gcode.ulp)
(Copyright 2005 - 2012 by John Johnson)
(See readme.txt for licensing terms.)
(This file generated from the board:)
(.../HandHeld_O2_Analyzer/HandHeld_O2_Analyzer.brd)
(Current profile is .../pcb-gcode-3.6.0.4/profiles/generic.pp  )
(This file generated 3/17/2021 1:34 PM)
(Settings from pcb-machine.h)
(  Tool Size)
(0.3000 )
(Z Axis Settings)
(  High     Up        Down     Drill)
(12.7000 	2.4000 	-0.1000 	-1.7000 )
(spindle on time = 3.0000)
(milling depth = -0.2540)
(text depth = -0.1270)
(tool change at 0.0000 -12.0000 20.0000 )
(feed rate xy = F100.00 )
(feed rate z  = F50.00 )
(Settings from pcb-defaults.h)
(isolate min = 0.0254)
(isolate max = 0.3000)
(isolate step = 0.3000)
(Generated top outlines, top drill, bottom drill, )
(Unit of measure: mm)
( Tool|       Size       |  Min Sub |  Max Sub |   Count )
( T01  0.800mm 0.0315in 0.0000in 0.0000in )
( T02  0.813mm 0.0320in 0.0000in 0.0000in )
( T03  1.000mm 0.0394in 0.0000in 0.0000in )
(Metric Mode)
G21
(Absolute Coordinates)
G90
M05
G00 Z20.0000 
G00 X0.0000 Y-12.0000 
M06 T01  ; 0.8000 
G01 Z0.0000 F50.00 
M06 T01  ; 0.8000 
G00 Z2.4000 
M03
G04 P3.000000
G00 Z2.400000
G00 X-39.2200 Y37.3800 
G01 Z-1.7000 F50.00 
G01 Z2.400000
(R2.4000  P1.000000)
(G00 Z2.400000)
G00 X-41.7600 Y37.3800 
G01 Z-1.700000
G01 Z2.400000
(G00 Z2.400000)
G00 X-41.7600 Y52.6200 
G01 Z-1.700000
G01 Z2.400000
(G00 Z2.400000)
G00 X-46.8400 Y37.3800 
G01 Z-1.700000
G01 Z2.400000
(G00 Z2.400000)
G00 X-46.8400 Y52.6200 
G01 Z-1.700000
G01 Z2.400000
(G00 Z2.400000)
G00 X-54.4600 Y37.3800 
G01 Z-1.700000
G01 Z2.400000
(G00 Z2.400000)
G00 X-57.0000 Y37.3800 
G01 Z-1.700000
G01 Z2.400000
M05
G00 Z20.0000 
M06 T02  ; 0.8128 
G01 Z0.0000 F50.00 
M06 T02  ; 0.8128 
G00 Z2.4000 
M03
G04 P3.000000
G00 Z2.400000
G00 X-3.5000 Y40.0000 
G01 Z-1.7000 F50.00 
G01 Z2.400000
(R2.4000  P1.000000)
(G00 Z2.400000)
G00 X-3.5000 Y28.0000 
G01 Z-1.700000
G01 Z2.400000
(G00 Z2.400000)
G00 X-5.0400 Y48.3700 
G01 Z-1.700000
G01 Z2.400000
(G00 Z2.400000)
G00 X-5.0400 Y53.7500 
G01 Z-1.700000
G01 Z2.400000
(G00 Z2.400000)
G00 X-63.1900 Y23.0000 
G01 Z-1.700000
G01 Z2.400000
(G00 Z2.400000)
G00 X-65.7300 Y23.0000 
G01 Z-1.700000
G01 Z2.400000
(G00 Z2.400000)
G00 X-68.2700 Y23.0000 
G01 Z-1.700000
G01 Z2.400000
(G00 Z2.400000)
G00 X-70.8100 Y23.0000 
G01 Z-1.700000
G01 Z2.400000
(G00 Z2.400000)
G00 X-13.0000 Y28.0000 
G01 Z-1.700000
G01 Z2.400000
(G00 Z2.400000)
G00 X-13.5000 Y40.0000 
G01 Z-1.700000
G01 Z2.400000
M05
G00 Z20.0000 
M06 T03  ; 1.0000 
G01 Z0.0000 F50.00 
M06 T03  ; 1.0000 
G00 Z2.4000 
M03
G04 P3.000000
G00 Z2.400000
G00 X-85.7000 Y32.7300 
G01 Z-1.7000 F50.00 
G01 Z2.400000
(R2.4000  P1.000000)
(G00 Z2.400000)
G00 X-85.7000 Y35.2700 
G01 Z-1.700000
G01 Z2.400000
(G00 Z2.400000)
G00 X-85.7000 Y37.8100 
G01 Z-1.700000
G01 Z2.400000
(G00 Z2.400000)
G00 X-85.7000 Y30.1900 
G01 Z-1.700000
G01 Z2.400000
T01 
G00 Z12.7000 
M05
M02
