(.../pcb-gcode-3.6.0.4/pcb-gcode.ulp)
(Copyright 2005 - 2012 by John Johnson)
(See readme.txt for licensing terms.)
(This file generated from the board:)
(.../HandHeld_O2_Analyzer/HandHeld_O2_Analyzer.brd)
(Current profile is .../pcb-gcode-3.6.0.4/profiles/generic.pp  )
(This file generated 3/17/2021 1:34 PM)
(Settings from pcb-machine.h)
(  Tool Size)
(0.3000 )
(Z Axis Settings)
(  High     Up        Down     Drill)
(12.7000 	2.4000 	-0.1000 	-1.7000 )
(spindle on time = 3.0000)
(milling depth = -0.2540)
(text depth = -0.1270)
(tool change at 0.0000 -12.0000 20.0000 )
(feed rate xy = F100.00 )
(feed rate z  = F50.00 )
(Settings from pcb-defaults.h)
(isolate min = 0.0254)
(isolate max = 0.3000)
(isolate step = 0.3000)
(Generated top outlines, top drill, bottom drill, )
(Unit of measure: mm)
(Metric Mode)
G21
(Absolute Coordinates)
G90
G00 X0.0000 Y0.0000 
M03
G04 P3.000000
G00 Z2.4000 
G00 X2.7836 Y38.2704 
G01 Z-0.1000 F50.00 
G01 X1.7704 Y39.2836 F100.00 
G01 X1.7704 Y40.7164 
G01 X2.7836 Y41.7296 
G01 X4.2164 Y41.7296 
G01 X5.2296 Y40.7164 
G01 X5.2296 Y39.2836 
G01 X4.2164 Y38.2704 
G01 X2.7836 Y38.2704 
G00 Z2.4000 
G00 X4.9454 Y39.4013 
G01 Z-0.1000 F50.00 
G01 X4.9454 Y40.5987 F100.00 
G01 X4.0987 Y41.4454 
G01 X2.9013 Y41.4454 
G01 X2.0546 Y40.5987 
G01 X2.0546 Y39.4013 
G01 X2.9013 Y38.5546 
G01 X4.0987 Y38.5546 
G01 X4.9454 Y39.4013 
G00 Z2.4000 
G00 X6.1346 Y45.5053 
G01 Z-0.1000 F50.00 
G01 X6.1568 Y45.4226 F100.00 
G01 X6.1996 Y45.3484 
G01 X6.2602 Y45.2878 
G01 X10.3884 Y41.1596 
G01 X10.4626 Y41.1168 
G01 X10.5453 Y41.0946 
G01 X12.0566 Y41.0946 
G01 X12.1394 Y41.1168 
G01 X12.2136 Y41.1596 
G01 X12.7836 Y41.7296 
G01 X14.2164 Y41.7296 
G01 X15.2296 Y40.7164 
G01 X15.2296 Y39.2836 
G01 X14.2164 Y38.2704 
G01 X12.7836 Y38.2704 
G01 X12.2136 Y38.8404 
G01 X12.1394 Y38.8832 
G01 X12.0566 Y38.9054 
G01 X9.7823 Y38.9054 
G01 X9.3800 Y39.0720 
G01 X4.1120 Y44.3400 
G01 X3.9454 Y44.7423 
G01 X3.9454 Y46.9266 
G01 X3.9232 Y47.0094 
G01 X3.8804 Y47.0836 
G01 X3.8198 Y47.1442 
G01 X3.3104 Y47.6536 
G01 X3.3104 Y49.0864 
G01 X4.3236 Y50.0996 
G01 X5.7564 Y50.0996 
G01 X6.7696 Y49.0864 
G01 X6.7696 Y47.6536 
G01 X6.1996 Y47.0836 
G01 X6.1568 Y47.0094 
G01 X6.1346 Y46.9266 
G01 X6.1346 Y46.8409 
G01 X6.1346 Y45.5053 
G00 Z2.4000 
G00 X6.4854 Y47.7713 
G01 Z-0.1000 F50.00 
G01 X6.4854 Y48.9687 F100.00 
G01 X5.6387 Y49.8154 
G01 X4.4413 Y49.8154 
G01 X3.5946 Y48.9687 
G01 X3.5946 Y47.7713 
G01 X4.2296 Y47.1363 
G01 X4.2296 Y44.8802 
G01 X4.2607 Y44.7236 
G01 X4.3218 Y44.5761 
G01 X4.4105 Y44.4434 
G01 X9.4834 Y39.3705 
G01 X9.6161 Y39.2818 
G01 X9.7636 Y39.2207 
G01 X9.9202 Y39.1896 
G01 X12.2663 Y39.1896 
G01 X12.9013 Y38.5546 
G01 X14.0987 Y38.5546 
G01 X14.9454 Y39.4013 
G01 X14.9454 Y40.5987 
G01 X14.0987 Y41.4454 
G01 X12.9013 Y41.4454 
G01 X12.2663 Y40.8104 
G01 X10.3357 Y40.8104 
G01 X5.8504 Y45.2957 
G01 X5.8504 Y47.1363 
G01 X6.4854 Y47.7713 
G00 Z2.4000 
G00 X38.9985 Y39.1476 
G01 Z-0.1000 F50.00 
G01 X39.4415 Y39.1476 F100.00 
G01 X39.8508 Y38.9781 
G01 X40.1641 Y38.6648 
G01 X40.3336 Y38.2555 
G01 X40.3336 Y36.5076 
G01 X40.3312 Y36.4987 
G01 X40.3230 Y36.4788 
G01 X40.3202 Y36.4575 
G01 X40.3146 Y36.4367 
G01 X40.3146 Y36.4152 
G01 X40.3118 Y36.3939 
G01 X40.3146 Y36.3726 
G01 X40.3146 Y34.5023 
G01 X40.1480 Y34.0999 
G01 X38.6200 Y32.5720 
G01 X38.2177 Y32.4054 
G01 X5.5453 Y32.4054 
G01 X5.4626 Y32.3832 
G01 X5.3884 Y32.3404 
G01 X5.3278 Y32.2798 
G01 X4.6596 Y31.6116 
G01 X4.6168 Y31.5374 
G01 X4.5946 Y31.4547 
G01 X4.5946 Y29.4434 
G01 X4.6168 Y29.3606 
G01 X4.6596 Y29.2864 
G01 X4.7202 Y29.2258 
G01 X5.2296 Y28.7164 
G01 X5.2296 Y27.2836 
G01 X4.2164 Y26.2704 
G01 X2.7836 Y26.2704 
G01 X1.7704 Y27.2836 
G01 X1.7704 Y28.7164 
G01 X2.3404 Y29.2864 
G01 X2.3832 Y29.3606 
G01 X2.4054 Y29.4434 
G01 X2.4054 Y32.2177 
G01 X2.5720 Y32.6200 
G01 X4.0566 Y34.1046 
G01 X4.3800 Y34.4280 
G01 X4.7823 Y34.5946 
G01 X37.4547 Y34.5946 
G01 X37.5374 Y34.6168 
G01 X37.6116 Y34.6596 
G01 X37.6722 Y34.7202 
G01 X38.0604 Y35.1084 
G01 X38.1032 Y35.1826 
G01 X38.1254 Y35.2653 
G01 X38.1254 Y36.3726 
G01 X38.1282 Y36.3939 
G01 X38.1254 Y36.4152 
G01 X38.1254 Y36.4367 
G01 X38.1198 Y36.4575 
G01 X38.1170 Y36.4788 
G01 X38.1088 Y36.4987 
G01 X38.1064 Y36.5076 
G01 X38.1064 Y38.2555 
G01 X38.2759 Y38.6648 
G01 X38.5892 Y38.9781 
G01 X38.9985 Y39.1476 
G00 Z2.4000 
G00 X4.9454 Y27.4013 
G01 Z-0.1000 F50.00 
G01 X4.9454 Y28.5987 F100.00 
G01 X4.3104 Y29.2337 
G01 X4.3104 Y31.6643 
G01 X5.3357 Y32.6896 
G01 X38.0798 Y32.6896 
G01 X38.2364 Y32.7207 
G01 X38.3839 Y32.7818 
G01 X38.5166 Y32.8705 
G01 X39.8495 Y34.2034 
G01 X39.9382 Y34.3361 
G01 X39.9993 Y34.4836 
G01 X40.0304 Y34.6402 
G01 X40.0304 Y36.5488 
G01 X40.0494 Y36.6443 
G01 X40.0494 Y38.1157 
G01 X40.0175 Y38.2759 
G01 X39.9550 Y38.4269 
G01 X39.8642 Y38.5627 
G01 X39.7487 Y38.6782 
G01 X39.6129 Y38.7690 
G01 X39.4619 Y38.8315 
G01 X39.3017 Y38.8634 
G01 X39.1383 Y38.8634 
G01 X38.9781 Y38.8315 
G01 X38.8271 Y38.7690 
G01 X38.6913 Y38.6782 
G01 X38.5758 Y38.5627 
G01 X38.4850 Y38.4269 
G01 X38.4225 Y38.2759 
G01 X38.3906 Y38.1157 
G01 X38.3906 Y36.6443 
G01 X38.4096 Y36.5488 
G01 X38.4096 Y35.0557 
G01 X37.6643 Y34.3104 
G01 X4.9202 Y34.3104 
G01 X4.7636 Y34.2793 
G01 X4.6161 Y34.2182 
G01 X4.4834 Y34.1295 
G01 X4.3705 Y34.0166 
G01 X2.8705 Y32.5166 
G01 X2.7818 Y32.3839 
G01 X2.7207 Y32.2364 
G01 X2.6896 Y32.0798 
G01 X2.6896 Y29.2337 
G01 X2.0546 Y28.5987 
G01 X2.0546 Y27.4013 
G01 X2.9013 Y26.5546 
G01 X4.0987 Y26.5546 
G01 X4.9454 Y27.4013 
G00 Z2.4000 
G00 X12.2836 Y26.2704 
G01 Z-0.1000 F50.00 
G01 X11.2704 Y27.2836 F100.00 
G01 X11.2704 Y28.7164 
G01 X12.2836 Y29.7296 
G01 X13.7164 Y29.7296 
G01 X14.7296 Y28.7164 
G01 X14.7296 Y27.2836 
G01 X13.7164 Y26.2704 
G01 X12.2836 Y26.2704 
G00 Z2.4000 
G00 X14.4454 Y27.4013 
G01 Z-0.1000 F50.00 
G01 X14.4454 Y28.5987 F100.00 
G01 X13.5987 Y29.4454 
G01 X12.4013 Y29.4454 
G01 X11.5546 Y28.5987 
G01 X11.5546 Y27.4013 
G01 X12.4013 Y26.5546 
G01 X13.5987 Y26.5546 
G01 X14.4454 Y27.4013 
G00 Z2.4000 
G00 X64.2544 Y22.5591 
G01 Z-0.1000 F50.00 
G01 X64.2544 Y23.4409 F100.00 
G01 X64.1927 Y23.5026 
G01 X64.2334 Y23.5026 
G01 X64.3162 Y23.5248 
G01 X64.3427 Y23.5401 
G01 X64.3904 Y23.5676 
G01 X64.4510 Y23.6282 
G01 X64.5704 Y23.7476 
G01 X64.6132 Y23.8218 
G01 X64.6354 Y23.9045 
G01 X64.6354 Y24.7247 
G01 X64.6132 Y24.8074 
G01 X64.5704 Y24.8816 
G01 X64.5098 Y24.9422 
G01 X63.6116 Y25.8404 
G01 X63.5374 Y25.8832 
G01 X63.4547 Y25.9054 
G01 X45.7823 Y25.9054 
G01 X45.3800 Y26.0720 
G01 X43.3954 Y28.0566 
G01 X43.0720 Y28.3800 
G01 X42.9054 Y28.7823 
G01 X42.9054 Y36.0376 
G01 X42.9081 Y36.0633 
G01 X42.9054 Y36.0803 
G01 X42.9054 Y36.0975 
G01 X42.8987 Y36.1224 
G01 X42.8947 Y36.1479 
G01 X42.8877 Y36.1636 
G01 X42.8832 Y36.1803 
G01 X42.8703 Y36.2026 
G01 X42.8598 Y36.2262 
G01 X42.8490 Y36.2396 
G01 X42.8404 Y36.2545 
G01 X42.8222 Y36.2727 
G01 X42.8059 Y36.2927 
G01 X42.7920 Y36.3029 
G01 X42.7798 Y36.3150 
G01 X42.7575 Y36.3279 
G01 X42.7366 Y36.3431 
G01 X42.7205 Y36.3493 
G01 X42.7056 Y36.3579 
G01 X42.6807 Y36.3646 
G01 X42.6566 Y36.3738 
G01 X42.6395 Y36.3756 
G01 X42.6228 Y36.3801 
G01 X42.5970 Y36.3801 
G01 X42.5714 Y36.3828 
G01 X42.5704 Y36.5488 
G01 X42.5894 Y36.6443 
G01 X42.5894 Y38.1157 
G01 X42.5704 Y38.2112 
G01 X42.5704 Y38.3774 
G01 X42.5970 Y38.3799 
G01 X42.6228 Y38.3799 
G01 X42.6395 Y38.3844 
G01 X42.6566 Y38.3862 
G01 X42.6807 Y38.3954 
G01 X42.7056 Y38.4021 
G01 X42.7205 Y38.4107 
G01 X42.7366 Y38.4169 
G01 X42.7575 Y38.4321 
G01 X42.7798 Y38.4449 
G01 X42.7920 Y38.4571 
G01 X42.8059 Y38.4672 
G01 X42.8222 Y38.4873 
G01 X42.8404 Y38.5055 
G01 X42.8490 Y38.5204 
G01 X42.8598 Y38.5338 
G01 X42.8703 Y38.5574 
G01 X42.8832 Y38.5797 
G01 X42.8877 Y38.5964 
G01 X42.8947 Y38.6121 
G01 X42.8987 Y38.6376 
G01 X42.9054 Y38.6625 
G01 X42.9054 Y38.6797 
G01 X42.9081 Y38.6967 
G01 X42.9054 Y38.7224 
G01 X42.9054 Y39.2177 
G01 X43.0720 Y39.6200 
G01 X48.8404 Y45.3884 
G01 X48.8832 Y45.4626 
G01 X48.9054 Y45.5453 
G01 X48.9054 Y54.4547 
G01 X48.8832 Y54.5374 
G01 X48.8404 Y54.6116 
G01 X48.7798 Y54.6722 
G01 X47.6116 Y55.8404 
G01 X47.5374 Y55.8832 
G01 X47.4547 Y55.9054 
G01 X43.5453 Y55.9054 
G01 X43.4626 Y55.8832 
G01 X43.3884 Y55.8404 
G01 X43.3278 Y55.7798 
G01 X42.9196 Y55.3716 
G01 X42.8768 Y55.2974 
G01 X42.8546 Y55.2147 
G01 X42.8546 Y53.6274 
G01 X42.8518 Y53.6061 
G01 X42.8546 Y53.5848 
G01 X42.8546 Y53.5633 
G01 X42.8602 Y53.5425 
G01 X42.8630 Y53.5212 
G01 X42.8712 Y53.5013 
G01 X42.8736 Y53.4924 
G01 X42.8736 Y51.7445 
G01 X42.7041 Y51.3352 
G01 X42.3908 Y51.0219 
G01 X41.9815 Y50.8524 
G01 X41.5385 Y50.8524 
G01 X41.1292 Y51.0219 
G01 X40.8159 Y51.3352 
G01 X40.6464 Y51.7445 
G01 X40.6464 Y53.4924 
G01 X40.6488 Y53.5013 
G01 X40.6570 Y53.5212 
G01 X40.6598 Y53.5425 
G01 X40.6654 Y53.5633 
G01 X40.6654 Y53.5848 
G01 X40.6682 Y53.6061 
G01 X40.6654 Y53.6274 
G01 X40.6654 Y55.9777 
G01 X40.8320 Y56.3800 
G01 X41.9562 Y57.5042 
G01 X41.9990 Y57.5784 
G01 X42.0212 Y57.6612 
G01 X42.0212 Y57.7468 
G01 X41.9990 Y57.8296 
G01 X41.9571 Y57.9022 
G01 X41.8956 Y57.9644 
G01 X41.8214 Y58.0072 
G01 X41.7387 Y58.0294 
G01 X1.1232 Y58.0294 
G01 X1.0404 Y58.0072 
G01 X0.9662 Y57.9644 
G01 X0.9056 Y57.9038 
G01 X0.8628 Y57.8296 
G01 X0.8406 Y57.7468 
G01 X0.8406 Y1.1232 
G01 X0.8628 Y1.0404 
G01 X0.9056 Y0.9662 
G01 X0.9662 Y0.9056 
G01 X1.0404 Y0.8628 
G01 X1.1232 Y0.8406 
G01 X88.5568 Y0.8406 
G01 X88.6396 Y0.8628 
G01 X88.7138 Y0.9056 
G01 X88.7744 Y0.9662 
G01 X88.8172 Y1.0404 
G01 X88.8394 Y1.1232 
G01 X88.8394 Y57.7468 
G01 X88.8172 Y57.8296 
G01 X88.7744 Y57.9038 
G01 X88.7138 Y57.9644 
G01 X88.6396 Y58.0072 
G01 X88.5568 Y58.0294 
G01 X49.2613 Y58.0294 
G01 X49.1786 Y58.0072 
G01 X49.1044 Y57.9644 
G01 X49.0447 Y57.9047 
G01 X49.0010 Y57.8296 
G01 X48.9788 Y57.7468 
G01 X48.9788 Y57.6612 
G01 X49.0010 Y57.5784 
G01 X49.0438 Y57.5042 
G01 X50.9280 Y55.6200 
G01 X51.0946 Y55.2177 
G01 X51.0946 Y44.7823 
G01 X50.9280 Y44.3800 
G01 X46.2148 Y39.6668 
G01 X46.1978 Y39.6537 
G01 X46.1847 Y39.6367 
G01 X46.1695 Y39.6215 
G01 X46.1587 Y39.6028 
G01 X46.1456 Y39.5858 
G01 X46.1374 Y39.5659 
G01 X46.1266 Y39.5473 
G01 X46.1211 Y39.5265 
G01 X46.1128 Y39.5066 
G01 X46.1100 Y39.4853 
G01 X46.1044 Y39.4645 
G01 X46.1044 Y39.4430 
G01 X46.1016 Y39.4217 
G01 X46.1044 Y39.4003 
G01 X46.1044 Y39.3788 
G01 X46.1100 Y39.3580 
G01 X46.1128 Y39.3367 
G01 X46.1211 Y39.3169 
G01 X46.1266 Y39.2961 
G01 X46.1374 Y39.2774 
G01 X46.1456 Y39.2576 
G01 X46.1587 Y39.2405 
G01 X46.1695 Y39.2219 
G01 X46.1847 Y39.2067 
G01 X46.1978 Y39.1896 
G01 X46.2148 Y39.1765 
G01 X46.2300 Y39.1613 
G01 X46.2487 Y39.1505 
G01 X46.2657 Y39.1374 
G01 X46.2856 Y39.1292 
G01 X46.3042 Y39.1184 
G01 X46.3250 Y39.1129 
G01 X46.3449 Y39.1046 
G01 X46.3662 Y39.1018 
G01 X46.3870 Y39.0963 
G01 X46.4085 Y39.0963 
G01 X46.4299 Y39.0935 
G01 X46.4512 Y39.0963 
G01 X46.4727 Y39.0963 
G01 X46.4935 Y39.1018 
G01 X46.5148 Y39.1046 
G01 X46.5347 Y39.1129 
G01 X46.5554 Y39.1184 
G01 X46.5741 Y39.1292 
G01 X46.6185 Y39.1476 
G01 X47.0615 Y39.1476 
G01 X47.4708 Y38.9781 
G01 X47.7841 Y38.6648 
G01 X47.9536 Y38.2555 
G01 X47.9536 Y36.5076 
G01 X47.9512 Y36.4987 
G01 X47.9430 Y36.4789 
G01 X47.9402 Y36.4575 
G01 X47.9346 Y36.4367 
G01 X47.9346 Y36.4152 
G01 X47.9318 Y36.3939 
G01 X47.9346 Y36.3726 
G01 X47.9346 Y31.7053 
G01 X47.9568 Y31.6226 
G01 X47.9996 Y31.5484 
G01 X48.0602 Y31.4878 
G01 X48.3884 Y31.1596 
G01 X48.4626 Y31.1168 
G01 X48.5453 Y31.0946 
G01 X67.2177 Y31.0946 
G01 X67.6200 Y30.9280 
G01 X68.0040 Y30.5440 
G01 X71.7380 Y26.8100 
G01 X71.9046 Y26.4077 
G01 X71.9046 Y24.4253 
G01 X71.9268 Y24.3426 
G01 X71.9696 Y24.2684 
G01 X72.0302 Y24.2078 
G01 X72.0886 Y24.1493 
G01 X72.1586 Y23.9804 
G01 X72.1586 Y22.0196 
G01 X72.0886 Y21.8506 
G01 X71.9696 Y21.7316 
G01 X71.9268 Y21.6574 
G01 X71.9046 Y21.5747 
G01 X71.9046 Y20.7353 
G01 X71.9268 Y20.6526 
G01 X71.9696 Y20.5784 
G01 X72.0302 Y20.5178 
G01 X72.3884 Y20.1596 
G01 X72.4626 Y20.1168 
G01 X72.5453 Y20.0946 
G01 X74.4547 Y20.0946 
G01 X74.5374 Y20.1168 
G01 X74.6116 Y20.1596 
G01 X74.6722 Y20.2202 
G01 X75.8404 Y21.3884 
G01 X75.8832 Y21.4626 
G01 X75.9054 Y21.5453 
G01 X75.9054 Y30.2177 
G01 X76.0720 Y30.6200 
G01 X79.1022 Y33.6502 
G01 X79.1450 Y33.7244 
G01 X79.1672 Y33.8072 
G01 X79.1672 Y33.8928 
G01 X79.1663 Y33.8964 
G01 X79.1450 Y33.9756 
G01 X79.1031 Y34.0482 
G01 X79.0416 Y34.1104 
G01 X78.9674 Y34.1532 
G01 X78.8847 Y34.1754 
G01 X77.8153 Y34.1754 
G01 X77.7326 Y34.1532 
G01 X77.6584 Y34.1104 
G01 X77.5978 Y34.0498 
G01 X75.6200 Y32.0720 
G01 X75.2177 Y31.9054 
G01 X55.7823 Y31.9054 
G01 X55.3800 Y32.0720 
G01 X54.9960 Y32.4560 
G01 X53.5320 Y33.9200 
G01 X53.3654 Y34.3223 
G01 X53.3654 Y36.3726 
G01 X53.3682 Y36.3939 
G01 X53.3654 Y36.4152 
G01 X53.3654 Y36.4367 
G01 X53.3598 Y36.4575 
G01 X53.3570 Y36.4788 
G01 X53.3488 Y36.4987 
G01 X53.3464 Y36.5076 
G01 X53.3464 Y38.2555 
G01 X53.5159 Y38.6648 
G01 X53.8292 Y38.9781 
G01 X54.2385 Y39.1476 
G01 X54.6815 Y39.1476 
G01 X55.0908 Y38.9781 
G01 X55.3802 Y38.6887 
G01 X55.4544 Y38.6458 
G01 X55.5372 Y38.6236 
G01 X55.6228 Y38.6236 
G01 X55.7056 Y38.6458 
G01 X55.7322 Y38.6612 
G01 X55.7798 Y38.6887 
G01 X55.8404 Y38.7492 
G01 X55.8832 Y38.8234 
G01 X55.9054 Y38.9062 
G01 X55.9054 Y40.2177 
G01 X56.0720 Y40.6200 
G01 X58.0566 Y42.6046 
G01 X58.3800 Y42.9280 
G01 X58.7823 Y43.0946 
G01 X72.2177 Y43.0946 
G01 X72.6200 Y42.9280 
G01 X76.5784 Y38.9696 
G01 X76.6526 Y38.9268 
G01 X76.7353 Y38.9046 
G01 X84.3312 Y38.9046 
G01 X84.3526 Y38.9018 
G01 X84.3739 Y38.9046 
G01 X84.3954 Y38.9046 
G01 X84.4162 Y38.9102 
G01 X84.4375 Y38.9130 
G01 X84.4574 Y38.9212 
G01 X84.4782 Y38.9268 
G01 X84.4968 Y38.9375 
G01 X84.7046 Y39.0236 
G01 X86.6954 Y39.0236 
G01 X87.1415 Y38.8388 
G01 X87.4828 Y38.4975 
G01 X87.6676 Y38.0514 
G01 X87.6676 Y37.5686 
G01 X87.4828 Y37.1225 
G01 X87.1607 Y36.8004 
G01 X87.1001 Y36.7398 
G01 X87.0733 Y36.6934 
G01 X87.0572 Y36.6656 
G01 X87.0351 Y36.5828 
G01 X87.0351 Y36.4972 
G01 X87.0572 Y36.4144 
G01 X87.1001 Y36.3402 
G01 X87.4828 Y35.9574 
G01 X87.6676 Y35.5114 
G01 X87.6676 Y35.0286 
G01 X87.4828 Y34.5825 
G01 X87.1607 Y34.2604 
G01 X87.1001 Y34.1998 
G01 X87.0733 Y34.1534 
G01 X87.0572 Y34.1256 
G01 X87.0351 Y34.0428 
G01 X87.0351 Y33.9572 
G01 X87.0572 Y33.8744 
G01 X87.1001 Y33.8002 
G01 X87.4828 Y33.4174 
G01 X87.6676 Y32.9714 
G01 X87.6676 Y32.4886 
G01 X87.4828 Y32.0425 
G01 X87.1415 Y31.7012 
G01 X86.8019 Y31.5605 
G01 X86.7733 Y31.5512 
G01 X86.7624 Y31.5442 
G01 X86.7505 Y31.5392 
G01 X86.7266 Y31.5209 
G01 X86.7014 Y31.5045 
G01 X86.6928 Y31.4949 
G01 X86.6825 Y31.4871 
G01 X86.6642 Y31.4632 
G01 X86.6441 Y31.4409 
G01 X86.6382 Y31.4293 
G01 X86.6303 Y31.4191 
G01 X86.6188 Y31.3913 
G01 X86.6052 Y31.3645 
G01 X86.6025 Y31.3519 
G01 X86.5975 Y31.3399 
G01 X86.5936 Y31.3101 
G01 X86.5874 Y31.2807 
G01 X86.5881 Y31.2678 
G01 X86.5864 Y31.2550 
G01 X86.5903 Y31.2252 
G01 X86.5919 Y31.1952 
G01 X86.5959 Y31.1829 
G01 X86.5975 Y31.1700 
G01 X86.6091 Y31.1423 
G01 X86.6183 Y31.1137 
G01 X86.6249 Y31.1036 
G01 X86.5455 Y31.1194 
G01 X84.8545 Y31.1194 
G01 X84.7751 Y31.1036 
G01 X84.7817 Y31.1137 
G01 X84.7909 Y31.1423 
G01 X84.8024 Y31.1700 
G01 X84.8041 Y31.1829 
G01 X84.8081 Y31.1952 
G01 X84.8097 Y31.2252 
G01 X84.8136 Y31.2550 
G01 X84.8119 Y31.2678 
G01 X84.8126 Y31.2807 
G01 X84.8064 Y31.3101 
G01 X84.8024 Y31.3399 
G01 X84.7975 Y31.3519 
G01 X84.7948 Y31.3645 
G01 X84.7812 Y31.3913 
G01 X84.7697 Y31.4191 
G01 X84.7618 Y31.4294 
G01 X84.7559 Y31.4409 
G01 X84.7358 Y31.4632 
G01 X84.7175 Y31.4871 
G01 X84.7072 Y31.4949 
G01 X84.6986 Y31.5045 
G01 X84.6734 Y31.5209 
G01 X84.6495 Y31.5392 
G01 X84.6376 Y31.5442 
G01 X84.6267 Y31.5512 
G01 X84.5981 Y31.5605 
G01 X84.4968 Y31.6025 
G01 X84.4782 Y31.6132 
G01 X84.4574 Y31.6188 
G01 X84.4375 Y31.6270 
G01 X84.4162 Y31.6298 
G01 X84.3954 Y31.6354 
G01 X84.3739 Y31.6354 
G01 X84.3526 Y31.6382 
G01 X84.3312 Y31.6354 
G01 X80.2753 Y31.6354 
G01 X80.1926 Y31.6132 
G01 X80.1184 Y31.5704 
G01 X80.0578 Y31.5098 
G01 X78.1596 Y29.6116 
G01 X78.1168 Y29.5374 
G01 X78.0946 Y29.4547 
G01 X78.0946 Y20.7823 
G01 X77.9280 Y20.3800 
G01 X77.5440 Y19.9960 
G01 X75.9434 Y18.3954 
G01 X75.6200 Y18.0720 
G01 X75.2177 Y17.9054 
G01 X71.7823 Y17.9054 
G01 X71.3800 Y18.0720 
G01 X70.9960 Y18.4560 
G01 X69.8820 Y19.5700 
G01 X69.7154 Y19.9723 
G01 X69.7154 Y21.5747 
G01 X69.6932 Y21.6574 
G01 X69.6615 Y21.7124 
G01 X69.6504 Y21.7316 
G01 X69.5400 Y21.8420 
G01 X69.4808 Y21.9013 
G01 X69.4176 Y21.9383 
G01 X69.4052 Y21.9454 
G01 X69.3678 Y21.9555 
G01 X69.3225 Y21.9676 
G01 X69.2368 Y21.9676 
G01 X69.1540 Y21.9455 
G01 X69.0798 Y21.9026 
G01 X69.0284 Y21.8512 
G01 X69.0192 Y21.8420 
G01 X68.8286 Y21.6514 
G01 X67.7114 Y21.6514 
G01 X67.1998 Y22.1630 
G01 X67.1256 Y22.2058 
G01 X67.0428 Y22.2280 
G01 X66.9572 Y22.2280 
G01 X66.8744 Y22.2058 
G01 X66.8478 Y22.1905 
G01 X66.8002 Y22.1630 
G01 X66.7396 Y22.1024 
G01 X66.2886 Y21.6514 
G01 X65.1714 Y21.6514 
G01 X64.4510 Y22.3718 
G01 X64.3975 Y22.4253 
G01 X64.3904 Y22.4324 
G01 X64.3600 Y22.4500 
G01 X64.3162 Y22.4752 
G01 X64.2334 Y22.4974 
G01 X64.1927 Y22.4974 
G01 X64.2544 Y22.5591 
G00 Z2.4000 
G00 X69.3344 Y22.5591 
G01 Z-0.1000 F50.00 
G01 X69.3344 Y23.4409 F100.00 
G01 X68.7109 Y24.0644 
G01 X67.8291 Y24.0644 
G01 X67.2056 Y23.4409 
G01 X67.2056 Y22.5591 
G01 X67.8291 Y21.9356 
G01 X68.7109 Y21.9356 
G01 X69.3344 Y22.5591 
G00 Z2.4000 
G00 X66.7944 Y22.5591 
G01 Z-0.1000 F50.00 
G01 X66.7944 Y23.4409 F100.00 
G01 X66.5404 Y23.6949 
G01 X66.5404 Y25.3498 
G01 X66.5093 Y25.5064 
G01 X66.4482 Y25.6539 
G01 X66.3595 Y25.7866 
G01 X64.6295 Y27.5166 
G01 X64.5166 Y27.6295 
G01 X64.3839 Y27.7182 
G01 X64.2364 Y27.7793 
G01 X64.0798 Y27.8104 
G01 X46.3357 Y27.8104 
G01 X44.8104 Y29.3357 
G01 X44.8104 Y38.6643 
G01 X50.6295 Y44.4834 
G01 X50.7182 Y44.6161 
G01 X50.7793 Y44.7636 
G01 X50.8104 Y44.9202 
G01 X50.8104 Y55.0798 
G01 X50.7793 Y55.2364 
G01 X50.7182 Y55.3839 
G01 X50.6295 Y55.5166 
G01 X50.5166 Y55.6295 
G01 X48.6295 Y57.5166 
G01 X48.5166 Y57.6295 
G01 X48.3839 Y57.7182 
G01 X48.2364 Y57.7793 
G01 X48.0798 Y57.8104 
G01 X42.9202 Y57.8104 
G01 X42.7636 Y57.7793 
G01 X42.6161 Y57.7182 
G01 X42.4834 Y57.6295 
G01 X42.3705 Y57.5166 
G01 X41.1305 Y56.2766 
G01 X41.0418 Y56.1439 
G01 X40.9807 Y55.9964 
G01 X40.9496 Y55.8398 
G01 X40.9496 Y53.4512 
G01 X40.9306 Y53.3557 
G01 X40.9306 Y51.8843 
G01 X40.9625 Y51.7241 
G01 X41.0250 Y51.5731 
G01 X41.1158 Y51.4373 
G01 X41.2313 Y51.3218 
G01 X41.3671 Y51.2310 
G01 X41.5181 Y51.1685 
G01 X41.6783 Y51.1366 
G01 X41.8417 Y51.1366 
G01 X42.0019 Y51.1685 
G01 X42.1529 Y51.2310 
G01 X42.2887 Y51.3218 
G01 X42.4042 Y51.4373 
G01 X42.4950 Y51.5731 
G01 X42.5575 Y51.7241 
G01 X42.5894 Y51.8843 
G01 X42.5894 Y53.3557 
G01 X42.5704 Y53.4512 
G01 X42.5704 Y55.4243 
G01 X43.3357 Y56.1896 
G01 X47.6643 Y56.1896 
G01 X49.1896 Y54.6643 
G01 X49.1896 Y45.3357 
G01 X43.3705 Y39.5166 
G01 X43.2818 Y39.3839 
G01 X43.2207 Y39.2364 
G01 X43.1896 Y39.0798 
G01 X43.1896 Y28.9202 
G01 X43.2207 Y28.7636 
G01 X43.2818 Y28.6161 
G01 X43.3705 Y28.4834 
G01 X43.4834 Y28.3705 
G01 X45.4834 Y26.3705 
G01 X45.6161 Y26.2818 
G01 X45.7636 Y26.2207 
G01 X45.9202 Y26.1896 
G01 X63.6643 Y26.1896 
G01 X64.9196 Y24.9343 
G01 X64.9196 Y23.6949 
G01 X64.6656 Y23.4409 
G01 X64.6656 Y22.5591 
G01 X65.2891 Y21.9356 
G01 X66.1709 Y21.9356 
G01 X66.7944 Y22.5591 
G00 Z2.4000 
G00 X86.5455 Y33.6594 
G01 Z-0.1000 F50.00 
G01 X84.8545 Y33.6594 F100.00 
G01 X84.6749 Y33.6237 
G01 X84.5058 Y33.5536 
G01 X84.4860 Y33.5404 
G01 X79.6502 Y33.5404 
G01 X79.4936 Y33.5093 
G01 X79.3461 Y33.4482 
G01 X79.2134 Y33.3595 
G01 X76.3705 Y30.5166 
G01 X76.2818 Y30.3839 
G01 X76.2207 Y30.2364 
G01 X76.1896 Y30.0798 
G01 X76.1896 Y21.3357 
G01 X74.6643 Y19.8104 
G01 X72.3357 Y19.8104 
G01 X71.6204 Y20.5257 
G01 X71.6204 Y21.9356 
G01 X71.7339 Y21.9356 
G01 X71.7984 Y21.9623 
G01 X71.8477 Y22.0116 
G01 X71.8744 Y22.0761 
G01 X71.8744 Y23.9239 
G01 X71.8477 Y23.9884 
G01 X71.7984 Y24.0377 
G01 X71.7339 Y24.0644 
G01 X71.6204 Y24.0644 
G01 X71.6204 Y26.2698 
G01 X71.5893 Y26.4264 
G01 X71.5282 Y26.5739 
G01 X71.4395 Y26.7066 
G01 X67.6295 Y30.5166 
G01 X67.5166 Y30.6295 
G01 X67.3839 Y30.7182 
G01 X67.2364 Y30.7793 
G01 X67.0798 Y30.8104 
G01 X48.3357 Y30.8104 
G01 X47.6504 Y31.4957 
G01 X47.6504 Y36.5488 
G01 X47.6694 Y36.6443 
G01 X47.6694 Y38.1157 
G01 X47.6375 Y38.2759 
G01 X47.5750 Y38.4269 
G01 X47.4842 Y38.5627 
G01 X47.3687 Y38.6782 
G01 X47.2329 Y38.7690 
G01 X47.0819 Y38.8315 
G01 X46.9217 Y38.8634 
G01 X46.7583 Y38.8634 
G01 X46.5981 Y38.8315 
G01 X46.4471 Y38.7690 
G01 X46.3113 Y38.6782 
G01 X46.1958 Y38.5627 
G01 X46.1050 Y38.4269 
G01 X46.0425 Y38.2759 
G01 X46.0106 Y38.1157 
G01 X46.0106 Y36.6443 
G01 X46.0296 Y36.5488 
G01 X46.0296 Y31.0802 
G01 X46.0607 Y30.9236 
G01 X46.1218 Y30.7761 
G01 X46.2105 Y30.6434 
G01 X47.3705 Y29.4834 
G01 X47.4834 Y29.3705 
G01 X47.6161 Y29.2818 
G01 X47.7636 Y29.2207 
G01 X47.9202 Y29.1896 
G01 X66.6643 Y29.1896 
G01 X69.9996 Y25.8543 
G01 X69.9996 Y24.0644 
G01 X69.8861 Y24.0644 
G01 X69.8216 Y24.0377 
G01 X69.7723 Y23.9884 
G01 X69.7456 Y23.9239 
G01 X69.7456 Y22.0761 
G01 X69.7723 Y22.0116 
G01 X69.8216 Y21.9623 
G01 X69.8861 Y21.9356 
G01 X69.9996 Y21.9356 
G01 X69.9996 Y20.1102 
G01 X70.0307 Y19.9536 
G01 X70.0918 Y19.8061 
G01 X70.1805 Y19.6734 
G01 X71.3705 Y18.4834 
G01 X71.4834 Y18.3705 
G01 X71.6161 Y18.2818 
G01 X71.7636 Y18.2207 
G01 X71.9202 Y18.1896 
G01 X75.0798 Y18.1896 
G01 X75.2364 Y18.2207 
G01 X75.3839 Y18.2818 
G01 X75.5166 Y18.3705 
G01 X75.6295 Y18.4834 
G01 X77.5166 Y20.3705 
G01 X77.6295 Y20.4834 
G01 X77.7182 Y20.6161 
G01 X77.7793 Y20.7636 
G01 X77.8104 Y20.9202 
G01 X77.8104 Y29.6643 
G01 X80.0657 Y31.9196 
G01 X84.4860 Y31.9196 
G01 X84.5058 Y31.9064 
G01 X84.6749 Y31.8363 
G01 X84.8545 Y31.8006 
G01 X86.5455 Y31.8006 
G01 X86.7251 Y31.8363 
G01 X86.8942 Y31.9064 
G01 X87.0465 Y32.0081 
G01 X87.1759 Y32.1375 
G01 X87.2776 Y32.2898 
G01 X87.3477 Y32.4589 
G01 X87.3834 Y32.6385 
G01 X87.3834 Y32.8215 
G01 X87.3477 Y33.0011 
G01 X87.2776 Y33.1702 
G01 X87.1759 Y33.3225 
G01 X87.0465 Y33.4519 
G01 X86.8942 Y33.5536 
G01 X86.7251 Y33.6237 
G01 X86.5455 Y33.6594 
G00 Z2.4000 
G00 X86.5455 Y36.1994 
G01 Z-0.1000 F50.00 
G01 X84.8545 Y36.1994 F100.00 
G01 X84.6749 Y36.1637 
G01 X84.5058 Y36.0936 
G01 X84.4860 Y36.0804 
G01 X77.1902 Y36.0804 
G01 X77.0336 Y36.0493 
G01 X76.8861 Y35.9882 
G01 X76.7534 Y35.8995 
G01 X74.6643 Y33.8104 
G01 X56.3357 Y33.8104 
G01 X55.2704 Y34.8757 
G01 X55.2704 Y36.5488 
G01 X55.2894 Y36.6443 
G01 X55.2894 Y38.1157 
G01 X55.2575 Y38.2759 
G01 X55.1950 Y38.4269 
G01 X55.1042 Y38.5627 
G01 X54.9887 Y38.6782 
G01 X54.8529 Y38.7690 
G01 X54.7019 Y38.8315 
G01 X54.5417 Y38.8634 
G01 X54.3783 Y38.8634 
G01 X54.2181 Y38.8315 
G01 X54.0671 Y38.7690 
G01 X53.9313 Y38.6782 
G01 X53.8158 Y38.5627 
G01 X53.7250 Y38.4269 
G01 X53.6625 Y38.2759 
G01 X53.6306 Y38.1157 
G01 X53.6306 Y36.6443 
G01 X53.6496 Y36.5488 
G01 X53.6496 Y34.4602 
G01 X53.6807 Y34.3036 
G01 X53.7418 Y34.1561 
G01 X53.8305 Y34.0234 
G01 X55.3705 Y32.4834 
G01 X55.4834 Y32.3705 
G01 X55.6161 Y32.2818 
G01 X55.7636 Y32.2207 
G01 X55.9202 Y32.1896 
G01 X75.0798 Y32.1896 
G01 X75.2364 Y32.2207 
G01 X75.3839 Y32.2818 
G01 X75.5166 Y32.3705 
G01 X77.6057 Y34.4596 
G01 X84.4860 Y34.4596 
G01 X84.5058 Y34.4464 
G01 X84.6749 Y34.3763 
G01 X84.8545 Y34.3406 
G01 X86.5455 Y34.3406 
G01 X86.7251 Y34.3763 
G01 X86.8942 Y34.4464 
G01 X87.0465 Y34.5481 
G01 X87.1759 Y34.6775 
G01 X87.2776 Y34.8298 
G01 X87.3477 Y34.9989 
G01 X87.3834 Y35.1785 
G01 X87.3834 Y35.3615 
G01 X87.3477 Y35.5411 
G01 X87.2776 Y35.7102 
G01 X87.1759 Y35.8625 
G01 X87.0465 Y35.9919 
G01 X86.8942 Y36.0936 
G01 X86.7251 Y36.1637 
G01 X86.5455 Y36.1994 
G00 Z2.4000 
G00 X56.1706 Y38.1157 
G01 Z-0.1000 F50.00 
G01 X56.1706 Y36.6443 F100.00 
G01 X56.2025 Y36.4841 
G01 X56.2650 Y36.3331 
G01 X56.3558 Y36.1973 
G01 X56.4713 Y36.0818 
G01 X56.6071 Y35.9910 
G01 X56.7581 Y35.9285 
G01 X56.9183 Y35.8966 
G01 X57.0817 Y35.8966 
G01 X57.2419 Y35.9285 
G01 X57.3929 Y35.9910 
G01 X57.5287 Y36.0818 
G01 X57.6442 Y36.1973 
G01 X57.7350 Y36.3331 
G01 X57.7975 Y36.4841 
G01 X57.8294 Y36.6443 
G01 X57.8294 Y38.1157 
G01 X57.8104 Y38.2112 
G01 X57.8104 Y39.6643 
G01 X59.3357 Y41.1896 
G01 X71.6643 Y41.1896 
G01 X75.6734 Y37.1805 
G01 X75.8061 Y37.0918 
G01 X75.9536 Y37.0307 
G01 X76.1102 Y36.9996 
G01 X84.4860 Y36.9996 
G01 X84.5058 Y36.9864 
G01 X84.6749 Y36.9163 
G01 X84.8545 Y36.8806 
G01 X86.5455 Y36.8806 
G01 X86.7251 Y36.9163 
G01 X86.8942 Y36.9864 
G01 X87.0465 Y37.0881 
G01 X87.1759 Y37.2175 
G01 X87.2776 Y37.3698 
G01 X87.3477 Y37.5389 
G01 X87.3834 Y37.7185 
G01 X87.3834 Y37.9015 
G01 X87.3477 Y38.0811 
G01 X87.2776 Y38.2502 
G01 X87.1759 Y38.4025 
G01 X87.0465 Y38.5319 
G01 X86.8942 Y38.6336 
G01 X86.7251 Y38.7037 
G01 X86.5455 Y38.7394 
G01 X84.8545 Y38.7394 
G01 X84.6749 Y38.7037 
G01 X84.5058 Y38.6336 
G01 X84.4860 Y38.6204 
G01 X76.5257 Y38.6204 
G01 X72.5166 Y42.6295 
G01 X72.3839 Y42.7182 
G01 X72.2364 Y42.7793 
G01 X72.0798 Y42.8104 
G01 X58.9202 Y42.8104 
G01 X58.7636 Y42.7793 
G01 X58.6161 Y42.7182 
G01 X58.4834 Y42.6295 
G01 X58.3705 Y42.5166 
G01 X56.3705 Y40.5166 
G01 X56.2818 Y40.3839 
G01 X56.2207 Y40.2364 
G01 X56.1896 Y40.0798 
G01 X56.1896 Y38.2112 
G01 X56.1706 Y38.1157 
G00 Z2.4000 
G00 X45.0946 Y38.4547 
G01 Z-0.1000 F50.00 
G01 X45.0946 Y38.4547 F100.00 
G01 X45.0946 Y38.4113 
G01 X45.0946 Y38.3874 
G01 X45.0918 Y38.3661 
G01 X45.0946 Y38.3447 
G01 X45.0946 Y38.3232 
G01 X45.1002 Y38.3025 
G01 X45.1030 Y38.2811 
G01 X45.1112 Y38.2613 
G01 X45.1168 Y38.2405 
G01 X45.1275 Y38.2219 
G01 X45.1358 Y38.2020 
G01 X45.1489 Y38.1849 
G01 X45.1596 Y38.1663 
G01 X45.1748 Y38.1511 
G01 X45.1879 Y38.1340 
G01 X45.2050 Y38.1209 
G01 X45.2202 Y38.1057 
G01 X45.2388 Y38.0950 
G01 X45.2559 Y38.0818 
G01 X45.2758 Y38.0736 
G01 X45.2944 Y38.0629 
G01 X45.3152 Y38.0573 
G01 X45.3351 Y38.0491 
G01 X45.3564 Y38.0463 
G01 X45.3772 Y38.0407 
G01 X45.3987 Y38.0407 
G01 X45.4200 Y38.0379 
G01 X45.4413 Y38.0407 
G01 X45.4628 Y38.0407 
G01 X45.4836 Y38.0463 
G01 X45.5049 Y38.0491 
G01 X45.5248 Y38.0573 
G01 X45.5456 Y38.0629 
G01 X45.5642 Y38.0736 
G01 X45.5841 Y38.0819 
G01 X45.6012 Y38.0950 
G01 X45.6198 Y38.1057 
G01 X45.6350 Y38.1209 
G01 X45.6521 Y38.1340 
G01 X45.6652 Y38.1511 
G01 X45.6804 Y38.1663 
G01 X45.6911 Y38.1849 
G01 X45.7042 Y38.2020 
G01 X45.7125 Y38.2219 
G01 X45.7232 Y38.2405 
G01 X45.7288 Y38.2613 
G01 X45.7448 Y38.2999 
G01 X45.7556 Y38.3186 
G01 X45.7611 Y38.3394 
G01 X45.7694 Y38.3592 
G01 X45.7722 Y38.3805 
G01 X45.7777 Y38.4013 
G01 X45.7777 Y38.4228 
G01 X45.7805 Y38.4442 
G01 X45.7777 Y38.4655 
G01 X45.7777 Y38.4870 
G01 X45.7722 Y38.5078 
G01 X45.7694 Y38.5291 
G01 X45.7611 Y38.5490 
G01 X45.7555 Y38.5698 
G01 X45.7448 Y38.5884 
G01 X45.7366 Y38.6083 
G01 X45.7235 Y38.6253 
G01 X45.7127 Y38.6440 
G01 X45.6975 Y38.6592 
G01 X45.6844 Y38.6762 
G01 X45.6673 Y38.6893 
G01 X45.6521 Y38.7045 
G01 X45.6335 Y38.7153 
G01 X45.6164 Y38.7284 
G01 X45.5965 Y38.7366 
G01 X45.5779 Y38.7474 
G01 X45.5571 Y38.7529 
G01 X45.5373 Y38.7612 
G01 X45.5159 Y38.7640 
G01 X45.4952 Y38.7696 
G01 X45.4736 Y38.7696 
G01 X45.4523 Y38.7724 
G01 X45.4310 Y38.7695 
G01 X45.4095 Y38.7695 
G01 X45.3887 Y38.7640 
G01 X45.3674 Y38.7612 
G01 X45.3475 Y38.7529 
G01 X45.3267 Y38.7474 
G01 X45.3081 Y38.7366 
G01 X45.2882 Y38.7284 
G01 X45.2712 Y38.7153 
G01 X45.2525 Y38.7045 
G01 X45.2373 Y38.6893 
G01 X45.2203 Y38.6762 
G01 X45.2072 Y38.6592 
G01 X45.1825 Y38.6345 
G01 X45.1596 Y38.6116 
G01 X45.1405 Y38.5785 
G01 X45.1168 Y38.5374 
G01 X45.1019 Y38.4818 
G01 X45.0946 Y38.4547 
G00 Z2.4000 
G00 X69.6932 Y24.3426 
G01 Z-0.1000 F50.00 
G01 X69.7154 Y24.4253 F100.00 
G01 X69.7154 Y25.6447 
G01 X69.6932 Y25.7274 
G01 X69.6504 Y25.8016 
G01 X66.6116 Y28.8404 
G01 X66.5374 Y28.8832 
G01 X66.4547 Y28.9054 
G01 X47.7823 Y28.9054 
G01 X47.3800 Y29.0720 
G01 X46.9960 Y29.4560 
G01 X45.9120 Y30.5400 
G01 X45.7454 Y30.9423 
G01 X45.7454 Y36.3911 
G01 X45.7461 Y36.4313 
G01 X45.7454 Y36.4340 
G01 X45.7454 Y36.4367 
G01 X45.7350 Y36.4755 
G01 X45.7253 Y36.5144 
G01 X45.7232 Y36.5195 
G01 X45.7032 Y36.5542 
G01 X45.6837 Y36.5893 
G01 X45.6804 Y36.5937 
G01 X45.6521 Y36.6220 
G01 X45.6241 Y36.6509 
G01 X45.6198 Y36.6543 
G01 X45.5851 Y36.6743 
G01 X45.5507 Y36.6950 
G01 X45.5480 Y36.6957 
G01 X45.5068 Y36.7075 
G01 X45.4683 Y36.7185 
G01 X45.4655 Y36.7186 
G01 X45.4628 Y36.7193 
G01 X45.4228 Y36.7193 
G01 X45.3826 Y36.7200 
G01 X45.3799 Y36.7193 
G01 X45.3772 Y36.7193 
G01 X45.3384 Y36.7089 
G01 X45.2995 Y36.6992 
G01 X45.2944 Y36.6971 
G01 X45.2597 Y36.6771 
G01 X45.2246 Y36.6576 
G01 X45.2202 Y36.6543 
G01 X45.1919 Y36.6260 
G01 X45.1630 Y36.5981 
G01 X45.1596 Y36.5937 
G01 X45.1396 Y36.5590 
G01 X45.1189 Y36.5246 
G01 X45.1182 Y36.5219 
G01 X45.1064 Y36.4808 
G01 X45.0954 Y36.4422 
G01 X45.0953 Y36.4394 
G01 X45.0946 Y36.4368 
G01 X45.0946 Y36.3967 
G01 X45.0939 Y36.3565 
G01 X45.0946 Y36.3538 
G01 X45.0946 Y30.8989 
G01 X45.0918 Y30.8775 
G01 X45.0946 Y30.8562 
G01 X45.0946 Y29.5453 
G01 X45.1168 Y29.4626 
G01 X45.1596 Y29.3884 
G01 X46.3884 Y28.1596 
G01 X46.4626 Y28.1168 
G01 X46.5453 Y28.0946 
G01 X64.2177 Y28.0946 
G01 X64.6200 Y27.9280 
G01 X66.6580 Y25.8900 
G01 X66.8246 Y25.4877 
G01 X66.8246 Y24.2045 
G01 X66.8468 Y24.1218 
G01 X66.8896 Y24.0476 
G01 X66.9502 Y23.9870 
G01 X66.9966 Y23.9602 
G01 X67.0244 Y23.9442 
G01 X67.1072 Y23.9220 
G01 X67.1928 Y23.9220 
G01 X67.2756 Y23.9442 
G01 X67.3498 Y23.9870 
G01 X67.7114 Y24.3486 
G01 X68.8286 Y24.3486 
G01 X69.0192 Y24.1580 
G01 X69.0268 Y24.1504 
G01 X69.0798 Y24.0974 
G01 X69.1540 Y24.0545 
G01 X69.2368 Y24.0324 
G01 X69.3225 Y24.0324 
G01 X69.3659 Y24.0440 
G01 X69.4052 Y24.0545 
G01 X69.4158 Y24.0606 
G01 X69.4794 Y24.0974 
G01 X69.5400 Y24.1580 
G01 X69.6504 Y24.2684 
G01 X69.6622 Y24.2888 
G01 X69.6932 Y24.3426 
G00 Z2.4000 
G00 X76.6422 Y36.1902 
G01 Z-0.1000 F50.00 
G01 X76.6850 Y36.2644 F100.00 
G01 X76.7072 Y36.3472 
G01 X76.7072 Y36.4328 
G01 X76.6850 Y36.5156 
G01 X76.6431 Y36.5882 
G01 X76.5816 Y36.6504 
G01 X76.5074 Y36.6932 
G01 X76.4247 Y36.7154 
G01 X75.9723 Y36.7154 
G01 X75.5700 Y36.8820 
G01 X71.6116 Y40.8404 
G01 X71.5374 Y40.8832 
G01 X71.4547 Y40.9054 
G01 X59.5453 Y40.9054 
G01 X59.4626 Y40.8832 
G01 X59.3884 Y40.8404 
G01 X59.3278 Y40.7798 
G01 X58.1596 Y39.6116 
G01 X58.1168 Y39.5374 
G01 X58.0946 Y39.4547 
G01 X58.0946 Y38.3874 
G01 X58.0918 Y38.3661 
G01 X58.0946 Y38.3448 
G01 X58.0946 Y38.3233 
G01 X58.1002 Y38.3025 
G01 X58.1030 Y38.2812 
G01 X58.1112 Y38.2613 
G01 X58.1136 Y38.2523 
G01 X58.1136 Y36.5045 
G01 X57.9441 Y36.0952 
G01 X57.6308 Y35.7819 
G01 X57.2215 Y35.6124 
G01 X56.7785 Y35.6124 
G01 X56.3692 Y35.7819 
G01 X56.0798 Y36.0713 
G01 X56.0056 Y36.1142 
G01 X55.9228 Y36.1364 
G01 X55.8372 Y36.1364 
G01 X55.7544 Y36.1142 
G01 X55.7278 Y36.0988 
G01 X55.6802 Y36.0713 
G01 X55.6196 Y36.0108 
G01 X55.5768 Y35.9366 
G01 X55.5546 Y35.8538 
G01 X55.5546 Y35.0853 
G01 X55.5768 Y35.0026 
G01 X55.6196 Y34.9284 
G01 X55.6802 Y34.8678 
G01 X56.3278 Y34.2202 
G01 X56.3884 Y34.1596 
G01 X56.4626 Y34.1168 
G01 X56.5453 Y34.0946 
G01 X74.4547 Y34.0946 
G01 X74.5374 Y34.1168 
G01 X74.6116 Y34.1596 
G01 X74.6274 Y34.1754 
G01 X76.6422 Y36.1902 
G00 Z2.4000 
G00 X86.5508 Y36.4994 
G01 Z-0.1000 F50.00 
G01 X84.8492 Y36.4994 F100.00 
G01 X84.6581 Y36.4691 
G01 X84.4741 Y36.4093 
G01 X84.4173 Y36.3804 
G01 X77.1826 Y36.3804 
G01 X77.0100 Y36.3531 
G01 X77.0072 Y36.3522 
G01 X77.0072 Y36.4516 
G01 X76.9832 Y36.5724 
G01 X76.9360 Y36.6862 
G01 X76.9271 Y36.6996 
G01 X84.4173 Y36.6996 
G01 X84.4741 Y36.6707 
G01 X84.6581 Y36.6109 
G01 X84.8492 Y36.5806 
G01 X86.5508 Y36.5806 
G01 X86.7368 Y36.6101 
G01 X86.7351 Y36.6016 
G01 X86.7351 Y36.4784 
G01 X86.7368 Y36.4699 
G01 X86.5508 Y36.4994 
G00 Z2.4000 
G00 X55.5704 Y36.5172 
G01 Z-0.1000 F50.00 
G01 X55.5894 Y36.6371 F100.00 
G01 X55.5894 Y38.1229 
G01 X55.5616 Y38.2985 
G01 X55.5534 Y38.3236 
G01 X55.6416 Y38.3236 
G01 X55.6643 Y38.3282 
G01 X55.7624 Y38.3477 
G01 X55.8762 Y38.3948 
G01 X55.8896 Y38.4038 
G01 X55.8896 Y38.2428 
G01 X55.8706 Y38.1229 
G01 X55.8706 Y36.6371 
G01 X55.8984 Y36.4615 
G01 X55.9066 Y36.4364 
G01 X55.8184 Y36.4364 
G01 X55.7957 Y36.4318 
G01 X55.6976 Y36.4123 
G01 X55.5838 Y36.3652 
G01 X55.5704 Y36.3562 
G01 X55.5704 Y36.5172 
G00 Z2.4000 
G00 X84.4173 Y34.1596 
G01 Z-0.1000 F50.00 
G01 X84.4741 Y34.1307 F100.00 
G01 X84.6581 Y34.0709 
G01 X84.8492 Y34.0406 
G01 X86.5508 Y34.0406 
G01 X86.7368 Y34.0701 
G01 X86.7351 Y34.0616 
G01 X86.7351 Y33.9384 
G01 X86.7368 Y33.9299 
G01 X86.5508 Y33.9594 
G01 X84.8492 Y33.9594 
G01 X84.6581 Y33.9291 
G01 X84.4741 Y33.8693 
G01 X84.4173 Y33.8404 
G01 X79.6426 Y33.8404 
G01 X79.4700 Y33.8131 
G01 X79.4672 Y33.8122 
G01 X79.4672 Y33.9116 
G01 X79.4432 Y34.0324 
G01 X79.3960 Y34.1462 
G01 X79.3871 Y34.1596 
G01 X84.4173 Y34.1596 
G00 Z2.4000 
G00 X45.1238 Y37.8119 
G01 Z-0.1000 F50.00 
G01 X45.2127 Y37.7750 F100.00 
G01 X45.2376 Y37.7647 
G01 X45.2890 Y37.7545 
G01 X45.3584 Y37.7407 
G01 X45.4816 Y37.7407 
G01 X45.5564 Y37.7556 
G01 X45.6024 Y37.7647 
G01 X45.7106 Y37.8095 
G01 X45.7106 Y36.9505 
G01 X45.7021 Y36.9540 
G01 X45.6889 Y36.9619 
G01 X45.6453 Y36.9775 
G01 X45.6024 Y36.9953 
G01 X45.5874 Y36.9983 
G01 X45.5730 Y37.0034 
G01 X45.5271 Y37.0103 
G01 X45.4816 Y37.0193 
G01 X45.4663 Y37.0193 
G01 X45.4511 Y37.0216 
G01 X45.4048 Y37.0193 
G01 X45.3584 Y37.0193 
G01 X45.3434 Y37.0163 
G01 X45.3281 Y37.0156 
G01 X45.2831 Y37.0043 
G01 X45.2376 Y36.9953 
G01 X45.2234 Y36.9894 
G01 X45.2086 Y36.9857 
G01 X45.1666 Y36.9659 
G01 X45.1238 Y36.9481 
G01 X45.1110 Y36.9396 
G01 X45.1104 Y37.8208 
G01 X45.1238 Y37.8119 
G00 Z2.4000 
G00 X45.8285 Y39.2392 
G01 Z-0.1000 F50.00 
G01 X45.8285 Y39.2392 F100.00 
G01 X45.8756 Y39.1254 
G01 X45.9435 Y39.0239 
G01 X45.9869 Y38.9801 
G01 X46.0312 Y38.9359 
G01 X46.0992 Y38.8904 
G01 X45.9836 Y38.7748 
G01 X45.9381 Y38.8428 
G01 X45.8952 Y38.8857 
G01 X45.8510 Y38.9299 
G01 X45.8113 Y38.9564 
G01 X45.7486 Y38.9984 
G01 X45.6913 Y39.0221 
G01 X45.6347 Y39.0455 
G01 X45.6190 Y39.0487 
G01 X45.8253 Y39.2550 
G01 X45.8285 Y39.2392 
G00 Z2.4000 
G00 X42.8865 Y36.6020 
G01 Z-0.1000 F50.00 
G01 X42.8841 Y36.6036 F100.00 
G01 X42.8894 Y36.6371 
G01 X42.8894 Y38.1229 
G01 X42.8841 Y38.1564 
G01 X42.8896 Y38.1594 
G01 X42.8896 Y36.6006 
G01 X42.8865 Y36.6020 
G00 Z2.4000 
G00 X85.0904 Y31.4194 
G01 Z-0.1000 F50.00 
G01 X85.0868 Y31.4374 F100.00 
G01 X85.0773 Y31.4602 
G01 X85.0706 Y31.4840 
G01 X85.0622 Y31.5006 
G01 X86.3378 Y31.5006 
G01 X86.3294 Y31.4840 
G01 X86.3227 Y31.4602 
G01 X86.3132 Y31.4374 
G01 X86.3096 Y31.4194 
G01 X85.0904 Y31.4194 
G00 Z2.4000 
G00 X42.2972 Y57.8864 
G01 Z-0.1000 F50.00 
G01 X42.2958 Y57.8897 F100.00 
G01 X42.2500 Y58.0002 
G01 X42.1816 Y58.1027 
G01 X42.0958 Y58.1884 
G01 X41.9921 Y58.2582 
G01 X41.8782 Y58.3054 
G01 X41.7574 Y58.3294 
G01 X1.1044 Y58.3294 
G01 X0.9836 Y58.3054 
G01 X0.8698 Y58.2582 
G01 X0.7673 Y58.1898 
G01 X0.6802 Y58.1027 
G01 X0.6118 Y58.0002 
G01 X0.5646 Y57.8864 
G01 X0.5406 Y57.7656 
G01 X0.5406 Y1.1044 
G01 X0.5646 Y0.9836 
G01 X0.6118 Y0.8698 
G01 X0.6802 Y0.7673 
G01 X0.7673 Y0.6802 
G01 X0.8698 Y0.6118 
G01 X0.9836 Y0.5646 
G01 X1.1044 Y0.5406 
G01 X88.5756 Y0.5406 
G01 X88.6964 Y0.5646 
G01 X88.8102 Y0.6118 
G01 X88.9127 Y0.6802 
G01 X88.9998 Y0.7673 
G01 X89.0682 Y0.8698 
G01 X89.1154 Y0.9836 
G01 X89.1394 Y1.1044 
G01 X89.1394 Y57.7656 
G01 X89.1154 Y57.8864 
G01 X89.0682 Y58.0002 
G01 X88.9998 Y58.1027 
G01 X88.9127 Y58.1898 
G01 X88.8102 Y58.2582 
G01 X88.6964 Y58.3054 
G01 X88.5756 Y58.3294 
G01 X49.2426 Y58.3294 
G01 X49.1218 Y58.3054 
G01 X49.0079 Y58.2582 
G01 X48.9055 Y58.1898 
G01 X48.8184 Y58.1027 
G01 X48.7500 Y58.0002 
G01 X48.7028 Y57.8864 
G01 X48.6986 Y57.8650 
G01 X48.5820 Y57.9497 
G01 X48.4262 Y58.0290 
G01 X48.2600 Y58.0831 
G01 X48.0874 Y58.1104 
G01 X42.9126 Y58.1104 
G01 X42.7400 Y58.0831 
G01 X42.5738 Y58.0290 
G01 X42.4180 Y57.9497 
G01 X42.3014 Y57.8650 
G01 X42.2972 Y57.8864 
G00 Z2.4000 
G00 Z2.400000
G00 X63.1900 Y23.0000 
G01 Z-0.2794 F50.00 
G01 Z2.400000
(R2.4000  P1.000000)
(G00 Z2.400000)
G00 X68.2700 Y23.0000 
G01 Z-1.700000
G01 Z2.400000
(G00 Z2.400000)
G00 X65.7300 Y23.0000 
G01 Z-1.700000
G01 Z2.400000
(G00 Z2.400000)
G00 X70.8100 Y23.0000 
G01 Z-1.700000
G01 Z2.400000
(G00 Z2.400000)
G00 X41.7600 Y52.6200 
G01 Z-1.700000
G01 Z2.400000
(G00 Z2.400000)
G00 X46.8400 Y52.6200 
G01 Z-1.700000
G01 Z2.400000
(G00 Z2.400000)
G00 X39.2200 Y37.3800 
G01 Z-1.700000
G01 Z2.400000
(G00 Z2.400000)
G00 X41.7600 Y37.3800 
G01 Z-1.700000
G01 Z2.400000
(G00 Z2.400000)
G00 X46.8400 Y37.3800 
G01 Z-1.700000
G01 Z2.400000
(G00 Z2.400000)
G00 X54.4600 Y37.3800 
G01 Z-1.700000
G01 Z2.400000
(G00 Z2.400000)
G00 X57.0000 Y37.3800 
G01 Z-1.700000
G01 Z2.400000
(G00 Z2.400000)
G00 X5.0400 Y53.7500 
G01 Z-1.700000
G01 Z2.400000
(G00 Z2.400000)
G00 X5.0400 Y48.3700 
G01 Z-1.700000
G01 Z2.400000
(G00 Z2.400000)
G00 X3.5000 Y28.0000 
G01 Z-1.700000
G01 Z2.400000
(G00 Z2.400000)
G00 X13.5000 Y40.0000 
G01 Z-1.700000
G01 Z2.400000
(G00 Z2.400000)
G00 X3.5000 Y40.0000 
G01 Z-1.700000
G01 Z2.400000
(G00 Z2.400000)
G00 X13.0000 Y28.0000 
G01 Z-1.700000
G01 Z2.400000
(G00 Z2.400000)
G00 X85.7000 Y30.1900 
G01 Z-1.700000
G01 Z2.400000
(G00 Z2.400000)
G00 X85.7000 Y32.7300 
G01 Z-1.700000
G01 Z2.400000
(G00 Z2.400000)
G00 X85.7000 Y35.2700 
G01 Z-1.700000
G01 Z2.400000
(G00 Z2.400000)
G00 X85.7000 Y37.8100 
G01 Z-1.700000
G01 Z2.400000
G00 Z12.7000 
M05
M02
